;FLAVOR:Marlin
;TIME:2856
;Filament used: 2.17794m
;Layer height: 0.2
;MINX:70.125
;MINY:70.125
;MINZ:0.2
;MAXX:149.875
;MAXY:149.875
;MAXZ:2.6
;Generated with Cura_SteamEngine 4.2.1
M140 S75
M105
M190 S75
M104 S200
M105
M109 S200
M82 ;absolute extrusion mode
G92 E0 ; reset extruder G1 Z1.0 F3000 ; move z up little to prevent scratching of surface
G1 X0.1 Y20 Z0.3 F5000.0 ; move to start-line position
G1 X0.1 Y200.0 Z0.3 F1500.0 E15 ; draw 1st line
G1 X0.4 Y200.0 Z0.3 F5000.0 ; move to side a little
G1 X0.4 Y20 Z0.3 F1500.0 E30 ; draw 2nd line
G92 E0 ; reset extruder
M141 S28
G92 E0
G92 E0
G1 F3000 E-5
;LAYER_COUNT:12
;LAYER:0
M107
G0 F6000 X81.824 Y81.782 Z0.2
;TYPE:SKIRT
G1 F3000 E0
G1 F1200 X82.055 Y81.552 E0.01084
G1 X82.423 Y81.194 E0.02792
G1 X82.688 Y80.944 E0.04004
G1 X83.453 Y80.246 E0.07448
G1 X83.698 Y80.029 E0.08536
G1 X84.296 Y79.514 E0.11161
G1 X84.594 Y79.265 E0.12453
G1 X85.383 Y78.631 E0.15819
G1 X85.646 Y78.427 E0.16926
G1 X86.291 Y77.939 E0.19617
G1 X86.632 Y77.69 E0.21021
G1 X87.635 Y76.988 E0.25093
G1 X87.883 Y76.82 E0.26089
G1 X88.332 Y76.523 E0.2788
G1 X88.658 Y76.315 E0.29166
G1 X89.546 Y75.77 E0.32631
G1 X89.824 Y75.604 E0.33708
G1 X90.455 Y75.241 E0.36129
G1 X90.78 Y75.062 E0.37363
G1 X91.636 Y74.606 E0.40589
G1 X91.838 Y74.501 E0.41346
G1 X92.108 Y74.364 E0.42353
G1 X92.22 Y74.308 E0.4277
G1 X92.692 Y74.075 E0.44521
G1 X93.031 Y73.914 E0.45769
G1 X93.975 Y73.486 E0.49216
G1 X94.27 Y73.357 E0.50287
G1 X94.93 Y73.08 E0.52668
G1 X95.301 Y72.932 E0.53996
G1 X96.298 Y72.554 E0.57543
G1 X96.61 Y72.441 E0.58646
G1 X97.364 Y72.18 E0.613
G1 X97.767 Y72.049 E0.6271
G1 X98.931 Y71.694 E0.66757
G1 X99.231 Y71.607 E0.67796
G1 X99.696 Y71.479 E0.694
G1 X100.046 Y71.389 E0.70602
G1 X101.131 Y71.127 E0.74315
G1 X101.448 Y71.055 E0.75396
G1 X102.233 Y70.889 E0.78064
G1 X102.624 Y70.813 E0.79389
G1 X103.457 Y70.667 E0.82202
G1 X103.63 Y70.638 E0.82786
G1 X103.975 Y70.583 E0.83947
G1 X104.131 Y70.559 E0.84472
G1 X104.606 Y70.49 E0.86069
G1 X104.998 Y70.44 E0.87383
G1 X106.27 Y70.3 E0.91639
G1 X106.598 Y70.269 E0.92735
G1 X107.105 Y70.228 E0.94427
G1 X107.471 Y70.204 E0.95647
G1 X108.542 Y70.152 E0.99213
G1 X108.868 Y70.141 E1.00298
G1 X109.621 Y70.126 E1.02803
G1 X110.013 Y70.125 E1.04107
G1 X111.049 Y70.14 E1.07553
G1 X111.369 Y70.149 E1.08618
G1 X112.144 Y70.182 E1.11198
G1 X112.566 Y70.208 E1.12604
G1 X113.781 Y70.305 E1.16658
G1 X114.108 Y70.336 E1.17751
G1 X114.604 Y70.39 E1.1941
G1 X115 Y70.44 E1.20738
G1 X116.315 Y70.63 E1.25157
G1 X116.652 Y70.684 E1.26292
G1 X117.2 Y70.78 E1.28142
G1 X117.532 Y70.843 E1.29266
G1 X118.382 Y71.018 E1.32153
G1 X118.549 Y71.054 E1.32721
G1 X118.91 Y71.134 E1.33951
G1 X119.099 Y71.177 E1.34595
G1 X119.55 Y71.285 E1.36138
G1 X119.904 Y71.376 E1.37353
G1 X121.121 Y71.709 E1.4155
G1 X121.458 Y71.807 E1.42717
G1 X122.028 Y71.982 E1.447
G1 X122.396 Y72.102 E1.45988
G1 X123.548 Y72.499 E1.50041
G1 X123.816 Y72.595 E1.50987
G1 X124.315 Y72.781 E1.52759
G1 X124.706 Y72.935 E1.54156
G1 X125.864 Y73.416 E1.58327
G1 X126.168 Y73.548 E1.59429
G1 X126.637 Y73.759 E1.6114
G1 X126.958 Y73.909 E1.62318
G1 X127.864 Y74.351 E1.65671
G1 X128.058 Y74.448 E1.66392
G1 X128.316 Y74.58 E1.67356
G1 X128.433 Y74.64 E1.67794
G1 X128.872 Y74.871 E1.69444
G1 X129.206 Y75.055 E1.70712
G1 X130.117 Y75.574 E1.74199
G1 X130.391 Y75.735 E1.75256
G1 X131.058 Y76.14 E1.77852
G1 X131.378 Y76.342 E1.7911
G1 X132.221 Y76.893 E1.8246
G1 X132.492 Y77.075 E1.83546
G1 X133.109 Y77.504 E1.86045
G1 X133.421 Y77.729 E1.87324
G1 X134.281 Y78.371 E1.90894
G1 X134.541 Y78.571 E1.91985
G1 X135.119 Y79.029 E1.94438
G1 X135.463 Y79.312 E1.95919
G1 X136.407 Y80.122 E2.00056
G1 X136.643 Y80.331 E2.01105
G1 X137.031 Y80.683 E2.02847
G1 X137.29 Y80.926 E2.04029
G1 X137.99 Y81.602 E2.07265
G1 X138.132 Y81.741 E2.07926
G1 X138.352 Y81.961 E2.08961
G1 X138.472 Y82.083 E2.0953
G1 X138.865 Y82.488 E2.11407
G1 X139.101 Y82.738 E2.12551
G1 X139.777 Y83.478 E2.15884
G1 X139.989 Y83.717 E2.16947
G1 X140.45 Y84.251 E2.19293
G1 X140.701 Y84.552 E2.20597
G1 X141.374 Y85.388 E2.24166
G1 X141.597 Y85.674 E2.25372
G1 X142.084 Y86.32 E2.28063
G1 X142.292 Y86.606 E2.29239
G1 X142.826 Y87.362 E2.32318
G1 X142.96 Y87.555 E2.33099
G1 X143.106 Y87.771 E2.33967
G1 X143.166 Y87.861 E2.34326
G1 X143.456 Y88.299 E2.36073
G1 X143.683 Y88.656 E2.37481
G1 X144.354 Y89.756 E2.41766
G1 X144.527 Y90.049 E2.42898
G1 X144.784 Y90.5 E2.44624
G1 X144.962 Y90.825 E2.45857
G1 X145.546 Y91.932 E2.5002
G1 X145.688 Y92.211 E2.51061
G1 X145.93 Y92.702 E2.52882
G1 X146.092 Y93.045 E2.54143
G1 X146.518 Y93.987 E2.57582
G1 X146.638 Y94.261 E2.58577
G1 X146.915 Y94.919 E2.60951
G1 X147.068 Y95.301 E2.6232
G1 X147.446 Y96.298 E2.65866
G1 X147.557 Y96.606 E2.66955
G1 X147.818 Y97.359 E2.69606
G1 X147.952 Y97.769 E2.7104
G1 X148.307 Y98.934 E2.75091
G1 X148.392 Y99.225 E2.76099
G1 X148.52 Y99.689 E2.777
G1 X148.612 Y100.047 E2.7893
G1 X148.874 Y101.133 E2.82645
G1 X148.945 Y101.448 E2.83719
G1 X149.111 Y102.233 E2.86388
G1 X149.187 Y102.624 E2.87713
G1 X149.333 Y103.457 E2.90526
G1 X149.362 Y103.63 E2.91109
G1 X149.417 Y103.975 E2.92271
G1 X149.44 Y104.126 E2.92779
G1 X149.506 Y104.579 E2.94302
G1 X149.553 Y104.945 E2.95529
G1 X149.679 Y106.062 E2.99268
G1 X149.71 Y106.378 E3.00324
G1 X149.769 Y107.075 E3.0265
G1 X149.798 Y107.521 E3.04137
G1 X149.855 Y108.778 E3.08322
G1 X149.865 Y109.089 E3.09357
G1 X149.875 Y109.644 E3.11203
G1 X149.875 Y110.047 E3.12544
G1 X149.854 Y111.257 E3.16569
G1 X149.844 Y111.579 E3.1764
G1 X149.817 Y112.17 E3.19608
G1 X149.792 Y112.569 E3.20938
G1 X149.691 Y113.818 E3.25105
G1 X149.661 Y114.131 E3.26151
G1 X149.611 Y114.591 E3.2769
G1 X149.566 Y114.951 E3.28897
G1 X149.408 Y116.071 E3.32659
G1 X149.358 Y116.394 E3.33746
G1 X149.235 Y117.116 E3.36182
G1 X149.155 Y117.537 E3.37607
G1 X148.904 Y118.736 E3.41681
G1 X148.832 Y119.056 E3.42772
G1 X148.711 Y119.561 E3.445
G1 X148.621 Y119.911 E3.45702
G1 X148.291 Y121.118 E3.49863
G1 X148.193 Y121.458 E3.5104
G1 X148.018 Y122.028 E3.53023
G1 X147.902 Y122.384 E3.54269
G1 X147.515 Y123.511 E3.58232
G1 X147.412 Y123.798 E3.59246
G1 X147.217 Y124.32 E3.611
G1 X147.077 Y124.677 E3.62375
G1 X146.677 Y125.647 E3.65865
G1 X146.551 Y125.941 E3.66929
G1 X146.256 Y126.603 E3.69339
G1 X146.092 Y126.956 E3.70634
G1 X145.656 Y127.851 E3.73945
G1 X145.574 Y128.014 E3.74552
G1 X145.432 Y128.294 E3.75596
G1 X145.345 Y128.463 E3.76228
G1 X145.102 Y128.923 E3.77959
G1 X144.927 Y129.241 E3.79166
G1 X144.412 Y130.145 E3.82626
G1 X144.254 Y130.414 E3.83664
G1 X143.898 Y131.001 E3.85947
G1 X143.674 Y131.355 E3.87341
G1 X142.964 Y132.434 E3.91637
G1 X142.76 Y132.735 E3.92846
G1 X142.445 Y133.182 E3.94665
G1 X142.259 Y133.437 E3.95715
G1 X141.636 Y134.271 E3.99177
G1 X141.44 Y134.526 E4.00247
G1 X140.995 Y135.088 E4.02631
G1 X140.74 Y135.4 E4.03971
G1 X140.02 Y136.246 E4.07666
G1 X139.803 Y136.493 E4.0876
G1 X139.324 Y137.024 E4.11138
G1 X139.039 Y137.329 E4.12526
G1 X138.176 Y138.218 E4.16647
G1 X137.945 Y138.448 E4.17732
G1 X137.577 Y138.806 E4.19439
G1 X137.312 Y139.056 E4.20651
G1 X136.547 Y139.754 E4.24095
G1 X136.302 Y139.971 E4.25184
G1 X135.704 Y140.486 E4.27809
G1 X135.406 Y140.735 E4.291
G1 X134.617 Y141.369 E4.32467
G1 X134.354 Y141.573 E4.33574
G1 X133.709 Y142.061 E4.36264
G1 X133.368 Y142.31 E4.37668
G1 X132.365 Y143.012 E4.4174
G1 X132.117 Y143.18 E4.42736
G1 X131.668 Y143.477 E4.44527
G1 X131.342 Y143.685 E4.45813
G1 X130.454 Y144.23 E4.49279
G1 X130.176 Y144.396 E4.50355
G1 X129.545 Y144.759 E4.52777
G1 X129.22 Y144.938 E4.54011
G1 X128.364 Y145.394 E4.57237
G1 X128.162 Y145.499 E4.57994
G1 X127.892 Y145.636 E4.59001
G1 X127.78 Y145.692 E4.59417
G1 X127.308 Y145.925 E4.61168
G1 X126.969 Y146.086 E4.62416
G1 X126.025 Y146.514 E4.65864
G1 X125.73 Y146.643 E4.66935
G1 X125.07 Y146.92 E4.69315
G1 X124.699 Y147.068 E4.70644
G1 X123.702 Y147.446 E4.7419
G1 X123.39 Y147.559 E4.75294
G1 X122.636 Y147.82 E4.77948
G1 X122.233 Y147.951 E4.79357
G1 X121.069 Y148.306 E4.83405
G1 X120.769 Y148.393 E4.84443
G1 X120.304 Y148.521 E4.86048
G1 X119.954 Y148.611 E4.8725
G1 X118.869 Y148.873 E4.90962
G1 X118.552 Y148.945 E4.92043
G1 X117.767 Y149.111 E4.94712
G1 X117.376 Y149.187 E4.96037
G1 X116.543 Y149.333 E4.98849
G1 X116.37 Y149.362 E4.99433
G1 X116.025 Y149.417 E5.00595
G1 X115.869 Y149.441 E5.0112
G1 X115.394 Y149.51 E5.02716
G1 X115.002 Y149.56 E5.04031
G1 X113.73 Y149.7 E5.08287
G1 X113.402 Y149.731 E5.09383
G1 X112.895 Y149.772 E5.11074
G1 X112.529 Y149.796 E5.12294
G1 X111.458 Y149.848 E5.15861
G1 X111.132 Y149.859 E5.16946
G1 X110.379 Y149.874 E5.19451
G1 X109.987 Y149.875 E5.20754
G1 X108.951 Y149.86 E5.24201
G1 X108.631 Y149.851 E5.25265
G1 X107.856 Y149.818 E5.27845
G1 X107.434 Y149.792 E5.29252
G1 X106.219 Y149.695 E5.33305
G1 X105.892 Y149.664 E5.34398
G1 X105.396 Y149.61 E5.36057
G1 X105 Y149.56 E5.37385
G1 X103.685 Y149.37 E5.41804
G1 X103.348 Y149.316 E5.42939
G1 X102.8 Y149.22 E5.4479
G1 X102.468 Y149.157 E5.45914
G1 X101.618 Y148.982 E5.488
G1 X101.451 Y148.946 E5.49368
G1 X101.09 Y148.866 E5.50598
G1 X100.901 Y148.823 E5.51243
G1 X100.45 Y148.715 E5.52785
G1 X100.096 Y148.624 E5.54001
G1 X98.879 Y148.291 E5.58197
G1 X98.542 Y148.193 E5.59365
G1 X97.972 Y148.018 E5.61348
G1 X97.604 Y147.898 E5.62635
G1 X96.452 Y147.501 E5.66688
G1 X96.18 Y147.403 E5.6765
G1 X95.679 Y147.216 E5.69428
G1 X95.293 Y147.064 E5.70808
G1 X94.137 Y146.584 E5.74971
G1 X93.832 Y146.452 E5.76077
G1 X93.363 Y146.241 E5.77787
G1 X93.042 Y146.091 E5.78965
G1 X92.136 Y145.649 E5.82318
G1 X91.942 Y145.552 E5.8304
G1 X91.684 Y145.42 E5.84004
G1 X91.567 Y145.36 E5.84441
G1 X91.128 Y145.129 E5.86091
G1 X90.794 Y144.945 E5.87359
G1 X89.883 Y144.426 E5.90846
G1 X89.607 Y144.264 E5.91911
G1 X88.909 Y143.84 E5.94627
G1 X88.597 Y143.643 E5.95854
G1 X87.854 Y143.158 E5.98806
G1 X87.675 Y143.039 E5.9952
G1 X87.4 Y142.852 E6.00627
G1 X87.265 Y142.759 E6.01172
G1 X86.87 Y142.482 E6.02776
G1 X86.561 Y142.258 E6.04046
G1 X85.499 Y141.459 E6.08466
G1 X85.229 Y141.249 E6.09604
G1 X84.853 Y140.948 E6.11206
G1 X84.56 Y140.705 E6.12472
G1 X83.583 Y139.868 E6.16751
G1 X83.33 Y139.645 E6.17872
G1 X83.043 Y139.384 E6.19163
G1 X82.778 Y139.135 E6.20372
G1 X81.733 Y138.122 E6.25213
G1 X81.502 Y137.891 E6.26299
G1 X81.202 Y137.583 E6.27729
G1 X80.959 Y137.326 E6.28906
G1 X80.224 Y136.523 E6.32526
G1 X79.99 Y136.26 E6.33697
G1 X79.541 Y135.738 E6.35987
G1 X79.301 Y135.449 E6.37237
G1 X78.623 Y134.606 E6.40835
G1 X78.407 Y134.329 E6.42003
G1 X77.899 Y133.656 E6.44808
G1 X77.655 Y133.32 E6.46189
G1 X76.988 Y132.366 E6.50061
G1 X76.824 Y132.125 E6.5103
G1 X76.558 Y131.723 E6.52633
G1 X76.336 Y131.373 E6.54012
G1 X75.649 Y130.248 E6.58396
G1 X75.477 Y129.958 E6.59518
G1 X75.219 Y129.506 E6.61249
G1 X75.035 Y129.171 E6.6252
G1 X74.452 Y128.065 E6.66678
G1 X74.307 Y127.781 E6.67739
G1 X74.065 Y127.289 E6.69562
G1 X73.91 Y126.959 E6.70775
G1 X73.484 Y126.018 E6.74211
G1 X73.362 Y125.739 E6.75223
G1 X73.085 Y125.081 E6.77598
G1 X72.932 Y124.699 E6.78967
G1 X72.554 Y123.702 E6.82513
G1 X72.441 Y123.39 E6.83617
G1 X72.18 Y122.636 E6.8627
G1 X72.061 Y122.271 E6.87547
G1 X71.784 Y121.374 E6.9067
G1 X71.729 Y121.192 E6.91302
G1 X71.645 Y120.903 E6.92303
G1 X71.601 Y120.748 E6.92839
G1 X71.479 Y120.305 E6.94367
G1 X71.389 Y119.957 E6.95563
G1 X71.123 Y118.857 E6.99327
G1 X71.053 Y118.546 E7.00387
G1 X70.895 Y117.802 E7.02917
G1 X70.809 Y117.357 E7.04424
G1 X70.605 Y116.165 E7.08447
G1 X70.558 Y115.861 E7.0947
G1 X70.488 Y115.373 E7.11109
G1 X70.44 Y114.995 E7.12377
G1 X70.3 Y113.717 E7.16653
G1 X70.269 Y113.399 E7.17716
G1 X70.228 Y112.894 E7.19401
G1 X70.204 Y112.517 E7.20657
G1 X70.152 Y111.433 E7.24267
G1 X70.141 Y111.119 E7.25312
G1 X70.125 Y110.332 E7.2793
G1 X70.125 Y109.891 E7.29397
G1 X70.147 Y108.692 E7.33385
G1 X70.157 Y108.378 E7.3443
G1 X70.182 Y107.834 E7.36241
G1 X70.204 Y107.483 E7.37411
G1 X70.279 Y106.508 E7.40663
G1 X70.296 Y106.307 E7.41334
G1 X70.323 Y106.022 E7.42287
G1 X70.338 Y105.871 E7.42791
G1 X70.387 Y105.418 E7.44307
G1 X70.434 Y105.046 E7.45554
G1 X70.594 Y103.916 E7.4935
G1 X70.643 Y103.597 E7.50423
G1 X70.765 Y102.882 E7.52836
G1 X70.845 Y102.463 E7.54254
G1 X71.096 Y101.264 E7.58329
G1 X71.167 Y100.945 E7.59416
G1 X71.292 Y100.423 E7.61201
G1 X71.384 Y100.066 E7.62427
G1 X71.71 Y98.876 E7.66531
G1 X71.807 Y98.542 E7.67688
G1 X71.982 Y97.972 E7.69671
G1 X72.102 Y97.604 E7.70958
G1 X72.499 Y96.452 E7.75011
G1 X72.598 Y96.177 E7.75983
G1 X72.79 Y95.663 E7.77808
G1 X72.942 Y95.277 E7.79188
G1 X73.417 Y94.134 E7.83305
G1 X73.553 Y93.82 E7.84443
G1 X73.766 Y93.348 E7.86165
G1 X73.908 Y93.044 E7.87281
G1 X74.344 Y92.149 E7.90592
G1 X74.426 Y91.986 E7.91199
G1 X74.568 Y91.706 E7.92243
G1 X74.655 Y91.537 E7.92876
G1 X74.898 Y91.077 E7.94606
G1 X75.073 Y90.759 E7.95813
G1 X75.588 Y89.855 E7.99274
G1 X75.746 Y89.586 E8.00311
G1 X76.102 Y88.999 E8.02595
G1 X76.326 Y88.645 E8.03988
G1 X77.036 Y87.566 E8.08284
G1 X77.24 Y87.265 E8.09493
G1 X77.555 Y86.818 E8.11312
G1 X77.741 Y86.563 E8.12362
G1 X78.364 Y85.729 E8.15824
G1 X78.56 Y85.474 E8.16894
G1 X79.005 Y84.912 E8.19278
G1 X79.26 Y84.6 E8.20618
G1 X79.98 Y83.754 E8.24313
G1 X80.197 Y83.507 E8.25407
G1 X80.676 Y82.976 E8.27785
G1 X80.961 Y82.671 E8.29174
G1 X81.824 Y81.782 E8.33295
G0 F6000 X82.111 Y82.061
G1 F1200 X82.334 Y81.838 E8.34344
G1 X82.702 Y81.48 E8.36051
G1 X82.958 Y81.239 E8.37221
G1 X83.723 Y80.541 E8.40665
G1 X83.959 Y80.332 E8.41713
G1 X84.557 Y79.817 E8.44338
G1 X84.845 Y79.577 E8.45585
G1 X85.634 Y78.943 E8.48952
G1 X85.887 Y78.746 E8.50018
G1 X86.532 Y78.258 E8.52708
G1 X86.862 Y78.018 E8.54065
G1 X87.865 Y77.316 E8.58137
G1 X88.103 Y77.154 E8.59095
G1 X88.552 Y76.857 E8.60885
G1 X88.867 Y76.656 E8.62128
G1 X89.755 Y76.111 E8.65594
G1 X90.024 Y75.951 E8.66635
G1 X90.655 Y75.588 E8.69056
G1 X90.968 Y75.415 E8.70245
G1 X91.824 Y74.959 E8.73471
G1 X92.019 Y74.858 E8.74202
G1 X92.289 Y74.721 E8.75209
G1 X92.397 Y74.666 E8.75612
G1 X92.869 Y74.433 E8.77362
G1 X93.196 Y74.279 E8.78565
G1 X94.14 Y73.851 E8.82012
G1 X94.425 Y73.726 E8.83047
G1 X95.085 Y73.449 E8.85428
G1 X95.442 Y73.306 E8.86707
G1 X96.439 Y72.928 E8.90253
G1 X96.741 Y72.819 E8.91321
G1 X97.495 Y72.558 E8.93975
G1 X97.884 Y72.431 E8.95336
G1 X99.048 Y72.076 E8.99383
G1 X99.338 Y71.992 E9.00388
G1 X99.803 Y71.864 E9.01992
G1 X100.14 Y71.777 E9.03149
G1 X101.225 Y71.515 E9.06862
G1 X101.531 Y71.446 E9.07905
G1 X102.316 Y71.28 E9.10574
G1 X102.693 Y71.207 E9.11851
G1 X103.526 Y71.061 E9.14664
G1 X103.693 Y71.033 E9.15227
G1 X104.038 Y70.978 E9.16389
G1 X104.189 Y70.955 E9.16897
G1 X104.664 Y70.886 E9.18493
G1 X105.042 Y70.838 E9.19761
G1 X106.314 Y70.698 E9.24017
G1 X106.63 Y70.668 E9.25073
G1 X107.137 Y70.627 E9.26765
G1 X107.491 Y70.604 E9.27944
G1 X108.562 Y70.552 E9.31511
G1 X108.876 Y70.541 E9.32556
G1 X109.629 Y70.526 E9.35061
G1 X110.007 Y70.525 E9.36318
G1 X111.043 Y70.54 E9.39764
G1 X111.352 Y70.549 E9.40792
G1 X112.127 Y70.582 E9.43372
G1 X112.534 Y70.607 E9.44729
G1 X113.749 Y70.704 E9.48783
G1 X114.065 Y70.734 E9.49838
G1 X114.561 Y70.788 E9.51498
G1 X114.943 Y70.836 E9.52778
G1 X116.258 Y71.026 E9.57197
G1 X116.583 Y71.078 E9.58292
G1 X117.131 Y71.174 E9.60142
G1 X117.451 Y71.235 E9.61226
G1 X118.301 Y71.41 E9.64112
G1 X118.463 Y71.445 E9.64664
G1 X118.824 Y71.525 E9.65893
G1 X119.006 Y71.566 E9.66514
G1 X119.457 Y71.674 E9.68056
G1 X119.798 Y71.762 E9.69228
G1 X121.015 Y72.095 E9.73424
G1 X121.34 Y72.189 E9.7455
G1 X121.91 Y72.364 E9.76533
G1 X122.266 Y72.48 E9.77778
G1 X123.418 Y72.877 E9.81831
G1 X123.676 Y72.97 E9.82743
G1 X124.175 Y73.156 E9.84514
G1 X124.553 Y73.304 E9.85864
G1 X125.711 Y73.785 E9.90035
G1 X126.004 Y73.912 E9.91097
G1 X126.473 Y74.123 E9.92807
G1 X126.783 Y74.269 E9.93947
G1 X127.689 Y74.711 E9.973
G1 X127.876 Y74.804 E9.97995
G1 X128.134 Y74.936 E9.98959
G1 X128.246 Y74.994 E9.99378
G1 X128.685 Y75.225 E10.01028
G1 X129.008 Y75.402 E10.02253
G1 X129.919 Y75.921 E10.0574
G1 X130.183 Y76.077 E10.0676
G1 X130.85 Y76.482 E10.09356
G1 X131.159 Y76.676 E10.10569
G1 X132.002 Y77.227 E10.13919
G1 X132.264 Y77.404 E10.1497
G1 X132.881 Y77.833 E10.1747
G1 X133.181 Y78.049 E10.18699
