;FLAVOR:Marlin
;TIME:4313
;Filament used: 3.60847m
;Layer height: 0.2
;MINX:70.127
;MINY:70.126
;MINZ:0.2
;MAXX:149.875
;MAXY:149.872
;MAXZ:7.2
;Generated with Cura_SteamEngine 4.2.1
M140 S75
M105
M190 S75
M104 S205
M105
M109 S205
M82 ;absolute extrusion mode
G92 E0 ; reset extruder G1 Z1.0 F3000 ; move z up little to prevent scratching of surface
G1 X0.1 Y20 Z0.3 F5000.0 ; move to start-line position
G1 X0.1 Y200.0 Z0.3 F1500.0 E15 ; draw 1st line
G1 X0.4 Y200.0 Z0.3 F5000.0 ; move to side a little
G1 X0.4 Y20 Z0.3 F1500.0 E30 ; draw 2nd line
G92 E0 ; reset extruder
M141 S28
G92 E0
G92 E0
G1 F3000 E-5
;LAYER_COUNT:35
;LAYER:0
M107
G0 F6000 X81.892 Y81.72 Z0.2
;TYPE:SKIRT
G1 F3000 E0
G1 F1200 X82.408 Y81.215 E0.02401
G1 X82.695 Y80.943 E0.03717
G1 X83.489 Y80.218 E0.07293
G1 X83.736 Y79.999 E0.08391
G1 X84.32 Y79.496 E0.10954
G1 X84.628 Y79.241 E0.12284
G1 X85.345 Y78.666 E0.15341
G1 X85.493 Y78.549 E0.15968
G1 X85.742 Y78.356 E0.17016
G1 X85.867 Y78.261 E0.17538
G1 X86.244 Y77.977 E0.19108
G1 X86.558 Y77.748 E0.20401
G1 X87.589 Y77.025 E0.24589
G1 X87.857 Y76.843 E0.25667
G1 X88.377 Y76.5 E0.27739
G1 X88.676 Y76.309 E0.28919
G1 X89.47 Y75.82 E0.3202
G1 X89.718 Y75.672 E0.32981
G1 X90.32 Y75.322 E0.35297
G1 X90.721 Y75.099 E0.36823
G1 X91.954 Y74.447 E0.41462
G1 X92.285 Y74.279 E0.42697
G1 X92.779 Y74.038 E0.44525
G1 X93.056 Y73.908 E0.45542
G1 X93.889 Y73.529 E0.48586
G1 X94.162 Y73.409 E0.49578
G1 X94.759 Y73.156 E0.51735
G1 X95.188 Y72.984 E0.53272
G1 X96.669 Y72.426 E0.58536
G1 X96.994 Y72.309 E0.59685
G1 X97.394 Y72.172 E0.61091
G1 X97.755 Y72.055 E0.62353
G1 X98.903 Y71.704 E0.66346
G1 X99.21 Y71.615 E0.67409
G1 X99.675 Y71.487 E0.69013
G1 X100.014 Y71.399 E0.70178
G1 X101.119 Y71.131 E0.7396
G1 X101.433 Y71.06 E0.75031
G1 X102.18 Y70.901 E0.77571
G1 X102.585 Y70.822 E0.78943
G1 X103.481 Y70.665 E0.81969
G1 X103.662 Y70.635 E0.82579
G1 X103.977 Y70.585 E0.8364
G1 X104.118 Y70.563 E0.84114
G1 X104.584 Y70.495 E0.85681
G1 X104.945 Y70.449 E0.86891
G1 X106.029 Y70.326 E0.9052
G1 X106.365 Y70.293 E0.91643
G1 X107.275 Y70.217 E0.9468
G1 X107.641 Y70.192 E0.959
G1 X108.012 Y70.173 E0.97135
G1 X108.242 Y70.163 E0.97901
G1 X108.985 Y70.14 E1.00374
G1 X109.136 Y70.137 E1.00876
G1 X109.7 Y70.127 E1.02752
G1 X110.061 Y70.126 E1.03953
G1 X110.923 Y70.138 E1.0682
G1 X111.129 Y70.143 E1.07505
G1 X111.472 Y70.154 E1.08647
G1 X111.629 Y70.16 E1.09169
G1 X112.153 Y70.184 E1.10914
G1 X112.508 Y70.206 E1.12097
G1 X113.571 Y70.288 E1.15643
G1 X113.905 Y70.318 E1.16758
G1 X114.729 Y70.406 E1.19515
G1 X115.075 Y70.449 E1.20674
G1 X115.706 Y70.536 E1.22793
G1 X115.925 Y70.568 E1.23529
G1 X116.407 Y70.644 E1.25152
G1 X116.585 Y70.674 E1.25752
G1 X117.407 Y70.817 E1.28527
G1 X117.764 Y70.885 E1.29736
G1 X118.189 Y70.973 E1.3118
G1 X118.37 Y71.012 E1.31796
G1 X118.87 Y71.124 E1.335
G1 X119.033 Y71.161 E1.34056
G1 X119.651 Y71.309 E1.36169
G1 X119.971 Y71.391 E1.37268
G1 X120.685 Y71.584 E1.39728
G1 X120.889 Y71.641 E1.40432
G1 X121.254 Y71.747 E1.41697
G1 X121.426 Y71.799 E1.42294
G1 X122.213 Y72.041 E1.45033
G1 X122.492 Y72.13 E1.46007
G1 X122.882 Y72.261 E1.47375
G1 X123.116 Y72.343 E1.482
G1 X123.635 Y72.53 E1.50035
G1 X123.785 Y72.585 E1.50566
G1 X124.399 Y72.816 E1.52748
G1 X124.722 Y72.943 E1.53902
G1 X125.427 Y73.233 E1.56438
G1 X125.63 Y73.319 E1.57171
G1 X125.964 Y73.464 E1.58382
G1 X126.124 Y73.535 E1.58964
G1 X126.703 Y73.797 E1.61078
G1 X127.032 Y73.952 E1.62288
G1 X128.098 Y74.476 E1.66238
G1 X128.378 Y74.619 E1.67284
G1 X128.912 Y74.9 E1.69291
G1 X129.265 Y75.093 E1.70629
G1 X130.331 Y75.703 E1.74714
G1 X130.614 Y75.871 E1.75809
G1 X131.257 Y76.264 E1.78315
G1 X131.5 Y76.417 E1.7927
G1 X131.811 Y76.618 E1.80502
G1 X132.037 Y76.767 E1.81402
G1 X132.591 Y77.144 E1.83631
G1 X132.738 Y77.246 E1.84226
G1 X133.187 Y77.562 E1.86052
G1 X133.453 Y77.755 E1.87146
G1 X134.23 Y78.336 E1.90372
G1 X134.381 Y78.451 E1.91004
G1 X134.62 Y78.636 E1.92009
G1 X134.761 Y78.747 E1.92606
G1 X135.155 Y79.062 E1.94284
G1 X135.425 Y79.284 E1.95446
G1 X136.177 Y79.924 E1.98731
G1 X136.401 Y80.12 E1.9972
G1 X136.965 Y80.626 E2.02241
G1 X137.297 Y80.937 E2.03754
G1 X138.221 Y81.835 E2.08039
G1 X138.454 Y82.067 E2.09133
G1 X138.961 Y82.589 E2.11553
G1 X139.168 Y82.808 E2.12555
G1 X139.425 Y83.087 E2.13817
G1 X139.593 Y83.274 E2.14653
G1 X140.023 Y83.762 E2.16816
G1 X140.134 Y83.89 E2.1738
G1 X140.494 Y84.311 E2.19222
G1 X140.733 Y84.6 E2.2047
G1 X141.508 Y85.569 E2.24597
G1 X141.704 Y85.822 E2.25661
G1 X142.024 Y86.246 E2.27428
G1 X142.261 Y86.572 E2.28768
G1 X143.031 Y87.671 E2.33232
G1 X143.2 Y87.917 E2.34224
G1 X143.451 Y88.296 E2.35736
G1 X143.665 Y88.633 E2.37064
G1 X144.24 Y89.571 E2.40723
G1 X144.404 Y89.846 E2.41788
G1 X144.745 Y90.439 E2.44063
G1 X144.949 Y90.811 E2.45474
G1 X145.546 Y91.945 E2.49737
G1 X145.692 Y92.232 E2.50808
G1 X145.962 Y92.782 E2.52846
G1 X146.113 Y93.101 E2.5402
G1 X146.49 Y93.933 E2.57058
G1 X146.608 Y94.204 E2.58041
G1 X146.901 Y94.898 E2.60546
G1 X147.061 Y95.297 E2.61976
G1 X147.494 Y96.441 E2.66045
G1 X147.604 Y96.744 E2.67117
G1 X147.78 Y97.252 E2.68905
G1 X147.896 Y97.604 E2.70137
G1 X148.239 Y98.709 E2.73986
G1 X148.335 Y99.038 E2.75126
G1 X148.525 Y99.722 E2.77487
G1 X148.624 Y100.101 E2.7879
G1 X148.867 Y101.109 E2.82238
G1 X148.934 Y101.405 E2.83248
G1 X149.1 Y102.184 E2.85897
G1 X149.186 Y102.634 E2.87421
G1 X149.39 Y103.824 E2.91436
G1 X149.434 Y104.098 E2.92359
G1 X149.509 Y104.61 E2.9408
G1 X149.558 Y104.991 E2.95358
G1 X149.672 Y106.007 E2.98758
G1 X149.702 Y106.311 E2.99775
G1 X149.78 Y107.227 E3.02832
G1 X149.805 Y107.583 E3.04019
G1 X149.827 Y107.993 E3.05385
G1 X149.837 Y108.241 E3.0621
G1 X149.859 Y108.932 E3.0851
G1 X149.863 Y109.099 E3.09065
G1 X149.874 Y109.738 E3.11191
G1 X149.875 Y110.076 E3.12315
G1 X149.867 Y110.716 E3.14444
G1 X149.862 Y110.929 E3.15153
G1 X149.846 Y111.443 E3.16863
G1 X149.84 Y111.603 E3.17396
G1 X149.815 Y112.156 E3.19237
G1 X149.793 Y112.518 E3.20443
G1 X149.714 Y113.542 E3.23859
G1 X149.684 Y113.873 E3.24964
G1 X149.571 Y114.933 E3.2851
G1 X149.504 Y115.449 E3.30241
G1 X149.375 Y116.292 E3.33077
G1 X149.339 Y116.51 E3.33812
G1 X149.2 Y117.314 E3.36526
G1 X149.143 Y117.622 E3.37567
G1 X149.055 Y118.059 E3.3905
G1 X149.003 Y118.303 E3.3988
G1 X148.888 Y118.816 E3.41628
G1 X148.852 Y118.971 E3.42158
G1 X148.68 Y119.691 E3.4462
G1 X148.599 Y120.009 E3.45711
G1 X148.451 Y120.558 E3.47602
G1 X148.395 Y120.758 E3.48293
G1 X148.24 Y121.294 E3.50149
G1 X148.193 Y121.454 E3.50704
G1 X148.067 Y121.867 E3.5214
G1 X147.948 Y122.232 E3.53417
G1 X147.505 Y123.526 E3.57966
G1 X147.388 Y123.852 E3.59118
G1 X147.101 Y124.614 E3.61826
G1 X146.993 Y124.891 E3.62815
G1 X146.908 Y125.1 E3.63565
G1 X146.811 Y125.332 E3.64402
G1 X146.522 Y126 E3.66822
G1 X146.448 Y126.166 E3.67427
G1 X146.219 Y126.673 E3.69277
G1 X146.051 Y127.029 E3.70587
G1 X145.479 Y128.187 E3.74882
G1 X145.346 Y128.448 E3.75857
G1 X145.056 Y128.999 E3.77928
G1 X144.902 Y129.282 E3.78999
G1 X144.594 Y129.829 E3.81087
G1 X144.467 Y130.049 E3.81932
G1 X144.221 Y130.464 E3.83537
G1 X144.147 Y130.587 E3.84014
G1 X143.85 Y131.074 E3.85911
G1 X143.632 Y131.417 E3.87263
G1 X142.953 Y132.446 E3.91363
G1 X142.765 Y132.722 E3.92474
G1 X142.486 Y133.119 E3.94088
G1 X142.294 Y133.384 E3.95176
G1 X141.631 Y134.272 E3.98862
G1 X141.422 Y134.543 E4.00001
G1 X140.962 Y135.122 E4.0246
G1 X140.724 Y135.412 E4.03708
G1 X140.075 Y136.176 E4.07042
G1 X139.865 Y136.416 E4.08103
G1 X139.358 Y136.98 E4.10625
G1 X139.083 Y137.275 E4.11967
G1 X138.337 Y138.048 E4.1554
G1 X138.116 Y138.271 E4.16584
G1 X137.599 Y138.778 E4.18992
G1 X137.298 Y139.063 E4.20371
G1 X136.505 Y139.786 E4.2394
G1 X136.272 Y139.992 E4.24974
G1 X135.688 Y140.496 E4.2754
G1 X135.386 Y140.749 E4.28851
G1 X134.67 Y141.325 E4.31907
G1 X134.485 Y141.47 E4.32689
G1 X134.236 Y141.662 E4.33734
G1 X134.134 Y141.739 E4.3416
G1 X133.757 Y142.023 E4.35729
G1 X133.437 Y142.256 E4.37046
G1 X132.406 Y142.978 E4.41232
G1 X132.14 Y143.159 E4.42302
G1 X131.618 Y143.503 E4.44382
G1 X131.323 Y143.691 E4.45545
G1 X130.529 Y144.18 E4.48647
G1 X130.366 Y144.278 E4.49279
G1 X130.108 Y144.431 E4.50277
G1 X129.98 Y144.506 E4.5077
G1 X129.636 Y144.704 E4.52091
G1 X129.275 Y144.903 E4.53462
G1 X128.043 Y145.554 E4.58096
G1 X127.715 Y145.721 E4.5932
G1 X127.221 Y145.962 E4.61148
G1 X126.939 Y146.095 E4.62185
G1 X126.105 Y146.474 E4.65232
G1 X125.837 Y146.591 E4.66205
G1 X125.24 Y146.844 E4.68362
G1 X124.816 Y147.014 E4.69881
G1 X123.337 Y147.572 E4.75139
G1 X123.007 Y147.691 E4.76305
G1 X122.607 Y147.828 E4.77712
G1 X122.244 Y147.946 E4.78981
G1 X121.095 Y148.297 E4.82977
G1 X120.796 Y148.384 E4.84013
G1 X120.332 Y148.512 E4.85614
G1 X119.985 Y148.601 E4.86805
G1 X118.879 Y148.869 E4.9059
G1 X118.55 Y148.944 E4.91713
G1 X117.802 Y149.102 E4.94255
G1 X117.426 Y149.175 E4.95529
G1 X116.53 Y149.333 E4.98555
G1 X116.337 Y149.365 E4.99206
G1 X116.022 Y149.415 E5.00267
G1 X115.885 Y149.436 E5.00728
G1 X115.42 Y149.504 E5.02291
G1 X115.054 Y149.551 E5.03518
G1 X113.969 Y149.674 E5.0715
G1 X113.635 Y149.707 E5.08266
G1 X112.726 Y149.783 E5.113
G1 X112.358 Y149.808 E5.12527
G1 X111.986 Y149.827 E5.13766
G1 X111.757 Y149.837 E5.14528
G1 X111.015 Y149.86 E5.16997
G1 X110.853 Y149.863 E5.17536
G1 X110.316 Y149.872 E5.19323
G1 X109.93 Y149.872 E5.20606
G1 X108.76 Y149.852 E5.24498
G1 X108.434 Y149.842 E5.25583
G1 X107.8 Y149.813 E5.27694
G1 X107.415 Y149.789 E5.28977
G1 X106.236 Y149.695 E5.32911
G1 X105.891 Y149.662 E5.34064
G1 X105.293 Y149.596 E5.36065
G1 X104.983 Y149.558 E5.37103
G1 X104.187 Y149.448 E5.39776
G1 X103.946 Y149.412 E5.40587
G1 X103.59 Y149.355 E5.41786
G1 X103.451 Y149.331 E5.42255
G1 X102.583 Y149.181 E5.45185
G1 X102.166 Y149.101 E5.46597
G1 X101.764 Y149.016 E5.47963
G1 X101.619 Y148.985 E5.48457
G1 X101.117 Y148.872 E5.50168
G1 X100.967 Y148.837 E5.5068
G1 X100.311 Y148.68 E5.52924
G1 X99.994 Y148.599 E5.54012
G1 X99.353 Y148.426 E5.5622
G1 X99.155 Y148.371 E5.56904
G1 X98.678 Y148.233 E5.58555
G1 X98.509 Y148.183 E5.59142
G1 X98.055 Y148.044 E5.60721
G1 X97.69 Y147.925 E5.61998
G1 X96.487 Y147.512 E5.66228
G1 X96.176 Y147.4 E5.67328
G1 X95.607 Y147.186 E5.69349
G1 X95.282 Y147.059 E5.7051
G1 X94.565 Y146.764 E5.73089
G1 X94.347 Y146.671 E5.73877
G1 X93.964 Y146.504 E5.75267
G1 X93.839 Y146.448 E5.75722
G1 X93.315 Y146.212 E5.77634
G1 X93.006 Y146.068 E5.78768
G1 X92.168 Y145.66 E5.81868
G1 X91.968 Y145.56 E5.82611
G1 X91.702 Y145.424 E5.83605
G1 X91.563 Y145.352 E5.84126
G1 X91.094 Y145.104 E5.8589
G1 X90.8 Y144.943 E5.87005
G1 X89.883 Y144.423 E5.90511
G1 X89.586 Y144.248 E5.91658
G1 X88.987 Y143.884 E5.93989
G1 X88.665 Y143.681 E5.95255
G1 X87.748 Y143.081 E5.989
G1 X87.472 Y142.895 E6.00007
G1 X86.789 Y142.419 E6.02776
G1 X86.44 Y142.166 E6.0421
G1 X85.523 Y141.474 E6.0803
G1 X85.299 Y141.3 E6.08974
G1 X84.905 Y140.987 E6.10647
G1 X84.6 Y140.736 E6.11961
G1 X83.766 Y140.025 E6.15606
G1 X83.517 Y139.806 E6.16709
G1 X82.954 Y139.297 E6.19234
G1 X82.685 Y139.047 E6.20455
G1 X82.039 Y138.424 E6.2344
G1 X81.837 Y138.223 E6.24388
G1 X81.332 Y137.711 E6.2678
G1 X81.018 Y137.38 E6.28297
G1 X80.034 Y136.299 E6.33159
G1 X79.787 Y136.019 E6.34401
G1 X79.476 Y135.654 E6.35996
G1 X79.259 Y135.391 E6.3713
G1 X78.616 Y134.589 E6.40549
G1 X78.434 Y134.356 E6.41532
G1 X77.997 Y133.781 E6.43934
G1 X77.739 Y133.428 E6.45389
G1 X76.995 Y132.367 E6.49699
G1 X76.804 Y132.086 E6.50829
G1 X76.51 Y131.639 E6.52608
G1 X76.33 Y131.356 E6.53724
G1 X75.837 Y130.556 E6.56849
G1 X75.681 Y130.295 E6.57861
G1 X75.29 Y129.621 E6.60452
G1 X75.066 Y129.217 E6.61989
G1 X74.453 Y128.054 E6.66361
G1 X74.31 Y127.774 E6.67407
G1 X74.052 Y127.25 E6.6935
G1 X73.898 Y126.924 E6.70549
G1 X73.516 Y126.082 E6.73624
G1 X73.408 Y125.834 E6.74524
G1 X73.16 Y125.251 E6.76631
G1 X72.983 Y124.812 E6.78205
G1 X72.432 Y123.351 E6.83399
G1 X72.31 Y123.011 E6.846
G1 X72.168 Y122.595 E6.86062
G1 X72.068 Y122.287 E6.87139
G1 X71.794 Y121.403 E6.90217
G1 X71.735 Y121.208 E6.90895
G1 X71.656 Y120.936 E6.91837
G1 X71.612 Y120.779 E6.92379
G1 X71.483 Y120.31 E6.93997
G1 X71.395 Y119.968 E6.95172
G1 X71.123 Y118.844 E6.99018
G1 X71.052 Y118.532 E7.00082
G1 X70.905 Y117.84 E7.02435
G1 X70.826 Y117.435 E7.03808
G1 X70.645 Y116.4 E7.07302
G1 X70.597 Y116.1 E7.08313
G1 X70.49 Y115.375 E7.1075
G1 X70.435 Y114.949 E7.12179
G1 X70.302 Y113.732 E7.16251
G1 X70.272 Y113.412 E7.1732
G1 X70.214 Y112.694 E7.19716
G1 X70.193 Y112.374 E7.20782
G1 X70.173 Y111.993 E7.22051
G1 X70.162 Y111.731 E7.22923
G1 X70.141 Y111.019 E7.25292
G1 X70.138 Y110.876 E7.25768
G1 X70.128 Y110.285 E7.27734
G1 X70.127 Y109.929 E7.28918
G1 X70.14 Y109.018 E7.31949
G1 X70.144 Y108.827 E7.32584
G1 X70.154 Y108.505 E7.33655
G1 X70.162 Y108.324 E7.34258
G1 X70.186 Y107.813 E7.35959
G1 X70.207 Y107.47 E7.37102
G1 X70.285 Y106.46 E7.40472
G1 X70.316 Y106.124 E7.41594
G1 X70.419 Y105.162 E7.44812
G1 X70.457 Y104.85 E7.45857
G1 X70.509 Y104.465 E7.47149
G1 X70.547 Y104.202 E7.48033
G1 X70.646 Y103.579 E7.50131
G1 X70.672 Y103.423 E7.50657
G1 X70.796 Y102.707 E7.53074
G1 X70.853 Y102.403 E7.54103
G1 X70.949 Y101.926 E7.55721
G1 X71.003 Y101.674 E7.56578
G1 X71.126 Y101.127 E7.58443
G1 X71.165 Y100.958 E7.5902
G1 X71.338 Y100.24 E7.61477
G1 X71.413 Y99.946 E7.62486
G1 X71.549 Y99.441 E7.64225
G1 X71.604 Y99.246 E7.64899
G1 X71.756 Y98.719 E7.66723
G1 X71.813 Y98.527 E7.67389
G1 X71.944 Y98.101 E7.68872
G1 X72.054 Y97.761 E7.7006
G1 X72.491 Y96.484 E7.7455
G1 X72.604 Y96.169 E7.75663
G1 X72.893 Y95.399 E7.78398
G1 X73.052 Y94.999 E7.7983
G1 X73.241 Y94.548 E7.81456
G1 X73.312 Y94.381 E7.8206
G1 X73.499 Y93.954 E7.8361
G1 X73.549 Y93.841 E7.84021
G1 X73.783 Y93.322 E7.85915
G1 X73.934 Y93.001 E7.87095
G1 X74.35 Y92.15 E7.90245
G1 X74.43 Y91.99 E7.9084
G1 X74.58 Y91.695 E7.91941
G1 X74.65 Y91.559 E7.92449
G1 X74.939 Y91.009 E7.94516
G1 X75.096 Y90.72 E7.9561
G1 X75.405 Y90.171 E7.97705
G1 X75.54 Y89.94 E7.98595
G1 X75.786 Y89.526 E8.00197
G1 X75.859 Y89.404 E8.0067
G1 X76.156 Y88.918 E8.02564
G1 X76.365 Y88.589 E8.0386
G1 X77.044 Y87.559 E8.07964
G1 X77.221 Y87.299 E8.0901
G1 X77.498 Y86.903 E8.10617
G1 X77.707 Y86.613 E8.11806
G1 X78.372 Y85.723 E8.15501
G1 X78.589 Y85.442 E8.16682
G1 X79.048 Y84.866 E8.19132
G1 X79.305 Y84.555 E8.20474
G1 X80.129 Y83.593 E8.24687
G1 X80.333 Y83.361 E8.25714
G1 X80.665 Y82.994 E8.2736
G1 X80.911 Y82.731 E8.28558
G1 X81.658 Y81.956 E8.32138
G1 X81.892 Y81.72 E8.33243
G0 F6000 X82.172 Y82.005
G1 F1200 X82.688 Y81.5 E8.35645
G1 X82.965 Y81.239 E8.36911
G1 X83.759 Y80.514 E8.40487
G1 X83.997 Y80.302 E8.41547
G1 X84.581 Y79.799 E8.4411
G1 X84.878 Y79.553 E8.45393
G1 X85.595 Y78.978 E8.4845
G1 X85.738 Y78.865 E8.49056
G1 X85.987 Y78.672 E8.50104
G1 X86.107 Y78.58 E8.50607
G1 X86.484 Y78.296 E8.52177
G1 X86.787 Y78.076 E8.53422
G1 X87.818 Y77.353 E8.5761
G1 X88.077 Y77.177 E8.58652
G1 X88.597 Y76.834 E8.60724
G1 X88.886 Y76.65 E8.61863
G1 X89.68 Y76.161 E8.64965
G1 X89.919 Y76.017 E8.65893
G1 X90.521 Y75.667 E8.68209
G1 X90.908 Y75.453 E8.6968
G1 X92.141 Y74.801 E8.74319
G1 X92.46 Y74.639 E8.75509
G1 X92.954 Y74.398 E8.77337
G1 X93.222 Y74.272 E8.78322
G1 X94.055 Y73.893 E8.81366
G1 X94.318 Y73.777 E8.82322
G1 X94.915 Y73.524 E8.84478
G1 X95.329 Y73.358 E8.85962
G1 X96.81 Y72.8 E8.91226
G1 X97.124 Y72.687 E8.92336
G1 X97.524 Y72.55 E8.93742
G1 X97.872 Y72.438 E8.94958
G1 X99.02 Y72.087 E8.98951
G1 X99.317 Y72 E8.9998
G1 X99.782 Y71.872 E9.01584
G1 X100.108 Y71.788 E9.02704
G1 X101.213 Y71.52 E9.06486
G1 X101.516 Y71.451 E9.07519
G1 X102.263 Y71.292 E9.10059
G1 X102.654 Y71.216 E9.11384
G1 X103.55 Y71.059 E9.1441
G1 X103.725 Y71.03 E9.15
G1 X104.04 Y70.98 E9.16061
G1 X104.176 Y70.959 E9.16518
G1 X104.642 Y70.891 E9.18085
G1 X104.99 Y70.846 E9.19252
G1 X106.074 Y70.723 E9.2288
G1 X106.399 Y70.691 E9.23966
G1 X107.309 Y70.615 E9.27004
G1 X107.661 Y70.591 E9.28177
G1 X108.032 Y70.572 E9.29413
G1 X108.255 Y70.563 E9.30155
G1 X108.998 Y70.54 E9.32627
G1 X109.143 Y70.537 E9.3311
G1 X109.707 Y70.527 E9.34986
G1 X110.055 Y70.526 E9.36143
G1 X110.917 Y70.538 E9.39011
G1 X111.117 Y70.543 E9.39676
G1 X111.46 Y70.554 E9.40817
G1 X111.61 Y70.56 E9.41317
