;FLAVOR:Marlin
;TIME:1770
;Filament used: 1.3072m
;Layer height: 0.2
;MINX:82.128
;MINY:82.127
;MINZ:0.2
;MAXX:137.875
;MAXY:137.87
;MAXZ:7.2
;Generated with Cura_SteamEngine 4.2.1
M140 S75
M105
M190 S75
M104 S205
M105
M109 S205
M82 ;absolute extrusion mode
G92 E0 ; reset extruder G1 Z1.0 F3000 ; move z up little to prevent scratching of surface
G1 X0.1 Y20 Z0.3 F5000.0 ; move to start-line position
G1 X0.1 Y200.0 Z0.3 F1500.0 E15 ; draw 1st line
G1 X0.4 Y200.0 Z0.3 F5000.0 ; move to side a little
G1 X0.4 Y20 Z0.3 F1500.0 E30 ; draw 2nd line
G92 E0 ; reset extruder
M141 S28
G92 E0
G92 E0
G1 F3000 E-5
;LAYER_COUNT:35
;LAYER:0
M107
G0 F6000 X90.212 Y90.369 Z0.2
;TYPE:SKIRT
G1 F3000 E0
G1 F1200 X90.462 Y90.119 E0.01176
G1 X90.716 Y89.873 E0.02352
G1 X90.941 Y89.661 E0.0338
G1 X91.437 Y89.206 E0.05619
G1 X91.732 Y88.944 E0.06931
G1 X92.078 Y88.648 E0.08446
G1 X92.285 Y88.476 E0.09341
G1 X92.545 Y88.264 E0.10457
G1 X92.9 Y87.986 E0.11956
G1 X93.367 Y87.635 E0.13899
G1 X93.638 Y87.437 E0.15016
G1 X94.207 Y87.035 E0.17333
G1 X94.449 Y86.869 E0.18309
G1 X94.63 Y86.748 E0.19033
G1 X94.995 Y86.514 E0.20475
G1 X95.8 Y86.019 E0.23618
G1 X96.104 Y85.838 E0.24795
G1 X96.303 Y85.724 E0.25558
G1 X96.625 Y85.547 E0.2678
G1 X97.241 Y85.22 E0.29099
G1 X97.536 Y85.069 E0.30202
G1 X97.793 Y84.942 E0.31155
G1 X98.133 Y84.78 E0.32408
G1 X98.878 Y84.442 E0.35129
G1 X99.223 Y84.293 E0.36379
G1 X99.416 Y84.213 E0.37074
G1 X99.722 Y84.091 E0.38169
G1 X100.449 Y83.814 E0.40757
G1 X100.811 Y83.683 E0.42037
G1 X101.231 Y83.539 E0.43514
G1 X101.687 Y83.393 E0.45106
G1 X102.149 Y83.256 E0.46709
G1 X102.519 Y83.153 E0.47987
G1 X103.495 Y82.899 E0.51341
G1 X104.008 Y82.779 E0.53093
G1 X104.41 Y82.694 E0.5446
G1 X104.769 Y82.624 E0.55676
G1 X105.499 Y82.494 E0.58143
G1 X105.88 Y82.432 E0.59426
G1 X106.173 Y82.39 E0.60411
G1 X106.491 Y82.349 E0.61477
G1 X107.223 Y82.265 E0.63928
G1 X107.902 Y82.208 E0.66194
G1 X109.039 Y82.146 E0.69982
G1 X109.522 Y82.13 E0.71589
G1 X109.77 Y82.127 E0.72414
G1 X110.069 Y82.127 E0.73408
G1 X110.708 Y82.136 E0.75534
G1 X111.146 Y82.151 E0.76992
G1 X111.716 Y82.181 E0.7889
G1 X112.019 Y82.201 E0.799
G1 X112.523 Y82.241 E0.81582
G1 X112.882 Y82.275 E0.82781
G1 X113.412 Y82.334 E0.84555
G1 X113.655 Y82.364 E0.85369
G1 X113.933 Y82.401 E0.86302
G1 X114.381 Y82.469 E0.87809
G1 X114.939 Y82.566 E0.89693
G1 X115.286 Y82.632 E0.90867
G1 X115.966 Y82.772 E0.93177
G1 X116.343 Y82.857 E0.94462
G1 X116.579 Y82.914 E0.95269
G1 X116.878 Y82.99 E0.96296
G1 X117.688 Y83.209 E0.99086
G1 X118.042 Y83.311 E1.00312
G1 X118.435 Y83.431 E1.01678
G1 X118.738 Y83.528 E1.02737
G1 X119.098 Y83.649 E1.04
G1 X119.479 Y83.785 E1.05345
G1 X119.83 Y83.917 E1.06593
G1 X120.192 Y84.06 E1.07887
G1 X121.176 Y84.469 E1.11431
G1 X121.656 Y84.681 E1.13177
G1 X122.253 Y84.962 E1.15371
G1 X122.717 Y85.194 E1.17097
G1 X123.117 Y85.405 E1.18601
G1 X123.431 Y85.577 E1.19792
G1 X124.126 Y85.972 E1.2245
G1 X124.711 Y86.328 E1.24728
G1 X125.63 Y86.926 E1.28375
G1 X125.998 Y87.176 E1.29854
G1 X126.265 Y87.365 E1.30943
G1 X126.516 Y87.548 E1.31976
G1 X127.007 Y87.916 E1.34017
G1 X127.292 Y88.136 E1.35214
G1 X127.552 Y88.344 E1.36321
G1 X127.819 Y88.565 E1.37474
G1 X128.37 Y89.034 E1.39881
G1 X128.639 Y89.27 E1.41071
G1 X128.8 Y89.416 E1.41794
G1 X129.052 Y89.652 E1.42942
G1 X129.601 Y90.181 E1.45478
G1 X129.851 Y90.429 E1.46649
G1 X130.17 Y90.756 E1.48169
G1 X130.393 Y90.991 E1.49246
G1 X130.64 Y91.259 E1.50458
G1 X130.923 Y91.578 E1.51877
G1 X131.217 Y91.922 E1.53382
G1 X131.43 Y92.179 E1.54492
G1 X131.943 Y92.816 E1.57212
G1 X132.352 Y93.357 E1.59468
G1 X133.065 Y94.359 E1.63558
G1 X133.49 Y95 E1.66116
G1 X133.976 Y95.791 E1.69204
G1 X134.17 Y96.119 E1.70472
G1 X134.285 Y96.321 E1.71245
G1 X134.444 Y96.61 E1.72342
G1 X134.78 Y97.242 E1.74722
G1 X134.937 Y97.547 E1.75863
G1 X135.091 Y97.859 E1.77021
G1 X135.254 Y98.204 E1.7829
G1 X135.531 Y98.816 E1.80524
G1 X135.647 Y99.082 E1.81489
G1 X135.734 Y99.288 E1.82233
G1 X135.892 Y99.683 E1.83648
G1 X136.205 Y100.509 E1.86586
G1 X136.33 Y100.856 E1.87813
G1 X136.443 Y101.186 E1.88973
G1 X136.542 Y101.487 E1.90027
G1 X136.633 Y101.779 E1.91044
G1 X136.71 Y102.039 E1.91946
G1 X136.768 Y102.242 E1.92648
G1 X136.826 Y102.45 E1.93366
G1 X137.077 Y103.396 E1.96621
G1 X137.196 Y103.892 E1.98318
G1 X137.322 Y104.47 E2.00286
G1 X137.4 Y104.859 E2.01605
G1 X137.458 Y105.178 E2.02683
G1 X137.521 Y105.562 E2.03978
G1 X137.597 Y106.08 E2.05719
G1 X137.645 Y106.448 E2.06953
G1 X137.739 Y107.275 E2.09722
G1 X137.795 Y107.939 E2.11938
G1 X137.853 Y108.998 E2.15466
G1 X137.868 Y109.43 E2.16903
G1 X137.874 Y109.788 E2.18094
G1 X137.875 Y110.125 E2.19215
G1 X137.869 Y110.593 E2.20772
G1 X137.856 Y111.021 E2.22196
G1 X137.831 Y111.517 E2.23848
G1 X137.806 Y111.879 E2.25055
G1 X137.739 Y112.692 E2.27768
G1 X137.702 Y113.068 E2.29024
G1 X137.656 Y113.465 E2.30354
G1 X137.617 Y113.765 E2.3136
G1 X137.548 Y114.248 E2.32983
G1 X137.491 Y114.607 E2.34192
G1 X137.438 Y114.909 E2.35211
G1 X137.377 Y115.232 E2.36305
G1 X137.226 Y115.967 E2.388
G1 X137.145 Y116.33 E2.40037
G1 X137.017 Y116.864 E2.41864
G1 X136.95 Y117.131 E2.42779
G1 X136.894 Y117.342 E2.43506
G1 X136.777 Y117.75 E2.44917
G1 X136.615 Y118.28 E2.46761
G1 X136.512 Y118.602 E2.47885
G1 X136.266 Y119.329 E2.50438
G1 X136.148 Y119.66 E2.51606
G1 X136.076 Y119.853 E2.52292
G1 X135.935 Y120.212 E2.53574
G1 X135.623 Y120.969 E2.56298
G1 X135.484 Y121.291 E2.57464
G1 X135.305 Y121.69 E2.58919
G1 X135.176 Y121.969 E2.59941
G1 X134.995 Y122.345 E2.61329
G1 X134.824 Y122.685 E2.62595
G1 X134.689 Y122.943 E2.63563
G1 X134.495 Y123.298 E2.64909
G1 X133.994 Y124.178 E2.68277
G1 X133.791 Y124.521 E2.69602
G1 X133.598 Y124.834 E2.70825
G1 X133.428 Y125.101 E2.71878
G1 X133.154 Y125.519 E2.73541
G1 X132.956 Y125.811 E2.74714
G1 X132.757 Y126.095 E2.75867
G1 X132.571 Y126.353 E2.76925
G1 X132.105 Y126.98 E2.79524
G1 X131.656 Y127.545 E2.81924
G1 X130.912 Y128.424 E2.85754
G1 X130.632 Y128.743 E2.87166
G1 X130.486 Y128.903 E2.87886
G1 X130.253 Y129.151 E2.89018
G1 X129.788 Y129.631 E2.91241
G1 X129.527 Y129.892 E2.92469
G1 X129.28 Y130.131 E2.93612
G1 X129.051 Y130.346 E2.94656
G1 X128.554 Y130.801 E2.96898
G1 X128.267 Y131.056 E2.98174
G1 X127.928 Y131.346 E2.99658
G1 X127.74 Y131.503 E3.00473
G1 X127.475 Y131.72 E3.01612
G1 X127.104 Y132.011 E3.0318
G1 X126.636 Y132.363 E3.05128
G1 X126.365 Y132.56 E3.06242
G1 X125.795 Y132.963 E3.08564
G1 X125.55 Y133.132 E3.09554
G1 X125.372 Y133.251 E3.10266
G1 X125.011 Y133.483 E3.11694
G1 X124.205 Y133.979 E3.14841
G1 X123.859 Y134.183 E3.16177
G1 X123.66 Y134.296 E3.16938
G1 X123.382 Y134.449 E3.17994
G1 X122.765 Y134.777 E3.20318
G1 X122.464 Y134.931 E3.21442
G1 X122.207 Y135.058 E3.22396
G1 X121.872 Y135.217 E3.23629
G1 X121.128 Y135.555 E3.26347
G1 X120.778 Y135.707 E3.27616
G1 X120.585 Y135.787 E3.28311
G1 X120.269 Y135.913 E3.29443
G1 X119.54 Y136.19 E3.32036
G1 X119.188 Y136.317 E3.33281
G1 X118.768 Y136.461 E3.34758
G1 X118.318 Y136.605 E3.36329
G1 X117.857 Y136.742 E3.37929
G1 X117.487 Y136.845 E3.39206
G1 X116.513 Y137.099 E3.42554
G1 X115.983 Y137.224 E3.44365
G1 X115.579 Y137.309 E3.45738
G1 X115.228 Y137.377 E3.46928
G1 X114.497 Y137.507 E3.49397
G1 X114.124 Y137.567 E3.50654
G1 X113.832 Y137.609 E3.51635
G1 X113.509 Y137.651 E3.52718
G1 X112.777 Y137.735 E3.55169
G1 X112.098 Y137.792 E3.57435
G1 X110.961 Y137.854 E3.61222
G1 X110.169 Y137.87 E3.63857
G1 X109.101 Y137.854 E3.6741
G1 X108.685 Y137.84 E3.68794
G1 X108.297 Y137.82 E3.70086
G1 X107.972 Y137.798 E3.7117
G1 X107.461 Y137.757 E3.72875
G1 X107.125 Y137.725 E3.73997
G1 X106.544 Y137.661 E3.75942
G1 X106.15 Y137.611 E3.77262
G1 X105.882 Y137.572 E3.78163
G1 X105.563 Y137.521 E3.79238
G1 X104.847 Y137.396 E3.81655
G1 X104.554 Y137.341 E3.82647
G1 X104.316 Y137.293 E3.83454
G1 X103.907 Y137.203 E3.84847
G1 X103.037 Y136.994 E3.87823
G1 X102.388 Y136.817 E3.9006
G1 X101.433 Y136.527 E3.9338
G1 X100.803 Y136.316 E3.9559
G1 X100.084 Y136.051 E3.98138
G1 X99.693 Y135.899 E3.99534
G1 X99.087 Y135.65 E4.01713
G1 X98.749 Y135.504 E4.02937
G1 X98.513 Y135.398 E4.03798
G1 X98.193 Y135.249 E4.04972
G1 X97.39 Y134.858 E4.07943
G1 X96.791 Y134.543 E4.10193
G1 X95.913 Y134.049 E4.13544
G1 X95.541 Y133.831 E4.14978
G1 X95.334 Y133.704 E4.15786
G1 X95.056 Y133.528 E4.1688
G1 X94.423 Y133.114 E4.19396
G1 X94.103 Y132.896 E4.20684
G1 X93.607 Y132.547 E4.22701
G1 X93.097 Y132.167 E4.24816
G1 X92.486 Y131.684 E4.27407
G1 X92.173 Y131.427 E4.28754
G1 X91.633 Y130.968 E4.31111
G1 X91.361 Y130.73 E4.32313
G1 X91.18 Y130.566 E4.33126
G1 X90.917 Y130.32 E4.34323
G1 X90.369 Y129.791 E4.36857
G1 X90.116 Y129.538 E4.38047
G1 X89.829 Y129.243 E4.39416
G1 X89.62 Y129.023 E4.40425
G1 X89.359 Y128.74 E4.41705
G1 X89.083 Y128.43 E4.43086
G1 X88.765 Y128.059 E4.44711
G1 X88.541 Y127.789 E4.45878
G1 X88.029 Y127.153 E4.48594
G1 X87.783 Y126.836 E4.49928
G1 X87.649 Y126.657 E4.50672
G1 X87.461 Y126.399 E4.51734
G1 X86.998 Y125.743 E4.54404
G1 X86.792 Y125.441 E4.5562
G1 X86.68 Y125.271 E4.56297
G1 X86.482 Y124.959 E4.57526
G1 X86.03 Y124.222 E4.60402
G1 X85.855 Y123.927 E4.61543
G1 X85.725 Y123.7 E4.62413
G1 X85.548 Y123.379 E4.63632
G1 X85.22 Y122.761 E4.65959
G1 X85.053 Y122.433 E4.67183
G1 X84.907 Y122.135 E4.68287
G1 X84.76 Y121.823 E4.69434
G1 X84.461 Y121.163 E4.71844
G1 X84.211 Y120.566 E4.73996
G1 X83.819 Y119.551 E4.77615
G1 X83.663 Y119.122 E4.79134
G1 X83.573 Y118.858 E4.80061
G1 X83.47 Y118.541 E4.8117
G1 X83.271 Y117.896 E4.83415
G1 X83.175 Y117.569 E4.84549
G1 X83.085 Y117.243 E4.85673
G1 X83 Y116.915 E4.868
G1 X82.827 Y116.207 E4.89224
G1 X82.744 Y115.841 E4.90473
G1 X82.658 Y115.431 E4.91866
G1 X82.598 Y115.124 E4.92906
G1 X82.538 Y114.793 E4.94025
G1 X82.472 Y114.391 E4.9538
G1 X82.386 Y113.796 E4.9738
G1 X82.342 Y113.452 E4.98533
G1 X82.267 Y112.792 E5.00743
G1 X82.233 Y112.446 E5.01899
G1 X82.195 Y111.987 E5.03431
G1 X82.172 Y111.656 E5.04534
G1 X82.155 Y111.339 E5.0559
G1 X82.142 Y110.984 E5.06772
G1 X82.13 Y110.447 E5.08558
G1 X82.128 Y110.019 E5.09982
G1 X82.141 Y109.163 E5.12829
G1 X82.173 Y108.466 E5.1515
G1 X82.26 Y107.329 E5.18943
G1 X82.303 Y106.883 E5.20433
G1 X82.341 Y106.556 E5.21528
G1 X82.381 Y106.251 E5.22551
G1 X82.456 Y105.729 E5.24305
G1 X82.508 Y105.398 E5.25419
G1 X82.561 Y105.093 E5.26449
G1 X82.628 Y104.741 E5.27641
G1 X82.778 Y104.014 E5.3011
G1 X82.853 Y103.676 E5.31261
G1 X82.985 Y103.122 E5.33155
G1 X83.085 Y102.736 E5.34482
G1 X83.147 Y102.511 E5.35258
G1 X83.235 Y102.208 E5.36307
G1 X83.466 Y101.452 E5.38937
G1 X83.671 Y100.841 E5.4108
G1 X83.94 Y100.111 E5.43668
G1 X84.105 Y99.691 E5.45169
G1 X84.385 Y99.015 E5.47602
G1 X84.513 Y98.718 E5.48678
G1 X84.736 Y98.22 E5.50493
G1 X84.872 Y97.926 E5.5157
G1 X84.968 Y97.727 E5.52305
G1 X85.156 Y97.356 E5.53688
G1 X85.409 Y96.877 E5.5549
G1 X85.575 Y96.573 E5.56642
G1 X85.969 Y95.879 E5.59296
G1 X86.158 Y95.559 E5.60532
G1 X86.295 Y95.335 E5.61406
G1 X86.482 Y95.039 E5.6257
G1 X86.88 Y94.431 E5.64987
G1 X87.108 Y94.096 E5.66335
G1 X87.308 Y93.813 E5.67488
G1 X87.476 Y93.582 E5.68438
G1 X87.882 Y93.037 E5.70698
G1 X88.308 Y92.499 E5.7298
G1 X89.071 Y91.594 E5.76917
G1 X89.371 Y91.253 E5.78428
G1 X89.519 Y91.091 E5.79158
G1 X89.754 Y90.841 E5.80299
G1 X90.212 Y90.369 E5.82487
G0 F6000 X90.499 Y90.648
G1 F1200 X90.74 Y90.406 E5.83622
G1 X90.994 Y90.16 E5.84799
G1 X91.211 Y89.956 E5.85789
G1 X91.707 Y89.501 E5.88028
G1 X91.992 Y89.248 E5.89295
G1 X92.338 Y88.952 E5.9081
G1 X92.538 Y88.786 E5.91674
G1 X92.798 Y88.574 E5.9279
G1 X93.14 Y88.306 E5.94235
G1 X93.607 Y87.955 E5.96178
G1 X93.869 Y87.764 E5.97257
G1 X94.438 Y87.362 E5.99574
G1 X94.672 Y87.201 E6.00519
G1 X94.853 Y87.08 E6.01243
G1 X95.204 Y86.855 E6.02629
G1 X96.009 Y86.36 E6.05773
G1 X96.303 Y86.185 E6.06911
G1 X96.502 Y86.071 E6.07673
G1 X96.812 Y85.9 E6.08851
G1 X97.428 Y85.573 E6.1117
G1 X97.713 Y85.427 E6.12235
G1 X97.97 Y85.3 E6.13189
G1 X98.298 Y85.145 E6.14396
G1 X99.043 Y84.807 E6.17117
G1 X99.376 Y84.662 E6.18325
G1 X99.569 Y84.582 E6.19019
G1 X99.864 Y84.465 E6.20075
G1 X100.591 Y84.188 E6.22663
G1 X100.94 Y84.062 E6.23897
G1 X101.36 Y83.918 E6.25373
G1 X101.801 Y83.777 E6.26913
G1 X102.263 Y83.64 E6.28516
G1 X102.62 Y83.541 E6.29748
G1 X103.596 Y83.287 E6.33103
G1 X104.09 Y83.17 E6.34791
G1 X104.492 Y83.085 E6.36158
G1 X104.839 Y83.017 E6.37334
G1 X105.569 Y82.887 E6.398
G1 X105.937 Y82.828 E6.4104
G1 X106.23 Y82.786 E6.42024
G1 X106.537 Y82.747 E6.43053
G1 X107.269 Y82.663 E6.45504
G1 X107.924 Y82.607 E6.4769
G1 X109.061 Y82.545 E6.51478
G1 X109.527 Y82.53 E6.53028
G1 X109.775 Y82.527 E6.53853
G1 X110.063 Y82.527 E6.54811
G1 X110.702 Y82.536 E6.56937
G1 X111.125 Y82.55 E6.58344
G1 X111.695 Y82.58 E6.60243
G1 X111.987 Y82.599 E6.61216
G1 X112.491 Y82.639 E6.62898
G1 X112.838 Y82.673 E6.64057
G1 X113.368 Y82.732 E6.65831
G1 X113.602 Y82.76 E6.66615
G1 X113.88 Y82.797 E6.67548
G1 X114.313 Y82.864 E6.69005
G1 X114.871 Y82.961 E6.70889
G1 X115.205 Y83.024 E6.72019
G1 X115.885 Y83.164 E6.74328
G1 X116.25 Y83.245 E6.75572
G1 X116.486 Y83.302 E6.76379
G1 X116.774 Y83.376 E6.77368
G1 X117.584 Y83.595 E6.80159
G1 X117.925 Y83.694 E6.8134
G1 X118.318 Y83.814 E6.82707
G1 X118.611 Y83.907 E6.83729
G1 X118.971 Y84.028 E6.84993
G1 X119.338 Y84.159 E6.86289
G1 X119.689 Y84.291 E6.87536
G1 X120.039 Y84.429 E6.88787
G1 X121.023 Y84.838 E6.92331
G1 X121.486 Y85.043 E6.94016
G1 X122.083 Y85.324 E6.9621
G1 X122.53 Y85.548 E6.97873
G1 X122.93 Y85.759 E6.99377
G1 X123.233 Y85.925 E7.00526
G1 X123.928 Y86.32 E7.03185
G1 X124.492 Y86.663 E7.05381
G1 X125.411 Y87.261 E7.09028
G1 X125.767 Y87.503 E7.10459
G1 X126.034 Y87.692 E7.11547
G1 X126.276 Y87.868 E7.12543
G1 X126.767 Y88.236 E7.14583
G1 X127.042 Y88.448 E7.15738
G1 X127.302 Y88.656 E7.16846
G1 X127.56 Y88.87 E7.17961
G1 X128.111 Y89.339 E7.20367
G1 X128.37 Y89.567 E7.21515
G1 X128.531 Y89.713 E7.22238
G1 X128.775 Y89.94 E7.23346
G1 X129.324 Y90.469 E7.25882
G1 X129.565 Y90.709 E7.27013
G1 X129.884 Y91.036 E7.28533
G1 X130.099 Y91.262 E7.2957
G1 X130.346 Y91.53 E7.30782
G1 X130.619 Y91.838 E7.32151
G1 X130.913 Y92.182 E7.33656
G1 X131.118 Y92.43 E7.34726
G1 X131.631 Y93.067 E7.37447
G1 X132.027 Y93.588 E7.39623
G1 X132.74 Y94.59 E7.43714
G1 X133.149 Y95.21 E7.46184
G1 X133.635 Y96.001 E7.49272
G1 X133.822 Y96.317 E7.50493
G1 X133.937 Y96.519 E7.51266
G1 X134.091 Y96.797 E7.52323
G1 X134.427 Y97.429 E7.54704
G1 X134.578 Y97.724 E7.55806
G1 X134.732 Y98.036 E7.56963
G1 X134.889 Y98.369 E7.58188
G1 X135.166 Y98.981 E7.60422
G1 X135.278 Y99.237 E7.61351
G1 X135.365 Y99.443 E7.62095
G1 X135.518 Y99.825 E7.63464
G1 X135.831 Y100.651 E7.66402
G1 X135.952 Y100.985 E7.67583
G1 X136.065 Y101.315 E7.68744
G1 X136.16 Y101.606 E7.69762
G1 X136.251 Y101.898 E7.70779
G1 X136.326 Y102.149 E7.7165
G1 X136.384 Y102.352 E7.72352
G1 X136.439 Y102.553 E7.73046
G1 X136.69 Y103.499 E7.76301
G1 X136.806 Y103.977 E7.77937
G1 X136.932 Y104.555 E7.79904
G1 X137.007 Y104.93 E7.81176
G1 X137.065 Y105.249 E7.82255
G1 X137.125 Y105.62 E7.83505
G1 X137.201 Y106.138 E7.85246
G1 X137.248 Y106.493 E7.86437
G1 X137.342 Y107.32 E7.89205
G1 X137.396 Y107.96 E7.91342
G1 X137.454 Y109.019 E7.94869
G1 X137.468 Y109.437 E7.9626
G1 X137.474 Y109.795 E7.97451
G1 X137.475 Y110.12 E7.98532
G1 X137.469 Y110.588 E8.00089
G1 X137.456 Y111.001 E8.01463
G1 X137.431 Y111.497 E8.03115
G1 X137.408 Y111.846 E8.04278
G1 X137.341 Y112.659 E8.06991
G1 X137.305 Y113.022 E8.08205
G1 X137.259 Y113.419 E8.09534
G1 X137.221 Y113.709 E8.10507
G1 X137.152 Y114.192 E8.12129
G1 X137.097 Y114.537 E8.13291
G1 X137.044 Y114.839 E8.14311
G1 X136.985 Y115.152 E8.15371
G1 X136.834 Y115.887 E8.17866
G1 X136.756 Y116.237 E8.19059
G1 X136.628 Y116.771 E8.20885
G1 X136.563 Y117.029 E8.2177
G1 X136.507 Y117.24 E8.22496
G1 X136.395 Y117.633 E8.23856
G1 X136.233 Y118.163 E8.25699
G1 X136.133 Y118.474 E8.26785
G1 X135.887 Y119.201 E8.29338
G1 X135.773 Y119.52 E8.30465
G1 X135.701 Y119.713 E8.3115
G1 X135.565 Y120.06 E8.32389
G1 X135.253 Y120.817 E8.35113
G1 X135.119 Y121.128 E8.36239
G1 X134.94 Y121.527 E8.37694
G1 X134.815 Y121.795 E8.38677
G1 X134.634 Y122.171 E8.40065
G1 X134.469 Y122.5 E8.41289
