;FLAVOR:Marlin
;TIME:2312
;Filament used: 1.71345m
;Layer height: 0.2
;MINX:86.527
;MINY:86.528
;MINZ:0.2
;MAXX:148.472
;MAXY:148.472
;MAXZ:7
;Generated with Cura_SteamEngine 4.12.1
M140 S75
M105
M190 S75
M104 S205
M105
M109 S205
M82 ;absolute extrusion mode
G92 E0 ; reset extruder G1 Z1.0 F3000 ; move z up little to prevent scratching of surface
G1 X0.1 Y20 Z0.3 F5000.0 ; move to start-line position
G1 X0.1 Y200.0 Z0.3 F1500.0 E15 ; draw 1st line
G1 X0.4 Y200.0 Z0.3 F5000.0 ; move to side a little
G1 X0.4 Y20 Z0.3 F1500.0 E30 ; draw 2nd line
G92 E0 ; reset extruder
G92 E0
G92 E0
G1 F3000 E-5
;LAYER_COUNT:35
;LAYER:0
M107
G1 F300 Z0.4
G0 F6000 X95.766 Y95.431 Z0.4
;TYPE:SKIRT
G1 F300 Z0.2
G1 F3000 E0
G1 F1200 X95.997 Y95.206 E0.01073
G1 X96.254 Y94.963 E0.02249
G1 X96.945 Y94.332 E0.05361
G1 X97.229 Y94.082 E0.0662
G1 X97.54 Y93.817 E0.07979
G1 X97.776 Y93.622 E0.08997
G1 X98.443 Y93.085 E0.11845
G1 X98.756 Y92.842 E0.13163
G1 X99.045 Y92.626 E0.14363
G1 X99.275 Y92.459 E0.15308
G1 X99.987 Y91.955 E0.1821
G1 X100.284 Y91.752 E0.19406
G1 X100.578 Y91.558 E0.20578
G1 X100.877 Y91.367 E0.21758
G1 X101.676 Y90.876 E0.24877
G1 X101.986 Y90.693 E0.26074
G1 X102.363 Y90.478 E0.27518
G1 X102.635 Y90.328 E0.28551
G1 X103.308 Y89.969 E0.31088
G1 X103.617 Y89.81 E0.32244
G1 X103.923 Y89.659 E0.33379
G1 X104.249 Y89.504 E0.34579
G1 X105.138 Y89.101 E0.37826
G1 X105.478 Y88.954 E0.39058
G1 X105.853 Y88.799 E0.40407
G1 X106.144 Y88.684 E0.41448
G1 X106.88 Y88.404 E0.44067
G1 X107.209 Y88.285 E0.45231
G1 X107.54 Y88.171 E0.46395
G1 X107.875 Y88.061 E0.47568
G1 X108.765 Y87.786 E0.50666
G1 X109.092 Y87.691 E0.51799
G1 X109.517 Y87.574 E0.53265
G1 X109.851 Y87.487 E0.54413
G1 X110.616 Y87.302 E0.57031
G1 X110.936 Y87.23 E0.58121
G1 X111.24 Y87.166 E0.59155
G1 X111.604 Y87.096 E0.60388
G1 X112.612 Y86.919 E0.63791
G1 X112.951 Y86.865 E0.64933
G1 X113.362 Y86.806 E0.66314
G1 X113.699 Y86.763 E0.67444
G1 X114.439 Y86.68 E0.69921
G1 X114.78 Y86.647 E0.7106
G1 X115.201 Y86.613 E0.72465
G1 X115.556 Y86.59 E0.73648
G1 X116.469 Y86.546 E0.76689
G1 X116.809 Y86.535 E0.7782
G1 X117.156 Y86.529 E0.78974
G1 X117.499 Y86.528 E0.80115
G1 X118.359 Y86.54 E0.82976
G1 X118.702 Y86.55 E0.84117
G1 X119.079 Y86.567 E0.85372
G1 X119.428 Y86.588 E0.86535
G1 X120.324 Y86.657 E0.89524
G1 X120.703 Y86.693 E0.9079
G1 X121.114 Y86.739 E0.92166
G1 X121.41 Y86.777 E0.93158
G1 X122.191 Y86.886 E0.95781
G1 X122.518 Y86.936 E0.96881
G1 X122.882 Y86.998 E0.9811
G1 X123.255 Y87.068 E0.99372
G1 X124.211 Y87.265 E1.02618
G1 X124.539 Y87.338 E1.03736
G1 X124.917 Y87.428 E1.05028
G1 X125.262 Y87.516 E1.06212
G1 X126.047 Y87.73 E1.08919
G1 X126.363 Y87.822 E1.10013
G1 X126.74 Y87.937 E1.11324
G1 X127.08 Y88.046 E1.12512
G1 X127.919 Y88.332 E1.1546
G1 X128.232 Y88.444 E1.16566
G1 X128.616 Y88.588 E1.1793
G1 X128.953 Y88.721 E1.19135
G1 X129.689 Y89.025 E1.21783
G1 X129.998 Y89.158 E1.22902
G1 X130.323 Y89.304 E1.24087
G1 X130.629 Y89.448 E1.25212
G1 X131.498 Y89.871 E1.28427
G1 X131.836 Y90.042 E1.29686
G1 X132.151 Y90.209 E1.30872
G1 X132.445 Y90.371 E1.31989
G1 X133.154 Y90.775 E1.34703
G1 X133.459 Y90.955 E1.35881
G1 X133.821 Y91.177 E1.37293
G1 X134.081 Y91.342 E1.38317
G1 X134.809 Y91.817 E1.41209
G1 X135.126 Y92.031 E1.42481
G1 X135.436 Y92.249 E1.43741
G1 X135.696 Y92.438 E1.4481
G1 X136.414 Y92.975 E1.47792
G1 X136.682 Y93.182 E1.48919
G1 X137.012 Y93.445 E1.50322
G1 X137.279 Y93.665 E1.51473
G1 X137.865 Y94.163 E1.54031
G1 X138.112 Y94.379 E1.55122
G1 X138.389 Y94.629 E1.56363
G1 X138.659 Y94.881 E1.57591
G1 X139.351 Y95.549 E1.6079
G1 X139.595 Y95.792 E1.61936
G1 X139.812 Y96.015 E1.62971
G1 X140.058 Y96.276 E1.64164
G1 X140.707 Y96.988 E1.67368
G1 X140.966 Y97.283 E1.68674
G1 X141.223 Y97.586 E1.69995
G1 X141.406 Y97.807 E1.70949
G1 X141.862 Y98.374 E1.73369
G1 X142.067 Y98.638 E1.74481
G1 X142.311 Y98.961 E1.75827
G1 X142.52 Y99.246 E1.77003
G1 X143.063 Y100.015 E1.80134
G1 X143.256 Y100.298 E1.81273
G1 X143.468 Y100.619 E1.82553
G1 X143.663 Y100.926 E1.83762
G1 X144.113 Y101.659 E1.86623
G1 X144.287 Y101.952 E1.87757
G1 X144.525 Y102.368 E1.89351
G1 X144.687 Y102.661 E1.90464
G1 X145.041 Y103.326 E1.9297
G1 X145.177 Y103.59 E1.93958
G1 X145.311 Y103.859 E1.94957
G1 X145.489 Y104.234 E1.96338
G1 X145.912 Y105.17 E1.99754
G1 X146.051 Y105.492 E2.00921
G1 X146.198 Y105.847 E2.02199
G1 X146.316 Y106.144 E2.03262
G1 X146.596 Y106.88 E2.05881
G1 X146.717 Y107.214 E2.07062
G1 X146.826 Y107.531 E2.08177
G1 X146.933 Y107.859 E2.09325
G1 X147.219 Y108.784 E2.12545
G1 X147.315 Y109.112 E2.13682
G1 X147.415 Y109.475 E2.14934
G1 X147.501 Y109.809 E2.16081
G1 X147.698 Y110.623 E2.18867
G1 X147.763 Y110.908 E2.19839
G1 X147.827 Y111.207 E2.20856
G1 X147.906 Y111.612 E2.22228
G1 X148.083 Y112.623 E2.25642
G1 X148.14 Y112.981 E2.26848
G1 X148.203 Y113.427 E2.28346
G1 X148.243 Y113.744 E2.29409
G1 X148.32 Y114.433 E2.31714
G1 X148.351 Y114.755 E2.3279
G1 X148.384 Y115.157 E2.34132
G1 X148.407 Y115.511 E2.35312
G1 X148.453 Y116.437 E2.38395
G1 X148.465 Y116.783 E2.39547
G1 X148.471 Y117.113 E2.40645
G1 X148.472 Y117.46 E2.41799
G1 X148.46 Y118.358 E2.44786
G1 X148.449 Y118.715 E2.45974
G1 X148.432 Y119.086 E2.47209
G1 X148.411 Y119.429 E2.48352
G1 X148.343 Y120.309 E2.51288
G1 X148.31 Y120.663 E2.5247
G1 X148.262 Y121.1 E2.53932
G1 X148.221 Y121.427 E2.55029
G1 X148.113 Y122.197 E2.57615
G1 X148.062 Y122.528 E2.58729
G1 X148.003 Y122.872 E2.59889
G1 X147.938 Y123.216 E2.61054
G1 X147.734 Y124.214 E2.64442
G1 X147.655 Y124.571 E2.65658
G1 X147.571 Y124.922 E2.66858
G1 X147.485 Y125.256 E2.68005
G1 X147.269 Y126.048 E2.70736
G1 X147.178 Y126.363 E2.71826
G1 X147.063 Y126.74 E2.73137
G1 X146.954 Y127.078 E2.74318
G1 X146.675 Y127.897 E2.77196
G1 X146.565 Y128.207 E2.7829
G1 X146.416 Y128.605 E2.79704
G1 X146.283 Y128.942 E2.80909
G1 X145.977 Y129.684 E2.83578
G1 X145.842 Y129.998 E2.84715
G1 X145.696 Y130.323 E2.859
G1 X145.552 Y130.629 E2.87025
G1 X145.129 Y131.498 E2.90239
G1 X144.961 Y131.831 E2.9148
G1 X144.799 Y132.137 E2.92632
G1 X144.636 Y132.433 E2.93755
G1 X144.222 Y133.16 E2.96538
G1 X144.05 Y133.452 E2.97665
G1 X143.838 Y133.799 E2.99018
G1 X143.656 Y134.086 E3.00148
G1 X143.168 Y134.832 E3.03113
G1 X142.956 Y135.145 E3.0437
G1 X142.732 Y135.463 E3.05664
G1 X142.553 Y135.709 E3.06676
G1 X142.058 Y136.372 E3.09428
G1 X141.836 Y136.659 E3.10635
G1 X141.573 Y136.988 E3.12036
G1 X141.358 Y137.25 E3.13163
G1 X140.792 Y137.915 E3.16067
G1 X140.567 Y138.17 E3.17198
G1 X140.307 Y138.457 E3.18486
G1 X140.067 Y138.714 E3.19656
G1 X139.471 Y139.331 E3.22509
G1 X139.234 Y139.569 E3.23626
G1 X139.003 Y139.794 E3.24699
G1 X138.746 Y140.037 E3.25875
G1 X138.055 Y140.668 E3.28988
G1 X137.764 Y140.924 E3.30277
G1 X137.456 Y141.186 E3.31622
G1 X137.232 Y141.372 E3.3259
G1 X136.562 Y141.912 E3.35452
G1 X136.244 Y142.158 E3.36789
G1 X135.955 Y142.374 E3.37989
G1 X135.725 Y142.541 E3.38935
G1 X135.013 Y143.045 E3.41836
G1 X134.716 Y143.248 E3.43033
G1 X134.422 Y143.442 E3.44204
G1 X134.123 Y143.633 E3.45384
G1 X133.324 Y144.124 E3.48503
G1 X133.014 Y144.307 E3.49701
G1 X132.637 Y144.522 E3.51144
G1 X132.365 Y144.672 E3.52177
G1 X131.692 Y145.031 E3.54714
G1 X131.383 Y145.19 E3.5587
G1 X131.077 Y145.341 E3.57005
G1 X130.751 Y145.496 E3.58206
G1 X129.862 Y145.899 E3.61452
G1 X129.522 Y146.046 E3.62684
G1 X129.147 Y146.201 E3.64034
G1 X128.856 Y146.316 E3.65074
G1 X128.12 Y146.596 E3.67694
G1 X127.791 Y146.715 E3.68857
G1 X127.46 Y146.829 E3.70022
G1 X127.125 Y146.939 E3.71194
G1 X126.235 Y147.214 E3.74293
G1 X125.908 Y147.309 E3.75425
G1 X125.483 Y147.426 E3.76891
G1 X125.149 Y147.513 E3.78039
G1 X124.384 Y147.698 E3.80657
G1 X124.064 Y147.77 E3.81748
G1 X123.76 Y147.834 E3.82781
G1 X123.396 Y147.904 E3.84014
G1 X122.388 Y148.081 E3.87418
G1 X122.049 Y148.135 E3.8856
G1 X121.638 Y148.194 E3.89941
G1 X121.301 Y148.237 E3.91071
G1 X120.561 Y148.32 E3.93547
G1 X120.22 Y148.353 E3.94687
G1 X119.799 Y148.387 E3.96092
G1 X119.444 Y148.41 E3.97275
G1 X118.531 Y148.454 E4.00315
G1 X118.191 Y148.465 E4.01446
G1 X117.844 Y148.471 E4.02601
G1 X117.501 Y148.472 E4.03742
G1 X116.641 Y148.46 E4.06602
G1 X116.298 Y148.45 E4.07743
G1 X115.921 Y148.433 E4.08999
G1 X115.572 Y148.412 E4.10162
G1 X114.676 Y148.343 E4.1315
G1 X114.297 Y148.307 E4.14417
G1 X113.886 Y148.261 E4.15792
G1 X113.59 Y148.223 E4.16785
G1 X112.809 Y148.114 E4.19408
G1 X112.482 Y148.064 E4.20508
G1 X112.118 Y148.002 E4.21736
G1 X111.745 Y147.932 E4.22998
G1 X110.789 Y147.735 E4.26245
G1 X110.461 Y147.662 E4.27362
G1 X110.083 Y147.572 E4.28655
G1 X109.738 Y147.484 E4.29839
G1 X108.953 Y147.27 E4.32545
G1 X108.637 Y147.178 E4.3364
G1 X108.26 Y147.063 E4.34951
G1 X107.92 Y146.954 E4.36138
G1 X107.081 Y146.668 E4.39086
G1 X106.768 Y146.556 E4.40192
G1 X106.384 Y146.412 E4.41556
G1 X106.047 Y146.279 E4.42761
G1 X105.311 Y145.975 E4.4541
G1 X105.002 Y145.842 E4.46529
G1 X104.677 Y145.696 E4.47714
G1 X104.371 Y145.552 E4.48838
G1 X103.502 Y145.129 E4.52053
G1 X103.164 Y144.958 E4.53313
G1 X102.849 Y144.791 E4.54499
G1 X102.555 Y144.629 E4.55615
G1 X101.846 Y144.225 E4.58329
G1 X101.541 Y144.045 E4.59507
G1 X101.179 Y143.823 E4.6092
G1 X100.919 Y143.658 E4.61944
G1 X100.191 Y143.183 E4.64835
G1 X99.869 Y142.965 E4.66128
G1 X99.558 Y142.746 E4.67393
G1 X99.309 Y142.565 E4.68417
G1 X98.59 Y142.028 E4.71402
G1 X98.304 Y141.807 E4.72604
G1 X97.975 Y141.544 E4.74005
G1 X97.72 Y141.334 E4.75104
G1 X97.134 Y140.836 E4.77662
G1 X96.887 Y140.62 E4.78753
G1 X96.61 Y140.37 E4.79994
G1 X96.34 Y140.118 E4.81222
G1 X95.649 Y139.451 E4.84417
G1 X95.392 Y139.195 E4.85623
G1 X95.168 Y138.964 E4.86693
G1 X94.937 Y138.718 E4.87816
G1 X94.295 Y138.014 E4.90985
G1 X94.034 Y137.717 E4.923
G1 X93.777 Y137.414 E4.93621
G1 X93.594 Y137.193 E4.94576
G1 X93.138 Y136.626 E4.96996
G1 X92.933 Y136.362 E4.98107
G1 X92.689 Y136.039 E4.99454
G1 X92.48 Y135.754 E5.00629
G1 X91.937 Y134.985 E5.0376
G1 X91.741 Y134.697 E5.04919
G1 X91.52 Y134.362 E5.06254
G1 X91.325 Y134.056 E5.07461
G1 X90.884 Y133.337 E5.10266
G1 X90.717 Y133.056 E5.11353
G1 X90.478 Y132.639 E5.12952
G1 X90.309 Y132.333 E5.14115
G1 X89.956 Y131.669 E5.16616
G1 X89.816 Y131.395 E5.17639
G1 X89.682 Y131.125 E5.18642
G1 X89.513 Y130.769 E5.19952
G1 X89.09 Y129.834 E5.23366
G1 X88.949 Y129.508 E5.24547
G1 X88.802 Y129.153 E5.25825
G1 X88.684 Y128.856 E5.26888
G1 X88.404 Y128.12 E5.29507
G1 X88.285 Y127.791 E5.30671
G1 X88.171 Y127.46 E5.31835
G1 X88.061 Y127.125 E5.33008
G1 X87.786 Y126.235 E5.36106
G1 X87.691 Y125.908 E5.37239
G1 X87.574 Y125.483 E5.38705
G1 X87.487 Y125.149 E5.39853
G1 X87.302 Y124.384 E5.4247
G1 X87.23 Y124.066 E5.43555
G1 X87.163 Y123.748 E5.44636
G1 X87.093 Y123.383 E5.45872
G1 X86.92 Y122.398 E5.49198
G1 X86.865 Y122.054 E5.50357
G1 X86.806 Y121.642 E5.51741
G1 X86.762 Y121.299 E5.52891
G1 X86.677 Y120.535 E5.55448
G1 X86.645 Y120.198 E5.56574
G1 X86.613 Y119.799 E5.57905
G1 X86.591 Y119.46 E5.59035
G1 X86.546 Y118.545 E5.62082
G1 X86.535 Y118.208 E5.63204
G1 X86.528 Y117.829 E5.64464
G1 X86.527 Y117.466 E5.65672
G1 X86.539 Y116.639 E5.68423
G1 X86.551 Y116.273 E5.69641
G1 X86.568 Y115.918 E5.70823
G1 X86.588 Y115.597 E5.71892
G1 X86.66 Y114.665 E5.75001
G1 X86.694 Y114.297 E5.76231
G1 X86.744 Y113.847 E5.77737
G1 X86.783 Y113.537 E5.78776
G1 X86.886 Y112.801 E5.81248
G1 X86.938 Y112.47 E5.82362
G1 X86.989 Y112.172 E5.83368
G1 X87.055 Y111.817 E5.84568
G1 X87.27 Y110.769 E5.88127
G1 X87.347 Y110.424 E5.89302
G1 X87.433 Y110.064 E5.90533
G1 X87.519 Y109.727 E5.9169
G1 X87.733 Y108.942 E5.94396
G1 X87.83 Y108.609 E5.9555
G1 X87.934 Y108.27 E5.96729
G1 X88.036 Y107.954 E5.97834
G1 X88.337 Y107.069 E6.00943
G1 X88.45 Y106.752 E6.02062
G1 X88.586 Y106.389 E6.03352
G1 X88.722 Y106.043 E6.04588
G1 X89.031 Y105.296 E6.07277
G1 X89.162 Y104.992 E6.08378
G1 X89.304 Y104.676 E6.0953
G1 X89.448 Y104.371 E6.10652
G1 X89.871 Y103.502 E6.13866
G1 X90.039 Y103.169 E6.15107
G1 X90.201 Y102.863 E6.16259
G1 X90.366 Y102.564 E6.17394
G1 X90.786 Y101.827 E6.20216
G1 X90.958 Y101.536 E6.2134
G1 X91.164 Y101.199 E6.22654
G1 X91.344 Y100.914 E6.23775
G1 X91.832 Y100.168 E6.2674
G1 X92.044 Y99.855 E6.27997
G1 X92.268 Y99.537 E6.29291
G1 X92.447 Y99.291 E6.30303
G1 X92.948 Y98.62 E6.33088
G1 X93.175 Y98.326 E6.34323
G1 X93.432 Y98.005 E6.35691
G1 X93.642 Y97.75 E6.3679
G1 X94.208 Y97.085 E6.39694
G1 X94.433 Y96.83 E6.40825
G1 X94.693 Y96.543 E6.42113
G1 X94.933 Y96.286 E6.43283
G1 X95.529 Y95.669 E6.46136
G1 X95.766 Y95.431 E6.47253
G0 F6000 X96.045 Y95.718
G1 F1200 X96.276 Y95.493 E6.48326
G1 X96.524 Y95.259 E6.4946
G1 X97.215 Y94.628 E6.52572
G1 X97.488 Y94.387 E6.53783
G1 X97.799 Y94.122 E6.55142
G1 X98.027 Y93.933 E6.56127
G1 X98.694 Y93.396 E6.58975
G1 X98.995 Y93.162 E6.60244
G1 X99.284 Y92.946 E6.61444
G1 X99.506 Y92.785 E6.62356
G1 X100.218 Y92.281 E6.65257
G1 X100.504 Y92.086 E6.66408
G1 X100.798 Y91.892 E6.6758
G1 X101.086 Y91.708 E6.68717
G1 X101.885 Y91.217 E6.71836
G1 X102.184 Y91.04 E6.72991
G1 X102.561 Y90.825 E6.74435
G1 X102.823 Y90.68 E6.75431
G1 X103.496 Y90.321 E6.77968
G1 X103.794 Y90.168 E6.79082
G1 X104.1 Y90.017 E6.80217
G1 X104.415 Y89.869 E6.81375
G1 X105.304 Y89.466 E6.84621
G1 X105.631 Y89.324 E6.85807
G1 X106.006 Y89.169 E6.87156
G1 X106.286 Y89.058 E6.88158
G1 X107.022 Y88.778 E6.90777
G1 X107.339 Y88.663 E6.91899
G1 X107.67 Y88.549 E6.93063
G1 X107.993 Y88.443 E6.94194
G1 X108.883 Y88.168 E6.97292
G1 X109.199 Y88.076 E6.98387
G1 X109.624 Y87.959 E6.99853
G1 X109.945 Y87.876 E7.00956
G1 X110.71 Y87.691 E7.03573
G1 X111.018 Y87.621 E7.04624
G1 X111.322 Y87.557 E7.05657
G1 X111.673 Y87.49 E7.06846
G1 X112.681 Y87.313 E7.1025
G1 X113.008 Y87.261 E7.11351
G1 X113.419 Y87.202 E7.12732
G1 X113.743 Y87.16 E7.13819
G1 X114.483 Y87.077 E7.16295
G1 X114.812 Y87.045 E7.17395
G1 X115.233 Y87.011 E7.18799
G1 X115.576 Y86.989 E7.19943
G1 X116.489 Y86.945 E7.22983
G1 X116.816 Y86.935 E7.24071
G1 X117.163 Y86.929 E7.25225
G1 X117.494 Y86.928 E7.26326
G1 X118.354 Y86.94 E7.29187
G1 X118.683 Y86.95 E7.30282
G1 X119.06 Y86.967 E7.31537
G1 X119.397 Y86.987 E7.3266
G1 X120.293 Y87.056 E7.35649
G1 X120.658 Y87.091 E7.36868
G1 X121.069 Y87.137 E7.38244
G1 X121.355 Y87.173 E7.39202
G1 X122.136 Y87.282 E7.41825
G1 X122.451 Y87.33 E7.42885
G1 X122.815 Y87.392 E7.44113
G1 X123.174 Y87.46 E7.45328
G1 X124.13 Y87.657 E7.48575
G1 X124.446 Y87.727 E7.49651
G1 X124.824 Y87.817 E7.50944
G1 X125.157 Y87.902 E7.52087
G1 X125.942 Y88.116 E7.54793
G1 X126.247 Y88.204 E7.55849
G1 X126.624 Y88.319 E7.5716
G1 X126.951 Y88.425 E7.58303
G1 X127.79 Y88.711 E7.61251
G1 X128.092 Y88.819 E7.62318
G1 X128.476 Y88.963 E7.63682
G1 X128.801 Y89.091 E7.64844
G1 X129.537 Y89.395 E7.67492
G1 X129.834 Y89.523 E7.68568
G1 X130.159 Y89.669 E7.69753
G1 X130.454 Y89.807 E7.70836
G1 X131.323 Y90.23 E7.74051
G1 X131.649 Y90.396 E7.75268
G1 X131.964 Y90.563 E7.76453
G1 X132.247 Y90.718 E7.77527
G1 X132.956 Y91.122 E7.80241
G1 X133.249 Y91.296 E7.81374
G1 X133.611 Y91.518 E7.82786
G1 X133.862 Y91.677 E7.83775
G1 X134.59 Y92.152 E7.86666
G1 X134.895 Y92.358 E7.8789
G1 X135.205 Y92.576 E7.8915
G1 X135.457 Y92.758 E7.90184
G1 X136.175 Y93.295 E7.93166
G1 X136.432 Y93.495 E7.9425
G1 X136.762 Y93.758 E7.95653
G1 X137.02 Y93.97 E7.96764
G1 X137.606 Y94.468 E7.99322
G1 X137.844 Y94.676 E8.00373
G1 X138.121 Y94.926 E8.01614
G1 X138.381 Y95.169 E8.02798
G1 X139.073 Y95.837 E8.05997
G1 X139.308 Y96.071 E8.071
G1 X139.525 Y96.294 E8.08134
G1 X139.762 Y96.545 E8.09283
G1 X140.411 Y97.257 E8.12487
G1 X140.661 Y97.541 E8.13745
G1 X140.918 Y97.844 E8.15067
G1 X141.094 Y98.058 E8.15988
G1 X141.55 Y98.625 E8.18408
G1 X141.748 Y98.879 E8.1948
G1 X141.992 Y99.202 E8.20826
G1 X142.193 Y99.477 E8.21959
G1 X142.736 Y100.246 E8.2509
G1 X142.922 Y100.518 E8.26186
G1 X143.134 Y100.839 E8.27465
G1 X143.322 Y101.135 E8.28632
G1 X143.772 Y101.868 E8.31492
G1 X143.94 Y102.15 E8.32584
G1 X144.178 Y102.566 E8.34178
G1 X144.334 Y102.849 E8.35253
G1 X144.688 Y103.514 E8.37759
G1 X144.819 Y103.769 E8.38712
G1 X144.953 Y104.038 E8.39712
G1 X145.124 Y104.399 E8.4104
G1 X145.547 Y105.335 E8.44457
G1 X145.682 Y105.645 E8.45581
G1 X145.829 Y106 E8.46859
