;FLAVOR:Marlin
;TIME:4847
;Filament used: 3.87305m
;Layer height: 0.2
;MINX:72.614
;MINY:72.614
;MINZ:0.2
;MAXX:147.386
;MAXY:147.386
;MAXZ:7.2
;Generated with Cura_SteamEngine 4.2.1
M140 S75
M105
M190 S75
M104 S205
M105
M109 S205
M82 ;absolute extrusion mode
G92 E0 ; reset extruder G1 Z1.0 F3000 ; move z up little to prevent scratching of surface
G1 X0.1 Y20 Z0.3 F5000.0 ; move to start-line position
G1 X0.1 Y200.0 Z0.3 F1500.0 E15 ; draw 1st line
G1 X0.4 Y200.0 Z0.3 F5000.0 ; move to side a little
G1 X0.4 Y20 Z0.3 F1500.0 E30 ; draw 2nd line
G92 E0 ; reset extruder
M141 S28
G92 E0
G92 E0
G1 F3000 E-5
;LAYER_COUNT:35
;LAYER:0
M107
G0 F6000 X76.493 Y76.197 Z0.2
;TYPE:SKIRT
G1 F3000 E0
G1 F1200 X77.211 Y75.568 E0.03175
G1 X77.979 Y75.001 E0.0635
G1 X78.559 Y74.635 E0.08631
G1 X78.84 Y74.469 E0.09717
G1 X79.577 Y74.069 E0.12506
G1 X79.797 Y73.96 E0.13322
G1 X80.669 Y73.572 E0.16497
G1 X81.429 Y73.303 E0.19178
G1 X81.857 Y73.168 E0.20671
G1 X82.779 Y72.919 E0.23847
G1 X83.718 Y72.748 E0.27022
G1 X84.477 Y72.669 E0.2956
G1 X84.716 Y72.652 E0.30357
G1 X85.316 Y72.625 E0.32354
G1 X85.806 Y72.616 E0.33984
G1 X86.015 Y72.614 E0.34679
G1 X133.895 Y72.616 E1.93929
G1 X134.061 Y72.617 E1.94481
G1 X134.746 Y72.627 E1.9676
G1 X135.7 Y72.681 E1.99938
G1 X136.212 Y72.743 E2.01653
G1 X136.447 Y72.777 E2.02443
G1 X137.386 Y72.954 E2.05621
G1 X137.887 Y73.082 E2.07341
G1 X138.08 Y73.136 E2.08007
G1 X138.988 Y73.431 E2.11183
G1 X139.659 Y73.706 E2.13595
G1 X140.223 Y73.958 E2.15649
G1 X141.077 Y74.383 E2.18822
G1 X141.893 Y74.879 E2.21998
G1 X142.665 Y75.441 E2.25174
G1 X143.387 Y76.066 E2.2835
G1 X144.054 Y76.749 E2.31526
G1 X144.662 Y77.486 E2.34703
G1 X145.205 Y78.27 E2.37875
G1 X145.638 Y79.014 E2.40738
G1 X145.789 Y79.298 E2.41808
G1 X145.947 Y79.608 E2.42965
G1 X146.091 Y79.9 E2.44048
G1 X146.477 Y80.773 E2.47223
G1 X146.72 Y81.452 E2.49622
G1 X146.784 Y81.651 E2.50317
G1 X147.038 Y82.571 E2.53491
G1 X147.26 Y83.871 E2.57878
G1 X147.309 Y84.308 E2.5934
G1 X147.379 Y85.416 E2.63033
G1 X147.385 Y85.839 E2.6444
G1 X147.386 Y86.001 E2.64979
G1 X147.384 Y133.877 E4.24215
G1 X147.383 Y134.041 E4.2476
G1 X147.373 Y134.737 E4.27076
G1 X147.319 Y135.69 E4.3025
G1 X147.112 Y137.004 E4.34675
G1 X147.009 Y137.476 E4.36282
G1 X146.766 Y138.399 E4.39456
G1 X146.349 Y139.536 E4.43484
G1 X146.265 Y139.732 E4.44193
G1 X146.129 Y140.036 E4.45301
G1 X145.976 Y140.366 E4.46511
G1 X145.539 Y141.215 E4.49687
G1 X145.032 Y142.024 E4.52862
G1 X144.459 Y142.788 E4.56038
G1 X143.824 Y143.501 E4.59214
G1 X143.132 Y144.158 E4.62388
G1 X142.387 Y144.756 E4.65565
G1 X141.595 Y145.288 E4.68738
G1 X141.093 Y145.579 E4.70668
G1 X140.873 Y145.699 E4.71502
G1 X140.458 Y145.914 E4.73056
G1 X140.156 Y146.063 E4.74176
G1 X139.283 Y146.45 E4.77353
G1 X138.41 Y146.752 E4.80425
G1 X138.013 Y146.872 E4.81804
G1 X137.089 Y147.11 E4.84978
G1 X136.147 Y147.27 E4.88156
G1 X135.631 Y147.323 E4.89881
G1 X135.42 Y147.34 E4.90585
G1 X134.664 Y147.376 E4.93103
G1 X134.023 Y147.385 E4.95235
G1 X133.863 Y147.386 E4.95767
G1 X86.105 Y147.384 E6.54611
G1 X85.942 Y147.383 E6.55153
G1 X85.243 Y147.373 E6.57478
G1 X84.29 Y147.319 E6.60653
G1 X83.669 Y147.241 E6.62734
G1 X83.429 Y147.204 E6.63542
G1 X82.492 Y147.019 E6.66719
G1 X81.341 Y146.676 E6.70713
G1 X80.99 Y146.551 E6.71953
G1 X80.015 Y146.152 E6.75457
G1 X79.638 Y145.977 E6.76839
G1 X78.79 Y145.539 E6.80013
G1 X77.981 Y145.032 E6.83189
G1 X77.217 Y144.459 E6.86365
G1 X76.505 Y143.824 E6.89538
G1 X75.847 Y143.131 E6.92717
G1 X75.25 Y142.386 E6.95892
G1 X74.52 Y141.258 E7.00361
G1 X74.38 Y141.011 E7.01305
G1 X74.076 Y140.437 E7.03466
G1 X73.918 Y140.117 E7.04653
G1 X73.532 Y139.244 E7.07827
G1 X73.221 Y138.346 E7.10988
G1 X73.125 Y138.026 E7.12099
G1 X72.889 Y137.101 E7.15274
G1 X72.731 Y136.159 E7.18451
G1 X72.67 Y135.517 E7.20596
G1 X72.646 Y135.161 E7.21783
G1 X72.624 Y134.697 E7.23328
G1 X72.618 Y134.471 E7.2408
G1 X72.614 Y134.168 E7.25088
G1 X72.616 Y86.105 E8.84946
G1 X72.617 Y85.944 E8.85482
G1 X72.627 Y85.238 E8.8783
G1 X72.681 Y84.284 E8.91008
G1 X72.765 Y83.626 E8.93214
G1 X72.802 Y83.391 E8.94006
G1 X72.99 Y82.455 E8.97181
G1 X73.255 Y81.538 E9.00356
G1 X73.522 Y80.823 E9.02894
G1 X73.816 Y80.109 E9.05462
G1 X74.216 Y79.243 E9.08635
G1 X74.687 Y78.412 E9.11812
G1 X75.226 Y77.624 E9.14987
G1 X75.83 Y76.884 E9.18164
G1 X76.493 Y76.197 E9.2134
G0 F6000 X76.829 Y76.43
G1 F1200 X77.539 Y75.818 E9.24458
G1 X78.299 Y75.268 E9.27578
G1 X78.762 Y74.979 E9.29393
G1 X79.043 Y74.813 E9.30479
G1 X79.755 Y74.427 E9.33172
G1 X79.975 Y74.318 E9.33989
G1 X80.832 Y73.938 E9.37107
G1 X81.549 Y73.684 E9.39637
G1 X81.977 Y73.549 E9.4113
G1 X82.883 Y73.306 E9.4425
G1 X83.806 Y73.14 E9.47369
G1 X84.506 Y73.068 E9.49709
G1 X84.745 Y73.051 E9.50506
G1 X85.323 Y73.025 E9.52431
G1 X85.813 Y73.016 E9.54061
G1 X86.015 Y73.014 E9.54732
G1 X133.895 Y73.016 E11.13982
G1 X134.056 Y73.017 E11.14518
G1 X134.741 Y73.027 E11.16796
G1 X135.677 Y73.081 E11.19914
G1 X136.155 Y73.139 E11.21516
G1 X136.39 Y73.173 E11.22306
G1 X137.312 Y73.347 E11.25426
G1 X137.779 Y73.467 E11.2703
G1 X137.972 Y73.521 E11.27697
G1 X138.863 Y73.812 E11.30814
G1 X139.495 Y74.071 E11.33086
G1 X140.059 Y74.323 E11.3514
G1 X140.899 Y74.742 E11.38263
G1 X141.699 Y75.23 E11.41379
G1 X142.455 Y75.785 E11.44499
G1 X143.161 Y76.403 E11.47619
G1 X143.812 Y77.078 E11.50738
G1 X144.402 Y77.807 E11.53858
G1 X144.929 Y78.583 E11.56978
G1 X145.285 Y79.202 E11.59353
G1 X145.436 Y79.486 E11.60422
G1 X145.589 Y79.785 E11.6154
G1 X145.733 Y80.077 E11.62622
G1 X146.111 Y80.935 E11.65741
G1 X146.339 Y81.574 E11.67997
G1 X146.403 Y81.773 E11.68693
G1 X146.652 Y82.677 E11.71811
G1 X146.862 Y83.915 E11.75988
G1 X146.911 Y84.352 E11.7745
G1 X146.979 Y85.422 E11.81016
G1 X146.985 Y85.845 E11.82423
G1 X146.986 Y86.001 E11.82942
G1 X146.984 Y133.877 E13.42178
G1 X146.983 Y134.035 E13.42704
G1 X146.973 Y134.731 E13.45019
G1 X146.919 Y135.667 E13.48137
G1 X146.721 Y136.918 E13.5235
G1 X146.618 Y137.39 E13.53957
G1 X146.379 Y138.297 E13.57077
G1 X145.982 Y139.378 E13.60907
G1 X145.898 Y139.574 E13.61616
G1 X145.767 Y139.868 E13.62687
G1 X145.614 Y140.198 E13.63896
G1 X145.183 Y141.031 E13.67016
G1 X144.683 Y141.825 E13.70137
G1 X144.118 Y142.573 E13.73255
G1 X143.49 Y143.27 E13.76375
G1 X142.806 Y143.911 E13.79493
G1 X142.07 Y144.492 E13.82612
G1 X140.901 Y145.228 E13.87206
G1 X140.681 Y145.348 E13.8804
G1 X140.281 Y145.556 E13.89539
G1 X139.979 Y145.705 E13.90659
G1 X139.121 Y146.083 E13.93778
G1 X138.295 Y146.369 E13.96685
G1 X137.898 Y146.489 E13.98064
G1 X136.989 Y146.722 E14.01185
G1 X135.598 Y146.924 E14.0586
G1 X135.387 Y146.941 E14.06564
G1 X134.658 Y146.976 E14.08992
G1 X134.017 Y146.985 E14.11124
G1 X133.863 Y146.986 E14.11636
G1 X86.105 Y146.984 E15.7048
G1 X85.948 Y146.983 E15.71002
G1 X85.249 Y146.973 E15.73327
G1 X84.312 Y146.919 E15.76449
G1 X83.73 Y146.846 E15.784
G1 X83.49 Y146.809 E15.79208
G1 X82.57 Y146.626 E15.82328
G1 X81.476 Y146.299 E15.86125
G1 X81.125 Y146.174 E15.87364
G1 X80.184 Y145.789 E15.90746
G1 X79.807 Y145.614 E15.92129
G1 X78.973 Y145.184 E15.95249
G1 X78.18 Y144.683 E15.98369
G1 X77.432 Y144.118 E16.01487
G1 X76.735 Y143.49 E16.04607
G1 X76.094 Y142.805 E16.07728
G1 X75.514 Y142.068 E16.10847
G1 X74.868 Y141.061 E16.14826
G1 X74.728 Y140.814 E16.15771
G1 X74.435 Y140.26 E16.17855
G1 X74.277 Y139.94 E16.19042
G1 X73.898 Y139.082 E16.22162
G1 X73.604 Y138.231 E16.25156
G1 X73.508 Y137.911 E16.26268
G1 X73.277 Y137.002 E16.29387
G1 X73.124 Y136.076 E16.32509
G1 X73.069 Y135.49 E16.34466
G1 X73.045 Y135.134 E16.35653
G1 X73.024 Y134.686 E16.37145
G1 X73.018 Y134.46 E16.37897
G1 X73.014 Y134.168 E16.38868
G1 X73.016 Y86.105 E17.98726
G1 X73.017 Y85.949 E17.99245
G1 X73.027 Y85.243 E18.01593
G1 X73.08 Y84.307 E18.04711
G1 X73.16 Y83.688 E18.06787
G1 X73.197 Y83.453 E18.07579
G1 X73.382 Y82.534 E18.10697
G1 X73.645 Y81.633 E18.13818
G1 X73.892 Y80.976 E18.16153
G1 X74.186 Y80.262 E18.18721
G1 X74.579 Y79.411 E18.21839
G1 X75.044 Y78.596 E18.2496
G1 X75.577 Y77.824 E18.2808
G1 X76.173 Y77.1 E18.31199
G1 X76.829 Y76.43 E18.34318
G0 F6000 X77.164 Y76.664
G1 F1200 X77.867 Y76.069 E18.37381
G1 X78.966 Y75.324 E18.41797
G1 X79.247 Y75.158 E18.42882
G1 X79.932 Y74.786 E18.45475
G1 X80.152 Y74.677 E18.46292
G1 X80.994 Y74.304 E18.49355
G1 X81.669 Y74.066 E18.51735
G1 X82.097 Y73.931 E18.53228
G1 X82.987 Y73.692 E18.56293
G1 X83.893 Y73.532 E18.59353
G1 X84.534 Y73.467 E18.61496
G1 X84.773 Y73.45 E18.62293
G1 X85.33 Y73.425 E18.64147
G1 X85.82 Y73.416 E18.65777
G1 X86.015 Y73.414 E18.66426
G1 X133.895 Y73.416 E20.25675
G1 X134.05 Y73.417 E20.26191
G1 X134.735 Y73.427 E20.28469
G1 X136.098 Y73.535 E20.33017
G1 X136.333 Y73.569 E20.33807
G1 X137.671 Y73.852 E20.38355
G1 X137.864 Y73.906 E20.39022
G1 X138.739 Y74.192 E20.42084
G1 X139.332 Y74.436 E20.44216
G1 X139.896 Y74.688 E20.46271
G1 X140.72 Y75.1 E20.49335
G1 X141.504 Y75.581 E20.52394
G1 X142.244 Y76.129 E20.55457
G1 X142.934 Y76.739 E20.5852
G1 X143.568 Y77.407 E20.61583
G1 X144.141 Y78.127 E20.64644
G1 X144.65 Y78.894 E20.67706
G1 X144.931 Y79.39 E20.69602
G1 X145.082 Y79.674 E20.70671
G1 X145.23 Y79.962 E20.71748
G1 X145.374 Y80.254 E20.72831
G1 X145.745 Y81.096 E20.75892
G1 X145.958 Y81.697 E20.78012
G1 X146.022 Y81.896 E20.78708
G1 X146.266 Y82.784 E20.81771
G1 X146.465 Y83.96 E20.85738
G1 X146.514 Y84.397 E20.872
G1 X146.579 Y85.428 E20.90636
G1 X146.585 Y85.851 E20.92043
G1 X146.586 Y86.001 E20.92542
G1 X146.584 Y133.877 E22.51778
G1 X146.583 Y134.029 E22.52284
G1 X146.573 Y134.725 E22.54599
G1 X146.52 Y135.644 E22.57661
G1 X146.33 Y136.833 E22.61665
G1 X146.227 Y137.305 E22.63272
G1 X145.992 Y138.195 E22.66334
G1 X145.614 Y139.221 E22.69971
G1 X145.53 Y139.417 E22.7068
G1 X145.404 Y139.7 E22.7171
G1 X145.251 Y140.03 E22.7292
G1 X144.828 Y140.847 E22.7598
G1 X144.335 Y141.625 E22.79043
G1 X143.777 Y142.357 E22.82105
G1 X143.157 Y143.038 E22.85168
G1 X142.481 Y143.663 E22.8823
G1 X141.753 Y144.227 E22.91293
G1 X140.71 Y144.877 E22.9538
G1 X140.49 Y144.997 E22.96214
G1 X140.104 Y145.197 E22.9766
G1 X139.802 Y145.346 E22.9878
G1 X138.959 Y145.717 E23.01843
G1 X138.179 Y145.987 E23.04589
G1 X137.782 Y146.107 E23.05968
G1 X136.89 Y146.334 E23.09029
G1 X135.566 Y146.526 E23.13479
G1 X135.355 Y146.543 E23.14183
G1 X134.653 Y146.576 E23.16521
G1 X134.012 Y146.585 E23.18653
G1 X133.863 Y146.586 E23.19148
G1 X86.105 Y146.584 E24.77992
G1 X85.953 Y146.583 E24.78498
G1 X85.254 Y146.573 E24.80823
G1 X84.335 Y146.52 E24.83885
G1 X83.791 Y146.45 E24.85709
G1 X83.551 Y146.413 E24.86516
G1 X82.648 Y146.234 E24.89578
G1 X81.61 Y145.923 E24.93182
G1 X81.259 Y145.798 E24.94422
G1 X80.352 Y145.427 E24.97681
G1 X79.975 Y145.252 E24.99063
G1 X79.158 Y144.828 E25.02125
G1 X78.38 Y144.335 E25.05188
G1 X77.648 Y143.777 E25.0825
G1 X76.967 Y143.157 E25.11313
G1 X76.343 Y142.48 E25.14375
G1 X75.78 Y141.752 E25.17436
G1 X75.216 Y140.864 E25.20935
G1 X75.076 Y140.617 E25.21879
G1 X74.793 Y140.083 E25.23889
G1 X74.635 Y139.763 E25.25076
G1 X74.264 Y138.92 E25.2814
G1 X73.987 Y138.116 E25.30968
G1 X73.891 Y137.796 E25.32079
G1 X73.665 Y136.903 E25.35143
G1 X73.517 Y135.995 E25.38203
G1 X73.468 Y135.463 E25.3998
G1 X73.444 Y135.107 E25.41166
G1 X73.424 Y134.675 E25.42605
G1 X73.418 Y134.449 E25.43357
G1 X73.414 Y134.168 E25.44291
G1 X73.416 Y86.105 E27.0415
G1 X73.417 Y85.955 E27.04649
G1 X73.427 Y85.249 E27.06997
G1 X73.48 Y84.33 E27.10059
G1 X73.555 Y83.75 E27.12004
G1 X73.592 Y83.515 E27.12795
G1 X73.775 Y82.613 E27.15856
G1 X74.035 Y81.73 E27.18918
G1 X74.261 Y81.128 E27.21056
G1 X74.555 Y80.414 E27.23625
G1 X74.943 Y79.579 E27.26687
G1 X75.401 Y78.78 E27.2975
G1 X75.927 Y78.024 E27.32813
G1 X76.516 Y77.317 E27.35874
G1 X77.164 Y76.664 E27.38934
G0 F6000 X77.499 Y76.899
G1 F1200 X78.194 Y76.322 E27.41938
G1 X79.169 Y75.668 E27.45843
G1 X79.45 Y75.502 E27.46928
G1 X80.11 Y75.144 E27.49426
G1 X80.33 Y75.035 E27.50242
G1 X81.156 Y74.671 E27.53245
G1 X81.79 Y74.447 E27.55481
G1 X82.218 Y74.312 E27.56974
G1 X83.09 Y74.079 E27.59976
G1 X83.98 Y73.924 E27.6298
G1 X84.562 Y73.866 E27.64926
G1 X84.801 Y73.849 E27.65723
G1 X85.338 Y73.825 E27.67511
G1 X85.828 Y73.816 E27.69141
G1 X86.015 Y73.814 E27.69763
G1 X133.895 Y73.816 E29.29012
G1 X134.044 Y73.817 E29.29508
G1 X134.729 Y73.827 E29.31786
G1 X136.041 Y73.931 E29.36164
G1 X136.276 Y73.965 E29.36953
G1 X137.563 Y74.237 E29.41329
G1 X137.756 Y74.291 E29.41995
G1 X138.614 Y74.573 E29.44999
G1 X139.169 Y74.801 E29.46995
G1 X139.733 Y75.053 E29.49049
G1 X140.54 Y75.458 E29.52052
G1 X141.309 Y75.932 E29.55057
G1 X142.032 Y76.473 E29.5806
G1 X142.705 Y77.075 E29.61064
G1 X143.322 Y77.735 E29.64069
G1 X143.878 Y78.446 E29.67071
G1 X144.578 Y79.578 E29.71497
G1 X144.729 Y79.862 E29.72567
G1 X144.871 Y80.139 E29.73602
G1 X145.015 Y80.431 E29.74685
G1 X145.378 Y81.257 E29.77686
G1 X145.577 Y81.819 E29.79669
G1 X145.641 Y82.018 E29.80364
G1 X145.879 Y82.889 E29.83368
G1 X146.067 Y84.004 E29.87128
G1 X146.116 Y84.441 E29.88591
G1 X146.179 Y85.433 E29.91897
G1 X146.185 Y85.856 E29.93304
G1 X146.186 Y86.001 E29.93786
G1 X146.184 Y133.877 E31.53023
G1 X146.183 Y134.024 E31.53512
G1 X146.173 Y134.72 E31.55827
G1 X146.12 Y135.621 E31.58829
G1 X145.939 Y136.748 E31.62625
G1 X145.836 Y137.22 E31.64232
G1 X145.605 Y138.093 E31.67235
G1 X145.246 Y139.063 E31.70676
G1 X145.162 Y139.259 E31.71385
G1 X145.041 Y139.531 E31.72375
G1 X144.888 Y139.861 E31.73585
G1 X144.472 Y140.663 E31.7659
G1 X143.987 Y141.425 E31.79594
G1 X143.436 Y142.141 E31.82599
G1 X142.825 Y142.805 E31.856
G1 X142.157 Y143.413 E31.88604
G1 X141.437 Y143.959 E31.9161
G1 X140.518 Y144.526 E31.95201
G1 X140.298 Y144.646 E31.96035
G1 X139.927 Y144.838 E31.97424
G1 X139.625 Y144.987 E31.98544
G1 X138.798 Y145.351 E32.0155
G1 X138.063 Y145.604 E32.04135
G1 X137.666 Y145.724 E32.05514
G1 X136.791 Y145.946 E32.08517
G1 X135.534 Y146.127 E32.12741
G1 X135.323 Y146.144 E32.13445
G1 X134.647 Y146.176 E32.15696
G1 X134.006 Y146.185 E32.17828
G1 X133.863 Y146.186 E32.18304
G1 X86.105 Y146.184 E33.77147
G1 X85.959 Y146.183 E33.77633
G1 X85.26 Y146.173 E33.79958
G1 X84.359 Y146.12 E33.8296
G1 X83.852 Y146.055 E33.8466
G1 X83.612 Y146.018 E33.85468
G1 X82.726 Y145.841 E33.88473
G1 X81.744 Y145.546 E33.91883
G1 X81.393 Y145.421 E33.93122
G1 X80.52 Y145.064 E33.96259
G1 X80.143 Y144.889 E33.97642
G1 X79.342 Y144.473 E34.00644
G1 X78.58 Y143.987 E34.0365
G1 X77.865 Y143.436 E34.06652
G1 X77.201 Y142.824 E34.09656
G1 X76.593 Y142.156 E34.1266
G1 X76.047 Y141.437 E34.15663
G1 X75.564 Y140.667 E34.18686
G1 X75.424 Y140.42 E34.1963
G1 X75.152 Y139.906 E34.21564
G1 X74.994 Y139.586 E34.22751
G1 X74.631 Y138.759 E34.25755
G1 X74.37 Y138.001 E34.28422
G1 X74.274 Y137.681 E34.29533
G1 X74.053 Y136.805 E34.32538
G1 X73.911 Y135.914 E34.35539
G1 X73.867 Y135.436 E34.37135
G1 X73.843 Y135.08 E34.38322
G1 X73.824 Y134.665 E34.39704
G1 X73.818 Y134.439 E34.40456
G1 X73.814 Y134.168 E34.41357
G1 X73.816 Y86.105 E36.01215
G1 X73.817 Y85.961 E36.01694
G1 X73.827 Y85.255 E36.04043
G1 X73.88 Y84.353 E36.07048
G1 X73.95 Y83.813 E36.08859
G1 X73.987 Y83.578 E36.0965
G1 X74.167 Y82.693 E36.12654
G1 X74.424 Y81.827 E36.15658
G1 X74.631 Y81.28 E36.17604
G1 X74.925 Y80.566 E36.20172
G1 X75.306 Y79.747 E36.23176
G1 X75.757 Y78.965 E36.26179
G1 X76.276 Y78.226 E36.29182
G1 X76.858 Y77.536 E36.32185
G1 X77.499 Y76.899 E36.3519
G1 F3000 E31.3519
G1 F600 Z0.4
;MESH:square.stl
G0 F6000 X133.639 Y133.639 Z0.4
;TYPE:WALL-INNER
G1 F600 Z0.2
G1 F3000 E36.3519
G1 F1200 X133.439 Y133.639 E36.35855
G1 X86.366 Y133.631 E37.92421
G1 X86.361 Y86.566 E39.4896
G1 X86.361 Y86.366 E39.49625
G1 X86.561 Y86.366 E39.50056
G1 X133.636 Y86.361 E41.06628
G1 X133.639 Y133.439 E42.6321
G1 X133.639 Y133.639 E42.6364
G1 F3000 E37.6364
G1 F600 Z0.4
G0 F6000 X109.564 Y117.088 Z0.4
G1 F600 Z0.2
G1 F3000 E42.6364
G1 F1200 X110.11 Y117.097 E42.65457
G1 X110.556 Y117.076 E42.66942
G1 X110.999 Y117.027 E42.68424
G1 X111.439 Y116.951 E42.69909
G1 X111.871 Y116.847 E42.71387
G1 X112.297 Y116.717 E42.72869
G1 X112.717 Y116.559 E42.74361
G1 X113.125 Y116.374 E42.75851
G1 X113.519 Y116.164 E42.77336
