;FLAVOR:Marlin
;TIME:3143
;Filament used: 2.30838m
;Layer height: 0.2
;MINX:72.612
;MINY:72.612
;MINZ:0.2
;MAXX:147.388
;MAXY:147.386
;MAXZ:2.6
;Generated with Cura_SteamEngine 4.2.1
M140 S75
M105
M190 S75
M104 S200
M105
M109 S200
M82 ;absolute extrusion mode
G92 E0 ; reset extruder G1 Z1.0 F3000 ; move z up little to prevent scratching of surface
G1 X0.1 Y20 Z0.3 F5000.0 ; move to start-line position
G1 X0.1 Y200.0 Z0.3 F1500.0 E15 ; draw 1st line
G1 X0.4 Y200.0 Z0.3 F5000.0 ; move to side a little
G1 X0.4 Y20 Z0.3 F1500.0 E30 ; draw 2nd line
G92 E0 ; reset extruder
M141 S28
G92 E0
G92 E0
G1 F3000 E-5
;LAYER_COUNT:12
;LAYER:0
M107
G0 F6000 X76.198 Y76.463 Z0.2
;TYPE:SKIRT
G1 F3000 E0
G1 F1200 X76.891 Y75.807 E0.03174
G1 X77.636 Y75.21 E0.06349
G1 X78.429 Y74.678 E0.09525
G1 X79.417 Y74.139 E0.13269
G1 X79.961 Y73.876 E0.15278
G1 X80.837 Y73.496 E0.18454
G1 X81.804 Y73.174 E0.21844
G1 X82.022 Y73.112 E0.22598
G1 X82.984 Y72.883 E0.25887
G1 X83.259 Y72.83 E0.26818
G1 X84.203 Y72.689 E0.29993
G1 X85.24 Y72.625 E0.33449
G1 X86.018 Y72.613 E0.36037
G1 X86.194 Y72.612 E0.36622
G1 X133.846 Y72.612 E1.95113
G1 X134.013 Y72.613 E1.95669
G1 X134.694 Y72.623 E1.97934
G1 X135.706 Y72.683 E2.01306
G1 X135.956 Y72.709 E2.02142
G1 X136.901 Y72.848 E2.05319
G1 X137.939 Y73.095 E2.08867
G1 X138.178 Y73.164 E2.09695
G1 X139.083 Y73.467 E2.12869
G1 X139.619 Y73.688 E2.14797
G1 X140.011 Y73.861 E2.16222
G1 X140.293 Y73.99 E2.17254
G1 X140.487 Y74.082 E2.17968
G1 X141.332 Y74.526 E2.21143
G1 X142.136 Y75.04 E2.24317
G1 X142.895 Y75.62 E2.27494
G1 X143.603 Y76.261 E2.3067
G1 X144.254 Y76.959 E2.33845
G1 X144.845 Y77.709 E2.37021
G1 X145.371 Y78.506 E2.40197
G1 X145.884 Y79.459 E2.43797
G1 X146.143 Y80 E2.45792
G1 X146.519 Y80.878 E2.48968
G1 X146.726 Y81.472 E2.51061
G1 X146.807 Y81.727 E2.51951
G1 X147.058 Y82.648 E2.55126
G1 X147.207 Y83.429 E2.5777
G1 X147.241 Y83.648 E2.58507
G1 X147.348 Y84.597 E2.61683
G1 X147.375 Y85.213 E2.63734
G1 X147.387 Y85.958 E2.66212
G1 X147.388 Y86.144 E2.66831
G1 X147.381 Y133.938 E4.25795
G1 X147.38 Y134.086 E4.26287
G1 X147.371 Y134.768 E4.28555
G1 X147.318 Y135.722 E4.31733
G1 X147.238 Y136.363 E4.33882
G1 X147.203 Y136.589 E4.34642
G1 X147.017 Y137.525 E4.37816
G1 X146.669 Y138.689 E4.41857
G1 X146.535 Y139.063 E4.43179
G1 X146.119 Y140.071 E4.46806
G1 X145.944 Y140.443 E4.48173
G1 X145.501 Y141.289 E4.51349
G1 X144.99 Y142.095 E4.54523
G1 X144.413 Y142.856 E4.577
G1 X143.774 Y143.565 E4.60874
G1 X143.078 Y144.219 E4.64051
G1 X142.33 Y144.812 E4.67226
G1 X141.535 Y145.341 E4.70402
G1 X140.644 Y145.827 E4.73777
G1 X140.097 Y146.095 E4.75803
G1 X139.222 Y146.479 E4.78981
G1 X138.319 Y146.788 E4.82156
G1 X137.699 Y146.953 E4.8429
G1 X137.199 Y147.071 E4.85998
G1 X136.262 Y147.251 E4.89172
G1 X134.998 Y147.368 E4.93394
G1 X134.725 Y147.378 E4.94303
G1 X134.307 Y147.386 E4.95693
G1 X86.049 Y147.381 E6.562
G1 X85.884 Y147.38 E6.56749
G1 X85.196 Y147.37 E6.59037
G1 X84.243 Y147.316 E6.62212
G1 X83.461 Y147.211 E6.64836
G1 X83.254 Y147.176 E6.65534
G1 X82.321 Y146.978 E6.68707
G1 X81.307 Y146.667 E6.72234
G1 X80.964 Y146.544 E6.73446
G1 X79.948 Y146.123 E6.77104
G1 X79.541 Y145.931 E6.78601
G1 X78.695 Y145.488 E6.81777
G1 X77.89 Y144.976 E6.8495
G1 X77.13 Y144.398 E6.88126
G1 X76.421 Y143.758 E6.91303
G1 X75.768 Y143.062 E6.94477
G1 X75.176 Y142.313 E6.97652
G1 X74.648 Y141.517 E7.00829
G1 X74.248 Y140.797 E7.03569
G1 X74.115 Y140.536 E7.04543
G1 X73.879 Y140.044 E7.06358
G1 X73.71 Y139.669 E7.07726
G1 X73.354 Y138.783 E7.10902
G1 X73.028 Y137.687 E7.14705
G1 X72.967 Y137.437 E7.15561
G1 X72.78 Y136.501 E7.18736
G1 X72.658 Y135.33 E7.22652
G1 X72.628 Y134.756 E7.24563
G1 X72.612 Y134.159 E7.2655
G1 X72.619 Y86.045 E8.86578
G1 X72.62 Y85.884 E8.87113
G1 X72.63 Y85.186 E8.89435
G1 X72.684 Y84.232 E8.92613
G1 X72.808 Y83.339 E8.95612
G1 X72.844 Y83.138 E8.96291
G1 X73.051 Y82.206 E8.99466
G1 X73.29 Y81.426 E9.02179
G1 X73.385 Y81.151 E9.03147
G1 X73.823 Y80.067 E9.07036
G1 X74.042 Y79.596 E9.08763
G1 X74.48 Y78.747 E9.11941
G1 X74.988 Y77.939 E9.15115
G1 X75.562 Y77.176 E9.18291
G1 X76.198 Y76.463 E9.21469
G0 F6000 X76.531 Y76.694
G1 F1200 X77.216 Y76.054 E9.24587
G1 X77.953 Y75.474 E9.27706
G1 X78.737 Y74.959 E9.30826
G1 X79.591 Y74.499 E9.34052
G1 X80.135 Y74.236 E9.36062
G1 X80.996 Y73.864 E9.39181
G1 X81.914 Y73.559 E9.42399
G1 X82.132 Y73.497 E9.43153
G1 X83.059 Y73.276 E9.46322
G1 X83.334 Y73.223 E9.47254
G1 X84.262 Y73.085 E9.50374
G1 X85.246 Y73.025 E9.53653
G1 X86.024 Y73.013 E9.56241
G1 X86.194 Y73.012 E9.56806
G1 X133.846 Y73.012 E11.15298
G1 X134.008 Y73.013 E11.15836
G1 X134.689 Y73.023 E11.18102
G1 X135.665 Y73.081 E11.21354
G1 X135.915 Y73.107 E11.2219
G1 X136.843 Y73.244 E11.2531
G1 X137.828 Y73.48 E11.28678
G1 X138.067 Y73.549 E11.29506
G1 X138.956 Y73.847 E11.32624
G1 X139.457 Y74.053 E11.34426
G1 X139.849 Y74.226 E11.35851
G1 X140.121 Y74.351 E11.36847
G1 X140.315 Y74.443 E11.37561
G1 X141.145 Y74.881 E11.40682
G1 X141.934 Y75.387 E11.438
G1 X142.677 Y75.959 E11.46919
G1 X143.369 Y76.593 E11.5004
G1 X144.004 Y77.283 E11.53159
G1 X144.579 Y78.024 E11.56279
G1 X145.087 Y78.812 E11.59397
G1 X145.524 Y79.632 E11.62487
G1 X145.783 Y80.173 E11.64482
G1 X146.151 Y81.036 E11.67603
G1 X146.345 Y81.593 E11.69564
G1 X146.426 Y81.848 E11.70454
G1 X146.671 Y82.753 E11.73573
G1 X146.812 Y83.49 E11.76068
G1 X146.846 Y83.709 E11.76806
G1 X146.95 Y84.642 E11.79928
G1 X146.975 Y85.22 E11.81852
G1 X146.987 Y85.965 E11.8433
G1 X146.988 Y86.144 E11.84926
G1 X146.981 Y133.938 E13.43889
G1 X146.98 Y134.081 E13.44365
G1 X146.971 Y134.763 E13.46633
G1 X146.919 Y135.7 E13.49755
G1 X146.842 Y136.301 E13.5177
G1 X146.807 Y136.527 E13.52531
G1 X146.625 Y137.447 E13.5565
G1 X146.292 Y138.554 E13.59495
G1 X146.158 Y138.928 E13.60816
G1 X145.757 Y139.9 E13.64313
G1 X145.582 Y140.272 E13.65681
G1 X145.147 Y141.103 E13.688
G1 X144.642 Y141.894 E13.71922
G1 X144.073 Y142.639 E13.7504
G1 X143.441 Y143.333 E13.78161
G1 X142.753 Y143.97 E13.8128
G1 X142.014 Y144.547 E13.84398
G1 X141.228 Y145.058 E13.87517
G1 X140.468 Y145.468 E13.90389
G1 X139.921 Y145.736 E13.92415
G1 X139.062 Y146.112 E13.95533
G1 X138.174 Y146.414 E13.98653
G1 X137.608 Y146.564 E14.00601
G1 X137.108 Y146.682 E14.02309
G1 X136.186 Y146.858 E14.05431
G1 X134.984 Y146.969 E14.09446
G1 X134.711 Y146.979 E14.10355
G1 X134.307 Y146.986 E14.11699
G1 X86.049 Y146.981 E15.72205
G1 X85.89 Y146.98 E15.72734
G1 X85.202 Y146.97 E15.75023
G1 X84.266 Y146.916 E15.78141
G1 X83.528 Y146.817 E15.80618
G1 X83.321 Y146.782 E15.81316
G1 X82.404 Y146.586 E15.84435
G1 X81.442 Y146.29 E15.87782
G1 X81.099 Y146.167 E15.88994
G1 X80.119 Y145.762 E15.92521
G1 X79.712 Y145.57 E15.94018
G1 X78.881 Y145.134 E15.97139
G1 X78.091 Y144.629 E16.00258
G1 X77.347 Y144.058 E16.03377
G1 X76.654 Y143.426 E16.06497
G1 X76.017 Y142.737 E16.09618
G1 X75.441 Y141.997 E16.12737
G1 X74.931 Y141.21 E16.15856
G1 X74.604 Y140.615 E16.18114
G1 X74.471 Y140.354 E16.19088
G1 X74.243 Y139.88 E16.20838
G1 X74.074 Y139.505 E16.22206
G1 X73.726 Y138.634 E16.25325
G1 X73.417 Y137.593 E16.28937
G1 X73.356 Y137.343 E16.29793
G1 X73.172 Y136.423 E16.32913
G1 X73.057 Y135.309 E16.36638
G1 X73.027 Y134.735 E16.3855
G1 X73.012 Y134.159 E16.40466
G1 X73.019 Y86.045 E18.00494
G1 X73.02 Y85.889 E18.01013
G1 X73.03 Y85.191 E18.03335
G1 X73.084 Y84.255 E18.06453
G1 X73.201 Y83.41 E18.0929
G1 X73.237 Y83.209 E18.0997
G1 X73.442 Y82.293 E18.13092
G1 X73.668 Y81.556 E18.15656
G1 X73.763 Y81.281 E18.16623
G1 X74.186 Y80.235 E18.20376
G1 X74.405 Y79.764 E18.22104
G1 X74.836 Y78.931 E18.25223
G1 X75.337 Y78.138 E18.28343
G1 X75.903 Y77.391 E18.3146
G1 X76.531 Y76.694 E18.3458
G0 F6000 X76.864 Y76.926
G1 F1200 X77.541 Y76.303 E18.3764
G1 X78.269 Y75.74 E18.40701
G1 X79.044 Y75.242 E18.43765
G1 X79.765 Y74.859 E18.46481
G1 X80.309 Y74.596 E18.4849
G1 X81.155 Y74.231 E18.51555
G1 X82.023 Y73.943 E18.54597
G1 X82.241 Y73.881 E18.55351
G1 X83.135 Y73.669 E18.58406
G1 X83.41 Y73.616 E18.59338
G1 X84.321 Y73.481 E18.62401
G1 X85.253 Y73.425 E18.65507
G1 X86.031 Y73.413 E18.68094
G1 X86.194 Y73.412 E18.68637
G1 X133.846 Y73.412 E20.27128
G1 X134.002 Y73.413 E20.27647
G1 X134.683 Y73.423 E20.29912
G1 X135.623 Y73.479 E20.33044
G1 X135.873 Y73.505 E20.3388
G1 X136.784 Y73.64 E20.36943
G1 X137.717 Y73.864 E20.40134
G1 X137.956 Y73.933 E20.40962
G1 X138.829 Y74.226 E20.44025
G1 X139.296 Y74.419 E20.45705
G1 X139.688 Y74.592 E20.4713
G1 X139.95 Y74.712 E20.48089
G1 X140.144 Y74.804 E20.48803
G1 X140.958 Y75.235 E20.51866
G1 X141.731 Y75.734 E20.54927
G1 X142.459 Y76.298 E20.5799
G1 X143.134 Y76.924 E20.61051
G1 X143.753 Y77.606 E20.64115
G1 X144.31 Y78.338 E20.67174
G1 X144.802 Y79.117 E20.70239
G1 X145.163 Y79.805 E20.72823
G1 X145.422 Y80.346 E20.74818
G1 X145.783 Y81.193 E20.7788
G1 X145.964 Y81.714 E20.79714
G1 X146.045 Y81.969 E20.80604
G1 X146.285 Y82.858 E20.83667
G1 X146.417 Y83.552 E20.86017
G1 X146.451 Y83.771 E20.86754
G1 X146.552 Y84.686 E20.89816
G1 X146.575 Y85.226 E20.91613
G1 X146.587 Y85.971 E20.94091
G1 X146.588 Y86.144 E20.94667
G1 X146.581 Y133.938 E22.5363
G1 X146.58 Y134.076 E22.54089
G1 X146.571 Y134.758 E22.56358
G1 X146.519 Y135.677 E22.59419
G1 X146.447 Y136.24 E22.61307
G1 X146.412 Y136.466 E22.62068
G1 X146.232 Y137.369 E22.6513
G1 X145.916 Y138.419 E22.68777
G1 X145.782 Y138.793 E22.70099
G1 X145.395 Y139.73 E22.73471
G1 X145.22 Y140.102 E22.74838
G1 X144.792 Y140.917 E22.779
G1 X144.295 Y141.693 E22.80965
G1 X143.733 Y142.422 E22.84026
G1 X143.11 Y143.099 E22.87086
G1 X142.43 Y143.72 E22.90149
G1 X141.699 Y144.28 E22.93212
G1 X140.922 Y144.773 E22.96272
G1 X140.292 Y145.109 E22.98647
G1 X139.745 Y145.377 E23.00673
G1 X138.901 Y145.746 E23.03737
G1 X138.029 Y146.04 E23.06798
G1 X137.516 Y146.175 E23.08562
G1 X137.016 Y146.293 E23.10271
G1 X136.111 Y146.465 E23.13335
G1 X134.969 Y146.569 E23.17149
G1 X134.696 Y146.579 E23.18057
G1 X134.307 Y146.586 E23.19351
G1 X86.049 Y146.581 E24.79858
G1 X85.896 Y146.58 E24.80367
G1 X85.208 Y146.57 E24.82655
G1 X84.289 Y146.517 E24.85717
G1 X83.595 Y146.423 E24.88046
G1 X83.388 Y146.388 E24.88745
G1 X82.488 Y146.195 E24.91806
G1 X81.577 Y145.914 E24.94977
G1 X81.234 Y145.791 E24.96189
G1 X80.289 Y145.4 E24.9959
G1 X79.882 Y145.208 E25.01087
G1 X79.068 Y144.779 E25.04148
G1 X78.293 Y144.282 E25.0721
G1 X77.565 Y143.719 E25.10271
G1 X76.888 Y143.094 E25.13335
G1 X76.268 Y142.414 E25.16396
G1 X75.709 Y141.682 E25.19459
G1 X75.216 Y140.905 E25.2252
G1 X74.961 Y140.434 E25.24301
G1 X74.828 Y140.173 E25.25276
G1 X74.608 Y139.715 E25.26966
G1 X74.439 Y139.34 E25.28334
G1 X74.098 Y138.485 E25.31395
G1 X73.805 Y137.498 E25.3482
G1 X73.744 Y137.248 E25.35675
G1 X73.565 Y136.345 E25.38737
G1 X73.456 Y135.288 E25.42271
G1 X73.426 Y134.714 E25.44183
G1 X73.412 Y134.159 E25.4603
G1 X73.419 Y86.045 E27.06058
G1 X73.42 Y85.895 E27.06556
G1 X73.43 Y85.197 E27.08878
G1 X73.483 Y84.278 E27.1194
G1 X73.595 Y83.48 E27.1462
G1 X73.631 Y83.279 E27.15299
G1 X73.833 Y82.381 E27.18361
G1 X74.046 Y81.687 E27.20775
G1 X74.141 Y81.412 E27.21743
G1 X74.548 Y80.404 E27.25358
G1 X74.767 Y79.933 E27.27086
G1 X75.191 Y79.116 E27.30148
G1 X75.685 Y78.338 E27.33213
G1 X76.244 Y77.607 E27.36274
G1 X76.864 Y76.926 E27.39337
G0 F6000 X77.196 Y77.16
G1 F1200 X77.865 Y76.553 E27.42341
G1 X78.585 Y76.008 E27.45345
G1 X79.35 Y75.528 E27.48348
G1 X79.939 Y75.219 E27.50561
G1 X80.483 Y74.956 E27.5257
G1 X81.313 Y74.599 E27.55575
G1 X82.133 Y74.328 E27.58448
G1 X82.351 Y74.266 E27.59202
G1 X83.211 Y74.061 E27.62142
G1 X83.486 Y74.008 E27.63074
G1 X84.379 Y73.877 E27.66076
G1 X85.259 Y73.825 E27.69008
G1 X86.037 Y73.813 E27.71596
G1 X86.194 Y73.812 E27.72118
G1 X133.846 Y73.812 E29.30609
G1 X133.996 Y73.813 E29.31108
G1 X134.677 Y73.823 E29.33373
G1 X135.582 Y73.877 E29.36388
G1 X135.832 Y73.903 E29.37224
G1 X136.725 Y74.036 E29.40227
G1 X137.606 Y74.248 E29.43241
G1 X137.845 Y74.317 E29.44069
G1 X138.701 Y74.606 E29.47074
G1 X139.134 Y74.785 E29.48632
G1 X139.526 Y74.958 E29.50057
G1 X139.779 Y75.074 E29.50983
G1 X139.973 Y75.166 E29.51697
G1 X140.771 Y75.589 E29.54701
G1 X141.528 Y76.08 E29.57702
G1 X142.239 Y76.637 E29.60706
G1 X142.898 Y77.254 E29.63709
G1 X143.5 Y77.928 E29.66714
G1 X144.04 Y78.652 E29.69718
G1 X144.514 Y79.42 E29.7272
G1 X144.802 Y79.978 E29.74809
G1 X145.061 Y80.519 E29.76804
G1 X145.415 Y81.35 E29.79808
G1 X145.582 Y81.835 E29.81514
G1 X145.663 Y82.09 E29.82404
G1 X145.898 Y82.962 E29.85408
G1 X146.021 Y83.613 E29.87611
G1 X146.055 Y83.832 E29.88348
G1 X146.154 Y84.73 E29.91353
G1 X146.175 Y85.233 E29.93027
G1 X146.187 Y85.978 E29.95506
G1 X146.188 Y86.143 E29.96054
G1 X146.181 Y133.937 E31.55018
G1 X146.18 Y134.071 E31.55464
G1 X146.171 Y134.753 E31.57732
G1 X146.119 Y135.654 E31.60734
G1 X146.052 Y136.179 E31.62494
G1 X146.017 Y136.405 E31.63255
G1 X145.839 Y137.291 E31.66261
G1 X145.539 Y138.284 E31.69711
G1 X145.405 Y138.658 E31.71032
G1 X145.033 Y139.56 E31.74277
G1 X144.858 Y139.932 E31.75645
G1 X144.437 Y140.731 E31.78649
G1 X143.948 Y141.49 E31.81652
G1 X143.394 Y142.203 E31.84655
G1 X142.778 Y142.864 E31.8766
G1 X142.107 Y143.468 E31.90663
G1 X141.385 Y144.01 E31.93665
G1 X140.617 Y144.487 E31.96672
G1 X140.116 Y144.75 E31.98554
G1 X139.569 Y145.018 E32.0058
G1 X138.741 Y145.379 E32.03585
G1 X137.884 Y145.665 E32.06589
G1 X137.424 Y145.785 E32.08171
G1 X136.924 Y145.903 E32.09879
G1 X136.037 Y146.072 E32.12883
G1 X134.954 Y146.169 E32.16499
G1 X134.681 Y146.179 E32.17408
G1 X134.307 Y146.186 E32.18652
G1 X86.049 Y146.181 E33.79159
G1 X85.902 Y146.18 E33.79647
G1 X85.214 Y146.17 E33.81936
G1 X84.312 Y146.117 E33.84941
G1 X83.661 Y146.028 E33.87127
G1 X83.454 Y145.993 E33.87825
G1 X82.572 Y145.803 E33.90826
G1 X81.712 Y145.537 E33.9382
G1 X81.369 Y145.414 E33.95032
G1 X80.46 Y145.038 E33.98304
G1 X80.053 Y144.846 E33.998
G1 X79.254 Y144.425 E34.02804
G1 X78.496 Y143.935 E34.05806
G1 X77.783 Y143.38 E34.08811
G1 X77.123 Y142.763 E34.11816
G1 X76.52 Y142.091 E34.14819
G1 X75.978 Y141.369 E34.17822
G1 X75.317 Y140.252 E34.22139
G1 X75.184 Y139.991 E34.23113
G1 X74.973 Y139.551 E34.24736
G1 X74.804 Y139.176 E34.26104
G1 X74.469 Y138.337 E34.29109
G1 X74.194 Y137.403 E34.32347
G1 X74.133 Y137.153 E34.33203
G1 X73.958 Y136.267 E34.36207
G1 X73.856 Y135.267 E34.3955
G1 X73.826 Y134.693 E34.41462
G1 X73.812 Y134.16 E34.43236
G1 X73.819 Y86.046 E36.03263
G1 X73.82 Y85.901 E36.03746
G1 X73.83 Y85.203 E36.06067
G1 X73.883 Y84.301 E36.09073
G1 X73.989 Y83.551 E36.11592
G1 X74.025 Y83.35 E36.12271
G1 X74.223 Y82.469 E36.15274
G1 X74.424 Y81.817 E36.17544
G1 X74.519 Y81.542 E36.18511
G1 X74.911 Y80.572 E36.21991
G1 X75.13 Y80.101 E36.23719
G1 X75.547 Y79.3 E36.26722
G1 X76.032 Y78.539 E36.29724
G1 X76.584 Y77.824 E36.32728
G1 X77.196 Y77.16 E36.35732
G1 F3000 E31.35732
G1 F600 Z0.4
;MESH:square-wafer.stl
G0 F6000 X133.685 Y133.687 Z0.4
;TYPE:WALL-INNER
G1 F600 Z0.2
G1 F3000 E36.35732
G1 F1200 X133.485 Y133.687 E36.36397
G1 X86.313 Y133.685 E37.93291
G1 X86.315 Y86.513 E39.50186
G1 X86.315 Y86.313 E39.50851
G1 X86.515 Y86.313 E39.51282
G1 X133.686 Y86.315 E41.08173
G1 X133.685 Y133.487 E42.65068
G1 X133.685 Y133.687 E42.65499
G1 F3000 E37.65499
G1 F600 Z0.4
G0 F6000 X110.552 Y117.053 Z0.4
G1 F600 Z0.2
G1 F3000 E42.65499
G1 F1200 X110.99 Y117.003 E42.66965
G1 X111.425 Y116.929 E42.68433
G1 X111.861 Y116.825 E42.69924
G1 X112.285 Y116.695 E42.71399
G1 X112.698 Y116.539 E42.72867
G1 X113.106 Y116.358 E42.74351
G1 X113.5 Y116.148 E42.75836
G1 X113.88 Y115.915 E42.77319
G1 X114.242 Y115.66 E42.78792
G1 X114.588 Y115.385 E42.80262
G1 X114.919 Y115.084 E42.8175
G1 X115.225 Y114.767 E42.83215
G1 X115.516 Y114.432 E42.84691
G1 X115.787 Y114.072 E42.8619
G1 X116.028 Y113.704 E42.87653
G1 X116.251 Y113.316 E42.89141
G1 X116.446 Y112.914 E42.90627
G1 X116.614 Y112.506 E42.92095
G1 X116.758 Y112.088 E42.93565
G1 X116.877 Y111.66 E42.95043
G1 X116.968 Y111.225 E42.96521
G1 X117.032 Y110.782 E42.9801
G1 X117.067 Y110.34 E42.99485
G1 X117.073 Y109.895 E43.00965
G1 X117.053 Y109.448 E43.02453
G1 X117.003 Y109.01 E43.03919
G1 X116.929 Y108.575 E43.05387
G1 X116.825 Y108.139 E43.06878
