;FLAVOR:Marlin
;TIME:2513
;Filament used: 1.67517m
;Layer height: 0.2
;MINX:96.902
;MINY:96.902
;MINZ:0.2
;MAXX:138.098
;MAXY:138.098
;MAXZ:20.16
;Generated with Cura_SteamEngine 4.12.1
M140 S75
M105
M190 S75
M104 S200
M105
M109 S200
M82 ;absolute extrusion mode
G92 E0 ; reset extruder G1 Z1.0 F3000 ; move z up little to prevent scratching of surface
G1 X0.1 Y20 Z0.3 F5000.0 ; move to start-line position
G1 X0.1 Y200.0 Z0.3 F1500.0 E15 ; draw 1st line
G1 X0.4 Y200.0 Z0.3 F5000.0 ; move to side a little
G1 X0.4 Y20 Z0.3 F1500.0 E30 ; draw 2nd line
G92 E0 ; reset extruder
G92 E0
G92 E0
G1 F3000 E-5
;LAYER_COUNT:103
;LAYER:0
M107
G1 F300 Z0.4
G0 F6000 X100.549 Y100.441 Z0.4
;TYPE:SKIRT
G1 F300 Z0.2
G1 F3000 E0
G1 F1200 X101.446 Y99.651 E0.03976
G1 X101.635 Y99.502 E0.04776
G1 X102.395 Y98.953 E0.07894
G1 X103.344 Y98.394 E0.11558
G1 X103.558 Y98.282 E0.12361
G1 X103.938 Y98.093 E0.13773
G1 X104.18 Y97.978 E0.14664
G1 X105.043 Y97.612 E0.17781
G1 X105.935 Y97.32 E0.20903
G1 X106.524 Y97.173 E0.22922
G1 X107.447 Y97.009 E0.2604
G1 X108.599 Y96.915 E0.29885
G1 X108.917 Y96.906 E0.30943
G1 X109.228 Y96.902 E0.31977
G1 X125.395 Y96.902 E0.85749
G1 X126.255 Y96.913 E0.88609
G1 X127.192 Y96.966 E0.91731
G1 X128.12 Y97.099 E0.94849
G1 X129.034 Y97.311 E0.9797
G1 X129.926 Y97.599 E1.01087
G1 X130.788 Y97.962 E1.04198
G1 X131.105 Y98.114 E1.05367
G1 X131.445 Y98.284 E1.06632
G1 X132.587 Y98.943 E1.11017
G1 X132.69 Y99.011 E1.11428
G1 X133.449 Y99.561 E1.14545
G1 X134.384 Y100.39 E1.18701
G1 X134.551 Y100.556 E1.19484
G1 X135.187 Y101.244 E1.22601
G1 X135.88 Y102.153 E1.26402
G1 X135.964 Y102.276 E1.26898
G1 X136.663 Y103.452 E1.31448
G1 X136.885 Y103.891 E1.33084
G1 X136.999 Y104.128 E1.33959
G1 X137.369 Y104.99 E1.37079
G1 X137.664 Y105.88 E1.40197
G1 X137.826 Y106.519 E1.4239
G1 X137.99 Y107.442 E1.45508
G1 X138.082 Y108.549 E1.49203
G1 X138.092 Y108.858 E1.50231
G1 X138.098 Y109.213 E1.51412
G1 X138.098 Y125.509 E2.05613
G1 X138.088 Y126.247 E2.08067
G1 X138.035 Y127.183 E2.11185
G1 X137.903 Y128.112 E2.14306
G1 X137.692 Y129.026 E2.17426
G1 X137.404 Y129.918 E2.20544
G1 X136.946 Y130.981 E2.24394
G1 X136.733 Y131.411 E2.2599
G1 X136.281 Y132.233 E2.2911
G1 X135.721 Y133.068 E2.32454
G1 X135.582 Y133.256 E2.33231
G1 X134.993 Y133.985 E2.36349
G1 X134.344 Y134.662 E2.39468
G1 X133.562 Y135.342 E2.42915
G1 X133.38 Y135.486 E2.43686
G1 X132.621 Y136.036 E2.46804
G1 X131.682 Y136.592 E2.50434
G1 X131.477 Y136.7 E2.51204
G1 X131.078 Y136.9 E2.52689
G1 X130.828 Y137.019 E2.5361
G1 X129.964 Y137.386 E2.56732
G1 X129.073 Y137.678 E2.5985
G1 X128.247 Y137.875 E2.62675
G1 X127.321 Y138.02 E2.65792
G1 X126.418 Y138.084 E2.68803
G1 X126.116 Y138.093 E2.69808
G1 X125.789 Y138.098 E2.70896
G1 X109.453 Y138.098 E3.25229
G1 X108.745 Y138.088 E3.27584
G1 X107.808 Y138.035 E3.30706
G1 X106.88 Y137.902 E3.33824
G1 X105.966 Y137.691 E3.36944
G1 X105.074 Y137.402 E3.40063
G1 X103.972 Y136.923 E3.44059
G1 X103.525 Y136.699 E3.45722
G1 X102.705 Y136.244 E3.48841
G1 X101.765 Y135.599 E3.52633
G1 X101.59 Y135.465 E3.53366
G1 X100.871 Y134.863 E3.56485
G1 X100.205 Y134.203 E3.59603
G1 X99.593 Y133.481 E3.62751
G1 X99.45 Y133.297 E3.63526
G1 X98.906 Y132.533 E3.66646
G1 X98.357 Y131.587 E3.70284
G1 X98.24 Y131.36 E3.71133
G1 X98.091 Y131.06 E3.72247
G1 X97.985 Y130.838 E3.73066
G1 X97.618 Y129.975 E3.76185
G1 X97.325 Y129.084 E3.79304
G1 X97.109 Y128.171 E3.82425
G1 X96.972 Y127.243 E3.85545
G1 X96.917 Y126.435 E3.88238
G1 X96.907 Y126.109 E3.89323
G1 X96.902 Y125.772 E3.90444
G1 X96.903 Y109.449 E4.44735
G1 X96.913 Y108.745 E4.47076
G1 X96.966 Y107.808 E4.50198
G1 X97.099 Y106.88 E4.53316
G1 X97.311 Y105.966 E4.56437
G1 X97.599 Y105.074 E4.59554
G1 X97.979 Y104.175 E4.628
G1 X98.128 Y103.867 E4.63938
G1 X98.292 Y103.54 E4.65155
G1 X98.748 Y102.72 E4.68276
G1 X99.197 Y102.045 E4.70972
G1 X99.328 Y101.863 E4.71718
G1 X99.908 Y101.126 E4.74837
G1 X100.549 Y100.441 E4.77958
G0 F6000 X100.853 Y100.702
G1 F1200 X101.693 Y99.965 E4.81674
G1 X101.882 Y99.816 E4.82475
G1 X102.63 Y99.278 E4.85539
G1 X103.53 Y98.748 E4.89013
G1 X103.744 Y98.636 E4.89817
G1 X104.109 Y98.454 E4.91173
G1 X104.351 Y98.339 E4.92064
G1 X105.199 Y97.98 E4.95127
G1 X106.075 Y97.697 E4.98189
G1 X106.611 Y97.563 E5.00027
G1 X107.517 Y97.403 E5.03087
G1 X108.61 Y97.315 E5.06734
G1 X108.928 Y97.306 E5.07792
G1 X109.228 Y97.302 E5.0879
G1 X125.395 Y97.302 E5.62561
G1 X126.25 Y97.313 E5.65405
G1 X127.169 Y97.366 E5.68467
G1 X128.08 Y97.499 E5.71529
G1 X128.976 Y97.71 E5.74591
G1 X129.85 Y97.998 E5.77651
G1 X130.618 Y98.323 E5.80425
G1 X130.926 Y98.472 E5.81563
G1 X131.266 Y98.642 E5.82827
G1 X132.366 Y99.277 E5.87052
G1 X132.469 Y99.345 E5.87462
G1 X133.215 Y99.885 E5.90525
G1 X134.102 Y100.673 E5.94472
G1 X134.269 Y100.839 E5.95255
G1 X134.893 Y101.516 E5.98317
G1 X135.549 Y102.379 E6.01923
G1 X135.633 Y102.502 E6.02418
G1 X136.308 Y103.634 E6.06802
G1 X136.4 Y103.813 E6.07471
G1 X136.524 Y104.064 E6.08402
G1 X136.638 Y104.301 E6.09277
G1 X137.001 Y105.147 E6.12339
G1 X137.289 Y106.022 E6.15403
G1 X137.436 Y106.606 E6.17406
G1 X137.596 Y107.512 E6.20466
G1 X137.682 Y108.562 E6.2397
G1 X137.692 Y108.871 E6.24998
G1 X137.698 Y109.213 E6.26135
G1 X137.698 Y125.504 E6.8032
G1 X137.688 Y126.242 E6.82774
G1 X137.636 Y127.161 E6.85836
G1 X137.504 Y128.072 E6.88898
G1 X137.293 Y128.968 E6.91959
G1 X137.005 Y129.843 E6.95023
G1 X136.588 Y130.803 E6.98504
G1 X136.375 Y131.233 E7.001
G1 X135.93 Y132.04 E7.03165
G1 X135.399 Y132.83 E7.06331
G1 X135.26 Y133.018 E7.07109
G1 X134.681 Y133.734 E7.10172
G1 X134.042 Y134.397 E7.13234
G1 X133.314 Y135.029 E7.16441
G1 X133.132 Y135.173 E7.17213
G1 X132.386 Y135.712 E7.20274
G1 X131.496 Y136.238 E7.23712
G1 X131.291 Y136.346 E7.24483
G1 X130.906 Y136.539 E7.25915
G1 X130.656 Y136.658 E7.26836
G1 X129.808 Y137.017 E7.29899
G1 X128.932 Y137.302 E7.32963
G1 X128.169 Y137.483 E7.35571
G1 X127.259 Y137.624 E7.38634
G1 X126.406 Y137.684 E7.41478
G1 X126.104 Y137.693 E7.42483
G1 X125.789 Y137.698 E7.43531
G1 X109.458 Y137.698 E7.97848
G1 X108.75 Y137.688 E8.00203
G1 X107.831 Y137.635 E8.03264
G1 X106.92 Y137.502 E8.06327
G1 X106.024 Y137.291 E8.09388
G1 X105.15 Y137.003 E8.12449
G1 X104.151 Y136.566 E8.16076
G1 X103.704 Y136.342 E8.17739
G1 X102.9 Y135.894 E8.208
G1 X102.009 Y135.281 E8.24397
G1 X101.834 Y135.147 E8.2513
G1 X101.128 Y134.556 E8.28192
G1 X100.476 Y133.906 E8.31254
G1 X99.908 Y133.236 E8.34176
G1 X99.765 Y133.052 E8.34951
G1 X99.233 Y132.301 E8.38012
G1 X98.713 Y131.403 E8.41463
G1 X98.596 Y131.176 E8.42313
G1 X98.452 Y130.887 E8.43387
G1 X98.346 Y130.665 E8.44205
G1 X97.986 Y129.818 E8.47266
G1 X97.701 Y128.943 E8.50327
G1 X97.493 Y128.046 E8.53389
G1 X97.363 Y127.135 E8.5645
G1 X97.317 Y126.423 E8.58823
G1 X97.307 Y126.097 E8.59908
G1 X97.302 Y125.772 E8.60989
G1 X97.303 Y109.454 E9.15263
G1 X97.313 Y108.75 E9.17605
G1 X97.366 Y107.831 E9.20666
G1 X97.499 Y106.92 E9.23728
G1 X97.71 Y106.024 E9.2679
G1 X97.998 Y105.15 E9.29851
G1 X98.34 Y104.347 E9.32754
G1 X98.486 Y104.046 E9.33866
G1 X98.65 Y103.719 E9.35083
G1 X99.098 Y102.915 E9.38144
G1 X99.522 Y102.279 E9.40687
G1 X99.653 Y102.097 E9.41432
G1 X100.223 Y101.373 E9.44497
G1 X100.853 Y100.702 E9.47558
G0 F6000 X101.157 Y100.965
G1 F1200 X101.941 Y100.279 E9.51023
G1 X102.13 Y100.13 E9.51824
G1 X102.863 Y99.603 E9.54826
G1 X103.715 Y99.103 E9.58112
G1 X103.929 Y98.991 E9.58916
G1 X104.281 Y98.815 E9.60224
G1 X104.523 Y98.7 E9.61116
G1 X105.355 Y98.349 E9.64119
G1 X106.215 Y98.073 E9.67123
G1 X106.697 Y97.954 E9.68774
G1 X107.587 Y97.797 E9.7178
G1 X108.621 Y97.715 E9.7523
G1 X108.939 Y97.706 E9.76288
G1 X109.228 Y97.702 E9.7725
G1 X125.395 Y97.702 E10.31021
G1 X126.244 Y97.713 E10.33845
G1 X127.145 Y97.766 E10.36847
G1 X128.039 Y97.898 E10.39853
G1 X128.917 Y98.109 E10.42856
G1 X129.773 Y98.397 E10.4586
G1 X130.447 Y98.685 E10.48298
G1 X130.748 Y98.83 E10.49409
G1 X131.088 Y99 E10.50673
G1 X132.146 Y99.611 E10.54737
G1 X132.249 Y99.679 E10.55148
G1 X132.98 Y100.209 E10.58151
G1 X133.82 Y100.957 E10.61892
G1 X133.987 Y101.123 E10.62675
G1 X134.598 Y101.787 E10.65676
G1 X135.219 Y102.605 E10.69092
G1 X135.303 Y102.728 E10.69587
G1 X135.952 Y103.817 E10.73804
G1 X136.044 Y103.996 E10.74473
G1 X136.164 Y104.238 E10.75372
G1 X136.278 Y104.475 E10.76246
G1 X136.633 Y105.305 E10.79249
G1 X136.913 Y106.163 E10.82251
G1 X137.045 Y106.692 E10.84064
G1 X137.202 Y107.582 E10.8707
G1 X137.283 Y108.575 E10.90384
G1 X137.293 Y108.884 E10.91412
G1 X137.298 Y109.213 E10.92506
G1 X137.298 Y125.498 E11.4667
G1 X137.288 Y126.236 E11.49125
G1 X137.236 Y127.138 E11.5213
G1 X137.104 Y128.031 E11.55133
G1 X136.894 Y128.91 E11.58138
G1 X136.607 Y129.766 E11.61141
G1 X136.229 Y130.626 E11.64266
G1 X136.016 Y131.056 E11.65862
G1 X135.58 Y131.846 E11.68863
G1 X135.078 Y132.592 E11.71854
G1 X134.939 Y132.78 E11.72631
G1 X134.37 Y133.482 E11.75637
G1 X133.742 Y134.13 E11.78638
G1 X133.066 Y134.715 E11.81612
G1 X132.884 Y134.859 E11.82383
G1 X132.152 Y135.388 E11.85387
G1 X131.309 Y135.884 E11.8864
G1 X131.104 Y135.992 E11.89411
G1 X130.734 Y136.178 E11.90788
G1 X130.484 Y136.297 E11.91709
G1 X129.652 Y136.649 E11.94714
G1 X128.792 Y136.925 E11.97718
G1 X128.09 Y137.091 E12.00117
G1 X127.198 Y137.229 E12.0312
G1 X126.394 Y137.284 E12.058
G1 X126.092 Y137.293 E12.06805
G1 X125.789 Y137.298 E12.07813
G1 X109.464 Y137.298 E12.6211
G1 X108.756 Y137.288 E12.64465
G1 X107.854 Y137.235 E12.6747
G1 X106.961 Y137.103 E12.70473
G1 X106.083 Y136.892 E12.73476
G1 X105.227 Y136.605 E12.76479
G1 X104.33 Y136.208 E12.79741
G1 X103.883 Y135.984 E12.81404
G1 X103.095 Y135.544 E12.84406
G1 X102.252 Y134.964 E12.87809
G1 X102.077 Y134.83 E12.88543
G1 X101.385 Y134.249 E12.91548
G1 X100.747 Y133.61 E12.94551
G1 X100.224 Y132.99 E12.97249
G1 X100.081 Y132.806 E12.98024
G1 X99.559 Y132.069 E13.01028
G1 X99.068 Y131.22 E13.0429
G1 X98.951 Y130.993 E13.05139
G1 X98.813 Y130.715 E13.06172
G1 X98.707 Y130.493 E13.0699
G1 X98.355 Y129.662 E13.09991
G1 X98.077 Y128.802 E13.12998
G1 X97.876 Y127.922 E13.16
G1 X97.754 Y127.027 E13.19004
G1 X97.717 Y126.411 E13.21057
G1 X97.707 Y126.085 E13.22141
G1 X97.702 Y125.772 E13.23183
G1 X97.703 Y109.46 E13.77437
G1 X97.713 Y108.756 E13.79778
G1 X97.766 Y107.855 E13.8278
G1 X97.898 Y106.961 E13.85786
G1 X98.109 Y106.083 E13.88789
G1 X98.397 Y105.227 E13.91793
G1 X98.701 Y104.519 E13.94356
G1 X98.843 Y104.225 E13.95442
G1 X99.007 Y103.898 E13.96659
G1 X99.448 Y103.11 E13.99662
G1 X99.846 Y102.512 E14.02051
G1 X99.977 Y102.33 E14.02797
G1 X100.537 Y101.621 E14.05802
G1 X101.157 Y100.965 E14.08804
G1 F3000 E9.08804
G1 F300 Z0.4
;MESH:CountingBlocks-1.stl
G0 F6000 X125.637 Y125.634 Z0.4
;TYPE:WALL-INNER
G1 F300 Z0.2
G1 F3000 E14.08804
G1 F1200 X124.933 Y125.698 E14.11155
G1 X110.008 Y125.699 E14.60796
G1 X109.366 Y125.637 E14.62941
G1 X109.302 Y124.933 E14.65292
G1 X109.302 Y109.998 E15.14966
G1 X109.363 Y109.366 E15.17078
G1 X110.067 Y109.302 E15.19429
G1 X125.002 Y109.302 E15.69103
G1 X125.634 Y109.363 E15.71215
G1 X125.698 Y110.074 E15.7359
G1 X125.699 Y124.992 E16.23207
G1 X125.637 Y125.634 E16.25352
G0 F6000 X126.003 Y126.002
G1 F1200 X125.102 Y126.084 E16.28361
G1 X125.102 Y126.098 E16.28408
G1 X109.898 Y126.099 E16.78977
G1 X109.898 Y126.09 E16.79007
G1 X108.998 Y126.003 E16.82014
G1 X108.916 Y125.102 E16.85023
G1 X108.902 Y125.102 E16.8507
G1 X108.902 Y109.898 E17.35638
G1 X108.91 Y109.898 E17.35665
G1 X108.997 Y108.998 E17.38672
G1 X109.898 Y108.916 E17.41682
G1 X109.898 Y108.902 E17.41728
G1 X125.102 Y108.902 E17.92297
G1 X125.102 Y108.91 E17.92323
G1 X126.003 Y108.997 E17.95334
G1 X126.084 Y109.898 E17.98343
G1 X126.098 Y109.898 E17.98389
G1 X126.099 Y125.102 E18.48958
G1 X126.09 Y125.102 E18.48988
G1 X126.003 Y126.002 E18.51995
G0 F6000 X125.502 Y126.498
G1 F1200 X109.498 Y126.499 E19.05225
G1 X109.498 Y126.453 E19.05378
G1 X108.868 Y126.392 E19.07483
G1 X108.679 Y126.288 E19.08201
G1 X108.61 Y126.152 E19.08708
G1 X108.551 Y125.502 E19.10879
G1 X108.502 Y125.502 E19.11042
G1 X108.502 Y109.498 E19.64271
G1 X108.547 Y109.498 E19.64421
G1 X108.608 Y108.868 E19.66526
G1 X108.712 Y108.679 E19.67244
G1 X108.848 Y108.61 E19.67751
G1 X109.498 Y108.551 E19.69922
G1 X109.498 Y108.502 E19.70085
G1 X125.502 Y108.502 E20.23314
G1 X125.502 Y108.547 E20.23464
G1 X126.132 Y108.608 E20.25569
G1 X126.323 Y108.719 E20.26304
G1 X126.393 Y108.878 E20.26881
G1 X126.449 Y109.498 E20.28952
G1 X126.498 Y109.498 E20.29115
G1 X126.499 Y125.502 E20.82345
G1 X126.453 Y125.502 E20.82498
G1 X126.392 Y126.132 E20.84603
G1 X126.288 Y126.321 E20.8532
G1 X126.152 Y126.39 E20.85827
G1 X125.502 Y126.449 E20.87998
G1 X125.502 Y126.498 E20.88161
G0 F6000 X125.902 Y126.898
;TYPE:WALL-OUTER
G1 F1200 X109.098 Y126.899 E21.44052
G1 X109.098 Y126.816 E21.44328
G1 X108.777 Y126.785 E21.454
G1 X108.548 Y126.7 E21.46213
G1 X108.366 Y126.548 E21.47001
G1 X108.245 Y126.338 E21.47807
G1 X108.215 Y126.223 E21.48203
G1 X108.186 Y125.902 E21.49275
G1 X108.102 Y125.902 E21.49554
G1 X108.102 Y109.098 E22.05444
G1 X108.184 Y109.098 E22.05717
G1 X108.215 Y108.777 E22.0679
G1 X108.3 Y108.548 E22.07602
G1 X108.452 Y108.366 E22.08391
G1 X108.662 Y108.245 E22.09197
G1 X108.777 Y108.215 E22.09592
G1 X109.098 Y108.186 E22.10664
G1 X109.098 Y108.102 E22.10944
G1 X125.902 Y108.102 E22.66834
G1 X125.902 Y108.184 E22.67107
G1 X126.223 Y108.215 E22.68179
G1 X126.452 Y108.3 E22.68992
G1 X126.654 Y108.478 E22.69887
G1 X126.785 Y108.777 E22.70973
G1 X126.814 Y109.098 E22.72045
G1 X126.898 Y109.098 E22.72324
G1 X126.899 Y125.902 E23.28215
G1 X126.816 Y125.902 E23.28491
G1 X126.785 Y126.223 E23.29563
G1 X126.7 Y126.452 E23.30376
G1 X126.548 Y126.634 E23.31165
G1 X126.338 Y126.755 E23.31971
G1 X126.223 Y126.785 E23.32366
G1 X125.902 Y126.814 E23.33438
G1 X125.902 Y126.898 E23.33717
G0 F6000 X125.702 Y126.898
G1 F3000 E18.33717
G1 F300 Z0.4
G0 F6000 X117.699 Y117.698 Z0.4
;TYPE:SKIN
G1 F300 Z0.2
G1 F3000 E23.33717
G1 F1200 X117.302 Y117.699 E23.35038
G1 X117.302 Y117.302 E23.36358
G1 X117.698 Y117.302 E23.37675
G1 X117.699 Y117.698 E23.38992
G0 F6000 X118.099 Y118.098
G1 F1200 X116.902 Y118.099 E23.42974
G1 X116.902 Y116.902 E23.46955
G1 X118.098 Y116.902 E23.50933
G1 X118.099 Y118.098 E23.54911
G0 F6000 X118.499 Y118.498
G1 F1200 X116.502 Y118.499 E23.61553
G1 X116.502 Y116.502 E23.68195
G1 X118.498 Y116.502 E23.74833
G1 X118.499 Y118.498 E23.81472
G0 F6000 X118.899 Y118.898
G1 F1200 X116.102 Y118.899 E23.90775
G1 X116.102 Y116.102 E24.00078
G1 X118.898 Y116.102 E24.09377
G1 X118.899 Y118.898 E24.18677
G0 F6000 X119.299 Y119.298
G1 F1200 X115.702 Y119.299 E24.30641
G1 X115.702 Y115.702 E24.42604
G1 X119.298 Y115.702 E24.54565
G1 X119.299 Y119.298 E24.66525
G0 F6000 X119.699 Y119.698
G1 F1200 X115.302 Y119.699 E24.8115
G1 X115.302 Y115.302 E24.95774
G1 X119.698 Y115.302 E25.10395
G1 X119.699 Y119.698 E25.25016
G0 F6000 X120.099 Y120.098
G1 F1200 X114.902 Y120.099 E25.42302
G1 X114.902 Y114.902 E25.59587
G1 X120.098 Y114.902 E25.76869
G1 X120.099 Y120.098 E25.94151
G0 F6000 X120.499 Y120.498
G1 F1200 X114.502 Y120.499 E26.14097
G1 X114.502 Y114.502 E26.34043
G1 X120.498 Y114.502 E26.53986
G1 X120.499 Y120.498 E26.73929
G0 F6000 X120.899 Y120.898
G1 F1200 X114.102 Y120.899 E26.96536
G1 X114.102 Y114.102 E27.19142
G1 X120.898 Y114.102 E27.41746
G1 X120.899 Y120.898 E27.6435
G0 F6000 X121.299 Y121.298
G1 F1200 X113.702 Y121.299 E27.89617
G1 X113.702 Y113.702 E28.14885
G1 X121.298 Y113.702 E28.40149
G1 X121.299 Y121.298 E28.65414
G0 F6000 X121.699 Y121.698
G1 F1200 X113.302 Y121.699 E28.93342
G1 X113.302 Y113.302 E29.21271
G1 X121.698 Y113.302 E29.49196
G1 X121.699 Y121.698 E29.77121
G0 F6000 X122.099 Y122.098
G1 F1200 X112.902 Y122.099 E30.07711
G1 X112.902 Y112.902 E30.383
G1 X122.098 Y112.902 E30.68886
G1 X122.099 Y122.098 E30.99472
G0 F6000 X122.499 Y122.498
G1 F1200 X112.502 Y122.499 E31.32722
G1 X112.502 Y112.502 E31.65972
G1 X122.498 Y112.502 E31.99219
G1 X122.499 Y122.498 E32.32466
G0 F6000 X122.899 Y122.898
G1 F1200 X112.102 Y122.899 E32.68377
G1 X112.102 Y112.102 E33.04288
G1 X122.898 Y112.102 E33.40196
G1 X122.899 Y122.898 E33.76103
