;FLAVOR:Marlin
;TIME:4735
;Filament used: 3.14026m
;Layer height: 0.2
;MINX:96.667
;MINY:96.667
;MINZ:0.2
;MAXX:138.333
;MAXY:138.333
;MAXZ:40.16
;Generated with Cura_SteamEngine 4.2.1
M140 S75
M105
M190 S75
M104 S200
M105
M109 S200
M82 ;absolute extrusion mode
G92 E0 ; reset extruder G1 Z1.0 F3000 ; move z up little to prevent scratching of surface
G1 X0.1 Y20 Z0.3 F5000.0 ; move to start-line position
G1 X0.1 Y200.0 Z0.3 F1500.0 E15 ; draw 1st line
G1 X0.4 Y200.0 Z0.3 F5000.0 ; move to side a little
G1 X0.4 Y20 Z0.3 F1500.0 E30 ; draw 2nd line
G92 E0 ; reset extruder
M141 S28
G92 E0
G92 E0
G1 F3000 E-5
;LAYER_COUNT:201
;LAYER:0
M107
G0 F6000 X100.281 Y100.146 Z0.2
;TYPE:SKIRT
G1 F3000 E0
G1 F1200 X100.991 Y99.507 E0.03177
G1 X101.462 Y99.137 E0.05169
G1 X101.703 Y98.958 E0.06168
G1 X102.492 Y98.421 E0.09342
G1 X103.324 Y97.953 E0.12517
G1 X104.192 Y97.555 E0.15693
G1 X105.09 Y97.232 E0.18867
G1 X106.013 Y96.985 E0.22045
G1 X106.952 Y96.816 E0.25218
G1 X108.018 Y96.72 E0.28778
G1 X109.011 Y96.678 E0.32084
G1 X109.488 Y96.668 E0.33671
G1 X111.692 Y96.667 E0.41001
G1 X111.698 Y96.667 E0.41021
G1 X125.729 Y96.668 E0.87689
G1 X125.895 Y96.669 E0.88241
G1 X126.579 Y96.679 E0.90516
G1 X127.532 Y96.733 E0.93691
G1 X128.477 Y96.867 E0.96865
G1 X129.408 Y97.079 E1.00041
G1 X130.318 Y97.368 E1.03217
G1 X131.201 Y97.733 E1.06395
G1 X132.325 Y98.331 E1.10629
G1 X132.625 Y98.513 E1.11796
G1 X133.42 Y99.042 E1.14972
G1 X134.168 Y99.636 E1.18149
G1 X134.863 Y100.29 E1.21323
G1 X135.287 Y100.748 E1.23399
G1 X135.393 Y100.869 E1.23934
G1 X135.992 Y101.613 E1.27111
G1 X136.526 Y102.404 E1.30285
G1 X137.055 Y103.366 E1.33937
G1 X137.152 Y103.564 E1.3467
G1 X137.536 Y104.438 E1.37845
G1 X137.846 Y105.341 E1.41021
G1 X138.078 Y106.267 E1.44196
G1 X138.232 Y107.209 E1.4737
G1 X138.313 Y108.358 E1.51202
G1 X138.33 Y109.235 E1.54119
G1 X138.332 Y109.451 E1.54837
G1 X138.333 Y111.66 E1.62185
G1 X138.333 Y111.666 E1.62205
G1 X138.332 Y125.704 E2.08895
G1 X138.331 Y125.864 E2.09427
G1 X138.321 Y126.573 E2.11786
G1 X138.267 Y127.526 E2.1496
G1 X138.134 Y128.472 E2.18138
G1 X137.923 Y129.403 E2.21313
G1 X137.634 Y130.313 E2.24489
G1 X137.27 Y131.195 E2.27662
G1 X136.663 Y132.334 E2.31955
G1 X136.48 Y132.635 E2.33126
G1 X135.95 Y133.43 E2.36304
G1 X135.356 Y134.177 E2.39479
G1 X134.701 Y134.872 E2.42655
G1 X134.246 Y135.292 E2.44715
G1 X134.126 Y135.397 E2.45245
G1 X133.382 Y135.995 E2.4842
G1 X132.59 Y136.529 E2.51597
G1 X131.634 Y137.055 E2.55226
G1 X131.436 Y137.152 E2.55959
G1 X130.562 Y137.536 E2.59134
G1 X129.659 Y137.846 E2.6231
G1 X128.733 Y138.078 E2.65485
G1 X127.791 Y138.232 E2.6866
G1 X126.633 Y138.313 E2.7252
G1 X125.719 Y138.33 E2.75561
G1 X125.512 Y138.332 E2.7625
G1 X123.308 Y138.333 E2.8358
G1 X123.302 Y138.333 E2.836
G1 X109.271 Y138.332 E3.30267
G1 X109.105 Y138.331 E3.30819
G1 X108.421 Y138.321 E3.33095
G1 X107.468 Y138.267 E3.36269
G1 X106.523 Y138.133 E3.39444
G1 X105.592 Y137.921 E3.4262
G1 X104.682 Y137.632 E3.45795
G1 X103.799 Y137.267 E3.48973
G1 X102.684 Y136.674 E3.53174
G1 X102.385 Y136.493 E3.54336
G1 X101.59 Y135.965 E3.5751
G1 X100.842 Y135.372 E3.60685
G1 X100.146 Y134.719 E3.63859
G1 X99.507 Y134.009 E3.67036
G1 X99.142 Y133.545 E3.69
G1 X98.962 Y133.303 E3.70003
G1 X98.425 Y132.513 E3.7318
G1 X97.955 Y131.682 E3.76356
G1 X97.557 Y130.814 E3.79532
G1 X97.233 Y129.916 E3.82707
G1 X96.985 Y128.994 E3.85882
G1 X96.816 Y128.054 E3.89059
G1 X96.719 Y126.97 E3.92679
G1 X96.678 Y125.978 E3.95981
G1 X96.668 Y125.512 E3.97531
G1 X96.667 Y123.34 E4.04755
G1 X96.667 Y123.334 E4.04775
G1 X96.668 Y109.251 E4.51616
G1 X96.669 Y109.08 E4.52184
G1 X96.679 Y108.416 E4.54393
G1 X96.734 Y107.463 E4.57568
G1 X96.868 Y106.518 E4.60743
G1 X97.08 Y105.587 E4.63918
G1 X97.37 Y104.677 E4.67095
G1 X97.735 Y103.795 E4.7027
G1 X98.326 Y102.684 E4.74455
G1 X98.507 Y102.385 E4.75618
G1 X99.035 Y101.59 E4.78792
G1 X99.628 Y100.842 E4.81967
G1 X100.281 Y100.146 E4.85141
G0 F6000 X100.597 Y100.397
G1 F1200 X101.297 Y99.773 E4.8826
G1 X101.7 Y99.458 E4.89961
G1 X101.941 Y99.279 E4.9096
G1 X102.717 Y98.753 E4.94078
G1 X103.535 Y98.294 E4.97198
G1 X104.389 Y97.907 E5.00316
G1 X105.274 Y97.594 E5.03438
G1 X106.181 Y97.357 E5.06556
G1 X107.105 Y97.199 E5.09674
G1 X108.035 Y97.12 E5.12778
G1 X109.028 Y97.078 E5.16084
G1 X109.488 Y97.068 E5.17614
G1 X111.692 Y97.067 E5.24945
G1 X111.698 Y97.067 E5.24965
G1 X125.729 Y97.068 E5.71632
G1 X125.889 Y97.069 E5.72164
G1 X126.573 Y97.079 E5.7444
G1 X127.509 Y97.133 E5.77558
G1 X128.437 Y97.266 E5.80676
G1 X129.351 Y97.478 E5.83797
G1 X130.243 Y97.767 E5.86915
G1 X131.108 Y98.131 E5.90037
G1 X132.117 Y98.673 E5.93846
G1 X132.417 Y98.855 E5.95013
G1 X133.198 Y99.376 E5.98136
G1 X133.931 Y99.96 E6.01253
G1 X134.612 Y100.605 E6.04373
G1 X134.986 Y101.012 E6.06211
G1 X135.092 Y101.133 E6.06746
G1 X135.679 Y101.864 E6.09864
G1 X136.202 Y102.642 E6.12982
G1 X136.696 Y103.542 E6.16397
G1 X136.793 Y103.74 E6.1713
G1 X137.17 Y104.599 E6.2025
G1 X137.471 Y105.487 E6.23369
G1 X137.696 Y106.397 E6.26487
G1 X137.843 Y107.323 E6.29605
G1 X137.913 Y108.366 E6.33082
G1 X137.93 Y109.243 E6.35999
G1 X137.932 Y109.451 E6.36691
G1 X137.933 Y111.66 E6.44039
G1 X137.933 Y111.666 E6.44058
G1 X137.932 Y125.704 E6.90749
G1 X137.931 Y125.858 E6.91261
G1 X137.921 Y126.567 E6.9362
G1 X137.868 Y127.503 E6.96738
G1 X137.735 Y128.432 E6.99859
G1 X137.524 Y129.346 E7.02979
G1 X137.235 Y130.238 E7.06098
G1 X136.872 Y131.103 E7.09218
G1 X136.321 Y132.126 E7.13082
G1 X136.138 Y132.427 E7.14254
G1 X135.617 Y133.207 E7.17374
G1 X135.032 Y133.94 E7.20493
G1 X134.386 Y134.62 E7.23613
G1 X133.983 Y134.991 E7.25435
G1 X133.863 Y135.096 E7.25965
G1 X133.131 Y135.683 E7.29086
G1 X132.352 Y136.206 E7.32206
G1 X131.458 Y136.696 E7.35597
G1 X131.26 Y136.793 E7.36331
G1 X130.401 Y137.17 E7.39451
G1 X129.513 Y137.471 E7.42569
G1 X128.603 Y137.696 E7.45687
G1 X127.677 Y137.843 E7.48805
G1 X126.626 Y137.913 E7.52309
G1 X125.712 Y137.93 E7.55349
G1 X125.512 Y137.932 E7.56015
G1 X123.308 Y137.933 E7.63345
G1 X123.302 Y137.933 E7.63365
G1 X109.271 Y137.932 E8.10032
G1 X109.111 Y137.931 E8.10565
G1 X108.427 Y137.921 E8.1284
G1 X107.491 Y137.867 E8.15958
G1 X106.563 Y137.734 E8.19076
G1 X105.649 Y137.522 E8.22197
G1 X104.757 Y137.233 E8.25315
G1 X103.892 Y136.869 E8.28437
G1 X102.892 Y136.332 E8.32212
G1 X102.593 Y136.151 E8.33375
G1 X101.812 Y135.632 E8.36493
G1 X101.078 Y135.048 E8.39613
G1 X100.397 Y134.403 E8.42733
G1 X99.773 Y133.703 E8.45852
G1 X99.463 Y133.306 E8.47527
G1 X99.283 Y133.064 E8.4853
G1 X98.756 Y132.288 E8.5165
G1 X98.297 Y131.47 E8.5477
G1 X97.909 Y130.617 E8.57887
G1 X97.595 Y129.733 E8.61007
G1 X97.358 Y128.825 E8.64128
G1 X97.199 Y127.901 E8.67246
G1 X97.118 Y126.953 E8.70411
G1 X97.077 Y125.961 E8.73713
G1 X97.068 Y125.512 E8.75207
G1 X97.067 Y123.34 E8.82431
G1 X97.067 Y123.334 E8.82451
G1 X97.068 Y109.251 E9.29291
G1 X97.069 Y109.086 E9.2984
G1 X97.079 Y108.422 E9.32049
G1 X97.133 Y107.486 E9.35167
G1 X97.267 Y106.558 E9.38286
G1 X97.479 Y105.644 E9.41406
G1 X97.769 Y104.752 E9.44526
G1 X98.133 Y103.888 E9.47644
G1 X98.668 Y102.892 E9.51405
G1 X98.849 Y102.593 E9.52567
G1 X99.368 Y101.812 E9.55686
G1 X99.952 Y101.078 E9.58806
G1 X100.597 Y100.397 E9.61925
G0 F6000 X100.912 Y100.648
G1 F1200 X101.939 Y99.779 E9.664
G1 X102.18 Y99.6 E9.67399
G1 X102.942 Y99.084 E9.70459
G1 X103.746 Y98.636 E9.73521
G1 X104.586 Y98.259 E9.76583
G1 X105.456 Y97.957 E9.79646
G1 X106.348 Y97.731 E9.82706
G1 X107.257 Y97.583 E9.8577
G1 X108.052 Y97.519 E9.88422
G1 X109.045 Y97.477 E9.91728
G1 X109.488 Y97.468 E9.93202
G1 X111.692 Y97.467 E10.00532
G1 X111.698 Y97.467 E10.00552
G1 X125.729 Y97.468 E10.4722
G1 X125.883 Y97.469 E10.47732
G1 X126.567 Y97.479 E10.50007
G1 X127.486 Y97.533 E10.53069
G1 X128.397 Y97.666 E10.56131
G1 X129.293 Y97.877 E10.59193
G1 X130.167 Y98.166 E10.62254
G1 X131.013 Y98.529 E10.65316
G1 X131.91 Y99.015 E10.68709
G1 X132.21 Y99.197 E10.69877
G1 X132.976 Y99.709 E10.72941
G1 X133.694 Y100.284 E10.76
G1 X134.36 Y100.92 E10.79063
G1 X134.685 Y101.275 E10.80664
G1 X134.791 Y101.396 E10.81199
G1 X135.367 Y102.114 E10.84261
G1 X135.879 Y102.88 E10.87325
G1 X136.337 Y103.718 E10.90502
G1 X136.434 Y103.916 E10.91235
G1 X136.803 Y104.759 E10.94296
G1 X137.097 Y105.632 E10.97359
G1 X137.314 Y106.526 E11.00419
G1 X137.453 Y107.436 E11.03481
G1 X137.513 Y108.374 E11.06607
G1 X137.53 Y109.251 E11.09525
G1 X137.532 Y109.451 E11.1019
G1 X137.533 Y111.66 E11.17537
G1 X137.533 Y111.666 E11.17557
G1 X137.532 Y125.704 E11.64248
G1 X137.531 Y125.852 E11.6474
G1 X137.521 Y126.561 E11.67098
G1 X137.468 Y127.481 E11.70163
G1 X137.335 Y128.392 E11.73225
G1 X137.124 Y129.288 E11.76287
G1 X136.836 Y130.162 E11.79348
G1 X136.474 Y131.008 E11.82408
G1 X135.979 Y131.919 E11.85857
G1 X135.796 Y132.22 E11.87028
G1 X135.284 Y132.985 E11.9009
G1 X134.708 Y133.703 E11.93151
G1 X134.071 Y134.368 E11.96214
G1 X133.719 Y134.69 E11.97801
G1 X133.599 Y134.795 E11.98331
G1 X132.881 Y135.371 E12.01393
G1 X132.115 Y135.882 E12.04455
G1 X131.282 Y136.337 E12.07612
G1 X131.084 Y136.434 E12.08346
G1 X130.241 Y136.803 E12.11406
G1 X129.368 Y137.097 E12.1447
G1 X128.474 Y137.314 E12.1753
G1 X127.564 Y137.453 E12.20592
G1 X126.618 Y137.513 E12.23745
G1 X125.704 Y137.53 E12.26785
G1 X125.512 Y137.532 E12.27424
G1 X123.308 Y137.533 E12.34754
G1 X123.302 Y137.533 E12.34774
G1 X109.271 Y137.532 E12.81442
G1 X109.117 Y137.531 E12.81954
G1 X108.433 Y137.521 E12.84229
G1 X107.514 Y137.467 E12.87291
G1 X106.603 Y137.334 E12.90353
G1 X105.707 Y137.123 E12.93415
G1 X104.833 Y136.834 E12.96476
G1 X103.987 Y136.471 E12.99538
G1 X103.099 Y135.99 E13.02897
G1 X102.8 Y135.809 E13.0406
G1 X102.034 Y135.298 E13.07122
G1 X101.315 Y134.723 E13.10184
G1 X100.648 Y134.088 E13.13247
G1 X99.784 Y133.067 E13.17696
G1 X99.604 Y132.825 E13.18699
G1 X99.087 Y132.063 E13.21762
G1 X98.638 Y131.259 E13.24825
G1 X98.261 Y130.42 E13.27884
G1 X97.958 Y129.55 E13.30948
G1 X97.731 Y128.658 E13.34009
G1 X97.583 Y127.749 E13.37073
G1 X97.518 Y126.937 E13.39782
G1 X97.477 Y125.945 E13.43084
G1 X97.468 Y125.512 E13.44525
G1 X97.467 Y123.34 E13.51749
G1 X97.467 Y123.334 E13.51769
G1 X97.468 Y109.251 E13.98609
G1 X97.469 Y109.092 E13.99138
G1 X97.479 Y108.428 E14.01346
G1 X97.533 Y107.509 E14.04408
G1 X97.666 Y106.598 E14.0747
G1 X97.878 Y105.702 E14.10533
G1 X98.167 Y104.828 E14.13595
G1 X98.531 Y103.982 E14.16658
G1 X99.01 Y103.099 E14.19999
G1 X99.191 Y102.8 E14.21161
G1 X99.702 Y102.034 E14.24224
G1 X100.277 Y101.315 E14.27286
G1 X100.912 Y100.648 E14.30349
G0 F6000 X101.226 Y100.901
G1 F1200 X102.177 Y100.101 E14.34483
G1 X102.418 Y99.922 E14.35481
G1 X103.166 Y99.416 E14.38485
G1 X103.956 Y98.978 E14.41489
G1 X104.782 Y98.612 E14.44494
G1 X105.636 Y98.32 E14.47496
G1 X106.514 Y98.105 E14.50502
G1 X107.406 Y97.969 E14.53503
G1 X108.069 Y97.919 E14.55715
G1 X109.062 Y97.877 E14.59021
G1 X109.488 Y97.868 E14.60438
G1 X111.692 Y97.867 E14.67768
G1 X111.698 Y97.867 E14.67788
G1 X125.729 Y97.868 E15.14455
G1 X125.877 Y97.869 E15.14948
G1 X126.561 Y97.879 E15.17223
G1 X127.463 Y97.932 E15.20228
G1 X128.356 Y98.065 E15.23231
G1 X129.234 Y98.276 E15.26235
G1 X130.09 Y98.564 E15.29238
G1 X130.917 Y98.927 E15.32242
G1 X131.703 Y99.357 E15.35222
G1 X132.003 Y99.539 E15.36389
G1 X132.753 Y100.041 E15.39391
G1 X133.456 Y100.608 E15.42395
G1 X134.384 Y101.539 E15.46767
G1 X134.49 Y101.66 E15.47302
G1 X135.055 Y102.365 E15.50307
G1 X135.555 Y103.117 E15.53311
G1 X135.978 Y103.894 E15.56253
G1 X136.075 Y104.092 E15.56986
G1 X136.436 Y104.919 E15.59988
G1 X136.722 Y105.776 E15.62993
G1 X136.932 Y106.654 E15.65995
G1 X137.063 Y107.548 E15.69
G1 X137.113 Y108.381 E15.71776
G1 X137.13 Y109.258 E15.74693
G1 X137.132 Y109.451 E15.75335
G1 X137.133 Y111.66 E15.82682
G1 X137.133 Y111.666 E15.82702
G1 X137.132 Y125.704 E16.29393
G1 X137.131 Y125.847 E16.29869
G1 X137.121 Y126.556 E16.32227
G1 X137.068 Y127.457 E16.35229
G1 X136.936 Y128.351 E16.38235
G1 X136.725 Y129.229 E16.41238
G1 X136.438 Y130.085 E16.44241
G1 X136.076 Y130.912 E16.47243
G1 X135.638 Y131.711 E16.50274
G1 X135.455 Y132.012 E16.51446
G1 X134.952 Y132.762 E16.54449
G1 X134.385 Y133.465 E16.57453
G1 X133.456 Y134.389 E16.61811
G1 X133.336 Y134.494 E16.62341
G1 X132.63 Y135.058 E16.65347
G1 X131.878 Y135.558 E16.6835
G1 X131.106 Y135.978 E16.71274
G1 X130.908 Y136.075 E16.72007
G1 X130.081 Y136.436 E16.75008
G1 X129.224 Y136.722 E16.78013
G1 X128.346 Y136.932 E16.81016
G1 X127.452 Y137.063 E16.84021
G1 X126.611 Y137.113 E16.86823
G1 X125.697 Y137.13 E16.89864
G1 X125.512 Y137.132 E16.90479
G1 X123.308 Y137.133 E16.97809
G1 X123.302 Y137.133 E16.97829
G1 X109.271 Y137.132 E17.44497
G1 X109.123 Y137.131 E17.44989
G1 X108.439 Y137.121 E17.47264
G1 X107.537 Y137.068 E17.50269
G1 X106.644 Y136.935 E17.53272
G1 X105.766 Y136.724 E17.56276
G1 X104.91 Y136.436 E17.5928
G1 X104.083 Y136.073 E17.62283
G1 X103.306 Y135.648 E17.65229
G1 X103.007 Y135.467 E17.66392
G1 X102.256 Y134.965 E17.69396
G1 X101.552 Y134.399 E17.72401
G1 X100.901 Y133.774 E17.75402
G1 X100.105 Y132.828 E17.79514
G1 X99.925 Y132.586 E17.80517
G1 X99.418 Y131.839 E17.8352
G1 X98.98 Y131.049 E17.86524
G1 X98.613 Y130.224 E17.89528
G1 X98.321 Y129.369 E17.92533
G1 X98.106 Y128.492 E17.95536
G1 X97.969 Y127.6 E17.98538
G1 X97.918 Y126.92 E18.00806
G1 X97.877 Y125.928 E18.04108
G1 X97.868 Y125.512 E18.05492
G1 X97.867 Y123.34 E18.12716
G1 X97.867 Y123.334 E18.12736
G1 X97.868 Y109.251 E18.59576
G1 X97.869 Y109.098 E18.60085
G1 X97.879 Y108.434 E18.62294
G1 X97.933 Y107.533 E18.65296
G1 X98.066 Y106.64 E18.68299
G1 X98.277 Y105.762 E18.71302
G1 X98.566 Y104.906 E18.74307
G1 X98.929 Y104.079 E18.77311
G1 X99.352 Y103.306 E18.80242
G1 X99.533 Y103.007 E18.81404
G1 X100.035 Y102.256 E18.84409
G1 X100.601 Y101.552 E18.87413
G1 X101.226 Y100.901 E18.90415
G1 F3000 E13.90415
G1 F600 Z0.4
;MESH:CountingBlocks-2.stl
G0 F6000 X125.532 Y109.468 Z0.4
;TYPE:WALL-INNER
G1 F600 Z0.2
G1 F3000 E18.90415
G1 F1200 X125.532 Y125.532 E19.43844
G1 X123.303 Y125.533 E19.51257
G1 X109.468 Y125.532 E19.97273
G1 X109.467 Y123.303 E20.04687
G1 X109.468 Y109.468 E20.50702
G1 X111.697 Y109.467 E20.58116
G1 X125.532 Y109.468 E21.04131
G0 F6000 X125.932 Y109.068
G1 F1200 X125.932 Y125.932 E21.60221
G1 X123.303 Y125.933 E21.68965
G1 X109.068 Y125.932 E22.16311
G1 X109.067 Y123.303 E22.25055
G1 X109.068 Y109.068 E22.72401
G1 X111.697 Y109.067 E22.81145
G1 X125.932 Y109.068 E23.28491
G1 F3000 E18.28491
G1 F600 Z0.4
G0 F6000 X108.719 Y126.332 Z0.4
G1 F600 Z0.2
G1 F3000 E23.28491
G1 F1200 X108.668 Y126.28 E23.28733
G1 X108.667 Y123.303 E23.38634
G1 X108.668 Y108.719 E23.87141
G1 X108.72 Y108.668 E23.87383
G1 X111.697 Y108.667 E23.97285
G1 X126.281 Y108.668 E24.45791
G1 X126.325 Y108.709 E24.45991
G1 X126.332 Y108.719 E24.46032
G1 X126.333 Y111.697 E24.55937
G1 X126.332 Y126.281 E25.04443
G1 X126.324 Y126.292 E25.04489
G1 X126.281 Y126.332 E25.04684
G1 X123.303 Y126.333 E25.14589
G1 X108.719 Y126.332 E25.63095
G0 F6000 X108.268 Y126.386
;TYPE:WALL-OUTER
G1 F1200 X108.267 Y123.303 E25.7335
G1 X108.268 Y108.614 E26.22205
G1 X108.298 Y108.549 E26.22443
G1 X108.367 Y108.452 E26.22839
G1 X108.477 Y108.347 E26.23345
G1 X108.548 Y108.299 E26.2363
G1 X108.614 Y108.268 E26.23873
G1 X111.697 Y108.267 E26.34127
G1 X126.386 Y108.268 E26.82983
G1 X126.451 Y108.298 E26.83221
G1 X126.551 Y108.369 E26.83629
G1 X126.631 Y108.449 E26.84005
G1 X126.702 Y108.549 E26.84413
G1 X126.732 Y108.614 E26.84651
G1 X126.733 Y111.697 E26.94905
G1 X126.732 Y126.386 E27.43761
G1 X126.702 Y126.451 E27.43999
G1 X126.632 Y126.55 E27.44402
G1 X126.551 Y126.631 E27.44783
G1 X126.451 Y126.702 E27.45191
G1 X126.386 Y126.732 E27.45429
G1 X123.303 Y126.733 E27.55683
G1 X108.614 Y126.732 E28.04539
G1 X108.549 Y126.702 E28.04777
G1 X108.452 Y126.633 E28.05173
G1 X108.347 Y126.523 E28.05679
G1 X108.299 Y126.452 E28.05964
G1 X108.268 Y126.386 E28.06207
G0 F6000 X108.268 Y126.186
G1 F3000 E23.06207
G1 F600 Z0.4
G0 F6000 X109.858 Y125.142 Z0.4
;TYPE:SKIN
G1 F600 Z0.2
G1 F3000 E28.06207
G1 F1200 X109.857 Y123.303 E28.12323
G1 X109.858 Y109.858 E28.57041
